(Block-name: Header)
(Block-expand: 0)
(Block-enable: 1)
%
(Header)
(Generated by gcodetools from Inkscape.)
(Using default header. To add your own header create file "header" in the output dir.)
M3
(Header end.)
G21 (All units in mm)

(Start cutting path id: path4)
(Change tool to Default tool)

G00 Z20.000000
(Block-name: path4)
(Block-expand: 0)
(Block-enable: 0)

(End cutting path id: path4)


(Start cutting path id: path4)
(Change tool to Default tool)

G0 Z20
G0 X200.265655 Y170.855107

G1 Z-0.125 F100
G1 X200.112655 Y170.891707 Z-0.125 F400
G1 X199.967655 Y170.951807 Z-0.125
G1 X199.833654 Y171.033807 Z-0.125
G1 X199.714655 Y171.135706 Z-0.125
G1 X199.612653 Y171.255007 Z-0.125
G1 X199.530653 Y171.388806 Z-0.125
G1 X199.470653 Y171.533806 Z-0.125
G1 X199.433653 Y171.686407 Z-0.125
G1 X199.421643 Y171.842808 Z-0.125
G1 X199.433653 Y171.999208 Z-0.125
G1 X199.470653 Y172.151807 Z-0.125
G1 X199.530653 Y172.296806 Z-0.125
G1 X199.612653 Y172.430606 Z-0.125
G1 X199.714655 Y172.549907 Z-0.125
G1 X199.833654 Y172.651808 Z-0.125
G1 X199.967655 Y172.733808 Z-0.125
G1 X200.112655 Y172.793808 Z-0.125
G1 X200.265655 Y172.830508 Z-0.125
G1 X200.421654 Y172.842808 Z-0.125
G1 X200.577655 Y172.830508 Z-0.125
G1 X200.730655 Y172.793808 Z-0.125
G1 X200.875655 Y172.733808 Z-0.125
G1 X201.009653 Y172.651808 Z-0.125
G1 X201.128655 Y172.549907 Z-0.125
G1 X201.230654 Y172.430606 Z-0.125
G1 X201.312654 Y172.296806 Z-0.125
G1 X201.372654 Y172.151807 Z-0.125
G1 X201.409654 Y171.999208 Z-0.125
G1 X201.421644 Y171.842808 Z-0.125
G1 X201.409654 Y171.686407 Z-0.125
G1 X201.372654 Y171.533806 Z-0.125
G1 X201.312654 Y171.388806 Z-0.125
G1 X201.230654 Y171.255007 Z-0.125
G1 X201.128655 Y171.135706 Z-0.125
G1 X201.009653 Y171.033807 Z-0.125
G1 X200.875655 Y170.951807 Z-0.125
G1 X200.730655 Y170.891707 Z-0.125
G1 X200.577655 Y170.855107 Z-0.125
G1 X200.421654 Y170.842807 Z-0.125
G1 X200.265655 Y170.855107 Z-0.125
G0 Z20
(Block-name: path4 [in,cut])
(Block-expand: 0)
(Block-enable: 1)
g0 x200.383089 y171.598175
g1 z0 f500
g1 x200.344934 y171.607303 f1200
g1 x200.309055 y171.622174
g1 x200.276088 y171.642348
g1 x200.246787 y171.667438
g1 x200.221177 y171.697392
g1 x200.201039 y171.730251
g1 x200.185858 y171.766939
g1 x200.176812 y171.804246
g1 x200.173851 y171.842808
g1 x200.176812 y171.881368
g1 x200.185857 y171.918672
g1 x200.201039 y171.955361
g1 x200.221178 y171.988222
g1 x200.24679 y172.018178
g1 x200.276092 y172.043269
g1 x200.308866 y172.063325
g1 x200.344934 y172.07825
g1 x200.383322 y172.087458
g1 x200.421654 y172.09048
g1 x200.459988 y172.087458
g1 x200.498376 y172.07825
g1 x200.534441 y172.063327
g1 x200.567217 y172.043269
g1 x200.596519 y172.018178
g1 x200.622126 y171.988227
g1 x200.642268 y171.955361
g1 x200.65745 y171.918672
g1 x200.666484 y171.881414
g1 x200.669443 y171.842808
g1 x200.666484 y171.804199
g1 x200.657449 y171.766939
g1 x200.642268 y171.730251
g1 x200.622127 y171.697387
g1 x200.596521 y171.667438
g1 x200.56722 y171.642348
g1 x200.534251 y171.622172
g1 x200.498376 y171.607303
g1 x200.460221 y171.598175
g1 x200.421654 y171.595135
g1 x200.383089 y171.598175
g1 z-0.5 f500
g1 x200.344934 y171.607303 f1200
g1 x200.309055 y171.622174
g1 x200.276088 y171.642348
g1 x200.246787 y171.667438
g1 x200.221177 y171.697392
g1 x200.201039 y171.730251
g1 x200.185858 y171.766939
g1 x200.176812 y171.804246
g1 x200.173851 y171.842808
g1 x200.176812 y171.881368
g1 x200.185857 y171.918672
g1 x200.201039 y171.955361
g1 x200.221178 y171.988222
g1 x200.24679 y172.018178
g1 x200.276092 y172.043269
g1 x200.308866 y172.063325
g1 x200.344934 y172.07825
g1 x200.383322 y172.087458
g1 x200.421654 y172.09048
g1 x200.459988 y172.087458
g1 x200.498376 y172.07825
g1 x200.534441 y172.063327
g1 x200.567217 y172.043269
g1 x200.596519 y172.018178
g1 x200.622126 y171.988227
g1 x200.642268 y171.955361
g1 x200.65745 y171.918672
g1 x200.666484 y171.881414
g1 x200.669443 y171.842808
g1 x200.666484 y171.804199
g1 x200.657449 y171.766939
g1 x200.642268 y171.730251
g1 x200.622127 y171.697387
g1 x200.596521 y171.667438
g1 x200.56722 y171.642348
g1 x200.534251 y171.622172
g1 x200.498376 y171.607303
g1 x200.460221 y171.598175
g1 x200.421654 y171.595135
g1 x200.383089 y171.598175
g1 z-1 f500
g1 x200.344934 y171.607303 f1200
g1 x200.309055 y171.622174
g1 x200.276088 y171.642348
g1 x200.246787 y171.667438
g1 x200.221177 y171.697392
g1 x200.201039 y171.730251
g1 x200.185858 y171.766939
g1 x200.176812 y171.804246
g1 x200.173851 y171.842808
g1 x200.176812 y171.881368
g1 x200.185857 y171.918672
g1 x200.201039 y171.955361
g1 x200.221178 y171.988222
g1 x200.24679 y172.018178
g1 x200.276092 y172.043269
g1 x200.308866 y172.063325
g1 x200.344934 y172.07825
g1 x200.383322 y172.087458
g1 x200.421654 y172.09048
g1 x200.459988 y172.087458
g1 x200.498376 y172.07825
g1 x200.534441 y172.063327
g1 x200.567217 y172.043269
g1 x200.596519 y172.018178
g1 x200.622126 y171.988227
g1 x200.642268 y171.955361
g1 x200.65745 y171.918672
g1 x200.666484 y171.881414
g1 x200.669443 y171.842808
g1 x200.666484 y171.804199
g1 x200.657449 y171.766939
g1 x200.642268 y171.730251
g1 x200.622127 y171.697387
g1 x200.596521 y171.667438
g1 x200.56722 y171.642348
g1 x200.534251 y171.622172
g1 x200.498376 y171.607303
g1 x200.460221 y171.598175
g1 x200.421654 y171.595135
g1 x200.383089 y171.598175
g1 z-1.5 f500
g1 x200.344934 y171.607303 f1200
g1 x200.309055 y171.622174
g1 x200.276088 y171.642348
g1 x200.246787 y171.667438
g1 x200.221177 y171.697392
g1 x200.201039 y171.730251
g1 x200.185858 y171.766939
g1 x200.176812 y171.804246
g1 x200.173851 y171.842808
g1 x200.176812 y171.881368
g1 x200.185857 y171.918672
g1 x200.201039 y171.955361
g1 x200.221178 y171.988222
g1 x200.24679 y172.018178
g1 x200.276092 y172.043269
g1 x200.308866 y172.063325
g1 x200.344934 y172.07825
g1 x200.383322 y172.087458
g1 x200.421654 y172.09048
g1 x200.459988 y172.087458
g1 x200.498376 y172.07825
g1 x200.534441 y172.063327
g1 x200.567217 y172.043269
g1 x200.596519 y172.018178
g1 x200.622126 y171.988227
g1 x200.642268 y171.955361
g1 x200.65745 y171.918672
g1 x200.666484 y171.881414
g1 x200.669443 y171.842808
g1 x200.666484 y171.804199
g1 x200.657449 y171.766939
g1 x200.642268 y171.730251
g1 x200.622127 y171.697387
g1 x200.596521 y171.667438
g1 x200.56722 y171.642348
g1 x200.534251 y171.622172
g1 x200.498376 y171.607303
g1 x200.460221 y171.598175
g1 x200.421654 y171.595135
g1 x200.383089 y171.598175
g1 z-2 f500
g1 x200.344934 y171.607303 f1200
g1 x200.309055 y171.622174
g1 x200.276088 y171.642348
g1 x200.246787 y171.667438
g1 x200.221177 y171.697392
g1 x200.201039 y171.730251
g1 x200.185858 y171.766939
g1 x200.176812 y171.804246
g1 x200.173851 y171.842808
g1 x200.176812 y171.881368
g1 x200.185857 y171.918672
g1 x200.201039 y171.955361
g1 x200.221178 y171.988222
g1 x200.24679 y172.018178
g1 x200.276092 y172.043269
g1 x200.308866 y172.063325
g1 x200.344934 y172.07825
g1 x200.383322 y172.087458
g1 x200.421654 y172.09048
g1 x200.459988 y172.087458
g1 x200.498376 y172.07825
g1 x200.534441 y172.063327
g1 x200.567217 y172.043269
g1 x200.596519 y172.018178
g1 x200.622126 y171.988227
g1 x200.642268 y171.955361
g1 x200.65745 y171.918672
g1 x200.666484 y171.881414
g1 x200.669443 y171.842808
g1 x200.666484 y171.804199
g1 x200.657449 y171.766939
g1 x200.642268 y171.730251
g1 x200.622127 y171.697387
g1 x200.596521 y171.667438
g1 x200.56722 y171.642348
g1 x200.534251 y171.622172
g1 x200.498376 y171.607303
g1 x200.460221 y171.598175
g1 x200.421654 y171.595135
g1 x200.383089 y171.598175
g0 z30
(Block-name: path4)
(Block-expand: 0)
(Block-enable: 0)

(End cutting path id: path4)


(Start cutting path id: path4)
(Change tool to Default tool)

G0 Z20
G0 X215.765653 Y170.855107

G1 Z-0.125 F100
G1 X215.612655 Y170.891707 Z-0.125 F400
G1 X215.467655 Y170.951807 Z-0.125
G1 X215.333654 Y171.033807 Z-0.125
G1 X215.214655 Y171.135706 Z-0.125
G1 X215.112653 Y171.255007 Z-0.125
G1 X215.030653 Y171.388806 Z-0.125
G1 X214.970653 Y171.533806 Z-0.125
G1 X214.933653 Y171.686407 Z-0.125
G1 X214.921643 Y171.842808 Z-0.125
G1 X214.933653 Y171.999208 Z-0.125
G1 X214.970653 Y172.151807 Z-0.125
G1 X215.030653 Y172.296806 Z-0.125
G1 X215.112653 Y172.430606 Z-0.125
G1 X215.214655 Y172.549907 Z-0.125
G1 X215.333654 Y172.651808 Z-0.125
G1 X215.467655 Y172.733808 Z-0.125
G1 X215.612655 Y172.793808 Z-0.125
G1 X215.765653 Y172.830508 Z-0.125
G1 X215.921654 Y172.842808 Z-0.125
G1 X216.077655 Y172.830508 Z-0.125
G1 X216.230655 Y172.793808 Z-0.125
G1 X216.375655 Y172.733808 Z-0.125
G1 X216.509653 Y172.651808 Z-0.125
G1 X216.628655 Y172.549907 Z-0.125
G1 X216.730654 Y172.430606 Z-0.125
G1 X216.812654 Y172.296806 Z-0.125
G1 X216.872654 Y172.151807 Z-0.125
G1 X216.909654 Y171.999208 Z-0.125
G1 X216.921664 Y171.842808 Z-0.125
G1 X216.909654 Y171.686407 Z-0.125
G1 X216.872654 Y171.533806 Z-0.125
G1 X216.812654 Y171.388806 Z-0.125
G1 X216.730654 Y171.255007 Z-0.125
G1 X216.628655 Y171.135706 Z-0.125
G1 X216.509653 Y171.033807 Z-0.125
G1 X216.375655 Y170.951807 Z-0.125
G1 X216.230655 Y170.891707 Z-0.125
G1 X216.077655 Y170.855107 Z-0.125
G1 X215.921654 Y170.842807 Z-0.125
G1 X215.765653 Y170.855107 Z-0.125
G0 Z20
(Block-name: path4 [in,cut])
(Block-expand: 0)
(Block-enable: 1)
g0 x215.883088 y171.598175
g1 z0 f500
g1 x215.844935 y171.607302 f1200
g1 x215.809055 y171.622174
g1 x215.776088 y171.642348
g1 x215.746787 y171.667438
g1 x215.721177 y171.697392
g1 x215.701039 y171.730251
g1 x215.685858 y171.766939
g1 x215.676812 y171.804246
g1 x215.673851 y171.842808
g1 x215.676812 y171.881368
g1 x215.685857 y171.918672
g1 x215.701039 y171.955361
g1 x215.721178 y171.988222
g1 x215.74679 y172.018178
g1 x215.776092 y172.043269
g1 x215.808866 y172.063325
g1 x215.844935 y172.07825
g1 x215.883321 y172.087458
g1 x215.921654 y172.09048
g1 x215.959988 y172.087458
g1 x215.998376 y172.07825
g1 x216.034441 y172.063327
g1 x216.067217 y172.043269
g1 x216.096519 y172.018178
g1 x216.122126 y171.988227
g1 x216.142268 y171.955361
g1 x216.15745 y171.918672
g1 x216.166495 y171.881368
g1 x216.169456 y171.842808
g1 x216.166495 y171.804246
g1 x216.157449 y171.766939
g1 x216.142268 y171.730251
g1 x216.122127 y171.697387
g1 x216.096521 y171.667438
g1 x216.06722 y171.642348
g1 x216.034251 y171.622172
g1 x215.998376 y171.607303
g1 x215.960221 y171.598175
g1 x215.921654 y171.595135
g1 x215.883088 y171.598175
g1 z-0.5 f500
g1 x215.844935 y171.607302 f1200
g1 x215.809055 y171.622174
g1 x215.776088 y171.642348
g1 x215.746787 y171.667438
g1 x215.721177 y171.697392
g1 x215.701039 y171.730251
g1 x215.685858 y171.766939
g1 x215.676812 y171.804246
g1 x215.673851 y171.842808
g1 x215.676812 y171.881368
g1 x215.685857 y171.918672
g1 x215.701039 y171.955361
g1 x215.721178 y171.988222
g1 x215.74679 y172.018178
g1 x215.776092 y172.043269
g1 x215.808866 y172.063325
g1 x215.844935 y172.07825
g1 x215.883321 y172.087458
g1 x215.921654 y172.09048
g1 x215.959988 y172.087458
g1 x215.998376 y172.07825
g1 x216.034441 y172.063327
g1 x216.067217 y172.043269
g1 x216.096519 y172.018178
g1 x216.122126 y171.988227
g1 x216.142268 y171.955361
g1 x216.15745 y171.918672
g1 x216.166495 y171.881368
g1 x216.169456 y171.842808
g1 x216.166495 y171.804246
g1 x216.157449 y171.766939
g1 x216.142268 y171.730251
g1 x216.122127 y171.697387
g1 x216.096521 y171.667438
g1 x216.06722 y171.642348
g1 x216.034251 y171.622172
g1 x215.998376 y171.607303
g1 x215.960221 y171.598175
g1 x215.921654 y171.595135
g1 x215.883088 y171.598175
g1 z-1 f500
g1 x215.844935 y171.607302 f1200
g1 x215.809055 y171.622174
g1 x215.776088 y171.642348
g1 x215.746787 y171.667438
g1 x215.721177 y171.697392
g1 x215.701039 y171.730251
g1 x215.685858 y171.766939
g1 x215.676812 y171.804246
g1 x215.673851 y171.842808
g1 x215.676812 y171.881368
g1 x215.685857 y171.918672
g1 x215.701039 y171.955361
g1 x215.721178 y171.988222
g1 x215.74679 y172.018178
g1 x215.776092 y172.043269
g1 x215.808866 y172.063325
g1 x215.844935 y172.07825
g1 x215.883321 y172.087458
g1 x215.921654 y172.09048
g1 x215.959988 y172.087458
g1 x215.998376 y172.07825
g1 x216.034441 y172.063327
g1 x216.067217 y172.043269
g1 x216.096519 y172.018178
g1 x216.122126 y171.988227
g1 x216.142268 y171.955361
g1 x216.15745 y171.918672
g1 x216.166495 y171.881368
g1 x216.169456 y171.842808
g1 x216.166495 y171.804246
g1 x216.157449 y171.766939
g1 x216.142268 y171.730251
g1 x216.122127 y171.697387
g1 x216.096521 y171.667438
g1 x216.06722 y171.642348
g1 x216.034251 y171.622172
g1 x215.998376 y171.607303
g1 x215.960221 y171.598175
g1 x215.921654 y171.595135
g1 x215.883088 y171.598175
g1 z-1.5 f500
g1 x215.844935 y171.607302 f1200
g1 x215.809055 y171.622174
g1 x215.776088 y171.642348
g1 x215.746787 y171.667438
g1 x215.721177 y171.697392
g1 x215.701039 y171.730251
g1 x215.685858 y171.766939
g1 x215.676812 y171.804246
g1 x215.673851 y171.842808
g1 x215.676812 y171.881368
g1 x215.685857 y171.918672
g1 x215.701039 y171.955361
g1 x215.721178 y171.988222
g1 x215.74679 y172.018178
g1 x215.776092 y172.043269
g1 x215.808866 y172.063325
g1 x215.844935 y172.07825
g1 x215.883321 y172.087458
g1 x215.921654 y172.09048
g1 x215.959988 y172.087458
g1 x215.998376 y172.07825
g1 x216.034441 y172.063327
g1 x216.067217 y172.043269
g1 x216.096519 y172.018178
g1 x216.122126 y171.988227
g1 x216.142268 y171.955361
g1 x216.15745 y171.918672
g1 x216.166495 y171.881368
g1 x216.169456 y171.842808
g1 x216.166495 y171.804246
g1 x216.157449 y171.766939
g1 x216.142268 y171.730251
g1 x216.122127 y171.697387
g1 x216.096521 y171.667438
g1 x216.06722 y171.642348
g1 x216.034251 y171.622172
g1 x215.998376 y171.607303
g1 x215.960221 y171.598175
g1 x215.921654 y171.595135
g1 x215.883088 y171.598175
g1 z-2 f500
g1 x215.844935 y171.607302 f1200
g1 x215.809055 y171.622174
g1 x215.776088 y171.642348
g1 x215.746787 y171.667438
g1 x215.721177 y171.697392
g1 x215.701039 y171.730251
g1 x215.685858 y171.766939
g1 x215.676812 y171.804246
g1 x215.673851 y171.842808
g1 x215.676812 y171.881368
g1 x215.685857 y171.918672
g1 x215.701039 y171.955361
g1 x215.721178 y171.988222
g1 x215.74679 y172.018178
g1 x215.776092 y172.043269
g1 x215.808866 y172.063325
g1 x215.844935 y172.07825
g1 x215.883321 y172.087458
g1 x215.921654 y172.09048
g1 x215.959988 y172.087458
g1 x215.998376 y172.07825
g1 x216.034441 y172.063327
g1 x216.067217 y172.043269
g1 x216.096519 y172.018178
g1 x216.122126 y171.988227
g1 x216.142268 y171.955361
g1 x216.15745 y171.918672
g1 x216.166495 y171.881368
g1 x216.169456 y171.842808
g1 x216.166495 y171.804246
g1 x216.157449 y171.766939
g1 x216.142268 y171.730251
g1 x216.122127 y171.697387
g1 x216.096521 y171.667438
g1 x216.06722 y171.642348
g1 x216.034251 y171.622172
g1 x215.998376 y171.607303
g1 x215.960221 y171.598175
g1 x215.921654 y171.595135
g1 x215.883088 y171.598175
g0 z30
(Block-name: path4)
(Block-expand: 0)
(Block-enable: 0)

(End cutting path id: path4)


(Start cutting path id: path4)
(Change tool to Default tool)

G0 Z20
G0 X200.265655 Y186.355108

G1 Z-0.125 F100
G1 X200.112655 Y186.391708 Z-0.125 F400
G1 X199.967655 Y186.451808 Z-0.125
G1 X199.833654 Y186.533808 Z-0.125
G1 X199.714655 Y186.635707 Z-0.125
G1 X199.612653 Y186.755008 Z-0.125
G1 X199.530653 Y186.888808 Z-0.125
G1 X199.470653 Y187.033807 Z-0.125
G1 X199.433653 Y187.186408 Z-0.125
G1 X199.421643 Y187.342809 Z-0.125
G1 X199.433653 Y187.499207 Z-0.125
G1 X199.470653 Y187.651808 Z-0.125
G1 X199.530653 Y187.796807 Z-0.125
G1 X199.612653 Y187.930607 Z-0.125
G1 X199.714655 Y188.049908 Z-0.125
G1 X199.833654 Y188.151807 Z-0.125
G1 X199.967655 Y188.233807 Z-0.125
G1 X200.112655 Y188.293807 Z-0.125
G1 X200.265655 Y188.330507 Z-0.125
G1 X200.421654 Y188.342807 Z-0.125
G1 X200.577655 Y188.330507 Z-0.125
G1 X200.730655 Y188.293807 Z-0.125
G1 X200.875655 Y188.233807 Z-0.125
G1 X201.009653 Y188.151807 Z-0.125
G1 X201.128655 Y188.049908 Z-0.125
G1 X201.230654 Y187.930607 Z-0.125
G1 X201.312654 Y187.796807 Z-0.125
G1 X201.372654 Y187.651808 Z-0.125
G1 X201.409654 Y187.499207 Z-0.125
G1 X201.421644 Y187.342809 Z-0.125
G1 X201.409654 Y187.186408 Z-0.125
G1 X201.372654 Y187.033807 Z-0.125
G1 X201.312654 Y186.888808 Z-0.125
G1 X201.230654 Y186.755008 Z-0.125
G1 X201.128655 Y186.635707 Z-0.125
G1 X201.009653 Y186.533808 Z-0.125
G1 X200.875655 Y186.451808 Z-0.125
G1 X200.730655 Y186.391708 Z-0.125
G1 X200.577655 Y186.355108 Z-0.125
G1 X200.421654 Y186.342808 Z-0.125
G1 X200.265655 Y186.355108 Z-0.125
G0 Z20
(Block-name: path4 [in,cut])
(Block-expand: 0)
(Block-enable: 1)
g0 x200.383089 y187.098176
g1 z0 f500
g1 x200.344934 y187.107304 f1200
g1 x200.309055 y187.122175
g1 x200.276088 y187.142349
g1 x200.246787 y187.167439
g1 x200.221178 y187.197392
g1 x200.201039 y187.230253
g1 x200.185857 y187.266941
g1 x200.176812 y187.304247
g1 x200.173851 y187.342808
g1 x200.176812 y187.381368
g1 x200.185857 y187.418674
g1 x200.201039 y187.455362
g1 x200.221178 y187.488223
g1 x200.246787 y187.518176
g1 x200.276088 y187.543266
g1 x200.308866 y187.563324
g1 x200.344934 y187.578249
g1 x200.383322 y187.587457
g1 x200.421654 y187.590479
g1 x200.459988 y187.587457
g1 x200.498376 y187.578249
g1 x200.534441 y187.563326
g1 x200.56722 y187.543266
g1 x200.596521 y187.518176
g1 x200.622126 y187.488228
g1 x200.642268 y187.455362
g1 x200.65745 y187.418674
g1 x200.666484 y187.381414
g1 x200.669443 y187.342808
g1 x200.666484 y187.3042
g1 x200.65745 y187.266941
g1 x200.642268 y187.230253
g1 x200.622126 y187.197387
g1 x200.596521 y187.167439
g1 x200.56722 y187.142349
g1 x200.534251 y187.122173
g1 x200.498376 y187.107304
g1 x200.460221 y187.098176
g1 x200.421654 y187.095136
g1 x200.383089 y187.098176
g1 z-0.5 f500
g1 x200.344934 y187.107304 f1200
g1 x200.309055 y187.122175
g1 x200.276088 y187.142349
g1 x200.246787 y187.167439
g1 x200.221178 y187.197392
g1 x200.201039 y187.230253
g1 x200.185857 y187.266941
g1 x200.176812 y187.304247
g1 x200.173851 y187.342808
g1 x200.176812 y187.381368
g1 x200.185857 y187.418674
g1 x200.201039 y187.455362
g1 x200.221178 y187.488223
g1 x200.246787 y187.518176
g1 x200.276088 y187.543266
g1 x200.308866 y187.563324
g1 x200.344934 y187.578249
g1 x200.383322 y187.587457
g1 x200.421654 y187.590479
g1 x200.459988 y187.587457
g1 x200.498376 y187.578249
g1 x200.534441 y187.563326
g1 x200.56722 y187.543266
g1 x200.596521 y187.518176
g1 x200.622126 y187.488228
g1 x200.642268 y187.455362
g1 x200.65745 y187.418674
g1 x200.666484 y187.381414
g1 x200.669443 y187.342808
g1 x200.666484 y187.3042
g1 x200.65745 y187.266941
g1 x200.642268 y187.230253
g1 x200.622126 y187.197387
g1 x200.596521 y187.167439
g1 x200.56722 y187.142349
g1 x200.534251 y187.122173
g1 x200.498376 y187.107304
g1 x200.460221 y187.098176
g1 x200.421654 y187.095136
g1 x200.383089 y187.098176
g1 z-1 f500
g1 x200.344934 y187.107304 f1200
g1 x200.309055 y187.122175
g1 x200.276088 y187.142349
g1 x200.246787 y187.167439
g1 x200.221178 y187.197392
g1 x200.201039 y187.230253
g1 x200.185857 y187.266941
g1 x200.176812 y187.304247
g1 x200.173851 y187.342808
g1 x200.176812 y187.381368
g1 x200.185857 y187.418674
g1 x200.201039 y187.455362
g1 x200.221178 y187.488223
g1 x200.246787 y187.518176
g1 x200.276088 y187.543266
g1 x200.308866 y187.563324
g1 x200.344934 y187.578249
g1 x200.383322 y187.587457
g1 x200.421654 y187.590479
g1 x200.459988 y187.587457
g1 x200.498376 y187.578249
g1 x200.534441 y187.563326
g1 x200.56722 y187.543266
g1 x200.596521 y187.518176
g1 x200.622126 y187.488228
g1 x200.642268 y187.455362
g1 x200.65745 y187.418674
g1 x200.666484 y187.381414
g1 x200.669443 y187.342808
g1 x200.666484 y187.3042
g1 x200.65745 y187.266941
g1 x200.642268 y187.230253
g1 x200.622126 y187.197387
g1 x200.596521 y187.167439
g1 x200.56722 y187.142349
g1 x200.534251 y187.122173
g1 x200.498376 y187.107304
g1 x200.460221 y187.098176
g1 x200.421654 y187.095136
g1 x200.383089 y187.098176
g1 z-1.5 f500
g1 x200.344934 y187.107304 f1200
g1 x200.309055 y187.122175
g1 x200.276088 y187.142349
g1 x200.246787 y187.167439
g1 x200.221178 y187.197392
g1 x200.201039 y187.230253
g1 x200.185857 y187.266941
g1 x200.176812 y187.304247
g1 x200.173851 y187.342808
g1 x200.176812 y187.381368
g1 x200.185857 y187.418674
g1 x200.201039 y187.455362
g1 x200.221178 y187.488223
g1 x200.246787 y187.518176
g1 x200.276088 y187.543266
g1 x200.308866 y187.563324
g1 x200.344934 y187.578249
g1 x200.383322 y187.587457
g1 x200.421654 y187.590479
g1 x200.459988 y187.587457
g1 x200.498376 y187.578249
g1 x200.534441 y187.563326
g1 x200.56722 y187.543266
g1 x200.596521 y187.518176
g1 x200.622126 y187.488228
g1 x200.642268 y187.455362
g1 x200.65745 y187.418674
g1 x200.666484 y187.381414
g1 x200.669443 y187.342808
g1 x200.666484 y187.3042
g1 x200.65745 y187.266941
g1 x200.642268 y187.230253
g1 x200.622126 y187.197387
g1 x200.596521 y187.167439
g1 x200.56722 y187.142349
g1 x200.534251 y187.122173
g1 x200.498376 y187.107304
g1 x200.460221 y187.098176
g1 x200.421654 y187.095136
g1 x200.383089 y187.098176
g1 z-2 f500
g1 x200.344934 y187.107304 f1200
g1 x200.309055 y187.122175
g1 x200.276088 y187.142349
g1 x200.246787 y187.167439
g1 x200.221178 y187.197392
g1 x200.201039 y187.230253
g1 x200.185857 y187.266941
g1 x200.176812 y187.304247
g1 x200.173851 y187.342808
g1 x200.176812 y187.381368
g1 x200.185857 y187.418674
g1 x200.201039 y187.455362
g1 x200.221178 y187.488223
g1 x200.246787 y187.518176
g1 x200.276088 y187.543266
g1 x200.308866 y187.563324
g1 x200.344934 y187.578249
g1 x200.383322 y187.587457
g1 x200.421654 y187.590479
g1 x200.459988 y187.587457
g1 x200.498376 y187.578249
g1 x200.534441 y187.563326
g1 x200.56722 y187.543266
g1 x200.596521 y187.518176
g1 x200.622126 y187.488228
g1 x200.642268 y187.455362
g1 x200.65745 y187.418674
g1 x200.666484 y187.381414
g1 x200.669443 y187.342808
g1 x200.666484 y187.3042
g1 x200.65745 y187.266941
g1 x200.642268 y187.230253
g1 x200.622126 y187.197387
g1 x200.596521 y187.167439
g1 x200.56722 y187.142349
g1 x200.534251 y187.122173
g1 x200.498376 y187.107304
g1 x200.460221 y187.098176
g1 x200.421654 y187.095136
g1 x200.383089 y187.098176
g0 z30
(Block-name: path4)
(Block-expand: 0)
(Block-enable: 0)

(End cutting path id: path4)


(Start cutting path id: path4)
(Change tool to Default tool)

G0 Z20
G0 X215.765653 Y186.355108

G1 Z-0.125 F100
G1 X215.612655 Y186.391708 Z-0.125 F400
G1 X215.467655 Y186.451808 Z-0.125
G1 X215.333654 Y186.533808 Z-0.125
G1 X215.214655 Y186.635707 Z-0.125
G1 X215.112653 Y186.755008 Z-0.125
G1 X215.030653 Y186.888808 Z-0.125
G1 X214.970653 Y187.033807 Z-0.125
G1 X214.933653 Y187.186408 Z-0.125
G1 X214.921643 Y187.342809 Z-0.125
G1 X214.933653 Y187.499207 Z-0.125
G1 X214.970653 Y187.651808 Z-0.125
G1 X215.030653 Y187.796807 Z-0.125
G1 X215.112653 Y187.930607 Z-0.125
G1 X215.214655 Y188.049908 Z-0.125
G1 X215.333654 Y188.151807 Z-0.125
G1 X215.467655 Y188.233807 Z-0.125
G1 X215.612655 Y188.293807 Z-0.125
G1 X215.765653 Y188.330507 Z-0.125
G1 X215.921654 Y188.342807 Z-0.125
G1 X216.077655 Y188.330507 Z-0.125
G1 X216.230655 Y188.293807 Z-0.125
G1 X216.375655 Y188.233807 Z-0.125
G1 X216.509653 Y188.151807 Z-0.125
G1 X216.628655 Y188.049908 Z-0.125
G1 X216.730654 Y187.930607 Z-0.125
G1 X216.812654 Y187.796807 Z-0.125
G1 X216.872654 Y187.651808 Z-0.125
G1 X216.909654 Y187.499207 Z-0.125
G1 X216.921664 Y187.342809 Z-0.125
G1 X216.909654 Y187.186408 Z-0.125
G1 X216.872654 Y187.033807 Z-0.125
G1 X216.812654 Y186.888808 Z-0.125
G1 X216.730654 Y186.755008 Z-0.125
G1 X216.628655 Y186.635707 Z-0.125
G1 X216.509653 Y186.533808 Z-0.125
G1 X216.375655 Y186.451808 Z-0.125
G1 X216.230655 Y186.391708 Z-0.125
G1 X216.077655 Y186.355108 Z-0.125
G1 X215.921654 Y186.342808 Z-0.125
G1 X215.765653 Y186.355108 Z-0.125
G0 Z20
(Block-name: path4 [in,cut])
(Block-expand: 0)
(Block-enable: 1)
g0 x215.883088 y187.098176
g1 z0 f500
g1 x215.844935 y187.107303 f1200
g1 x215.809055 y187.122175
g1 x215.776088 y187.142349
g1 x215.746787 y187.167439
g1 x215.721178 y187.197392
g1 x215.701039 y187.230253
g1 x215.685857 y187.266941
g1 x215.676812 y187.304247
g1 x215.673851 y187.342808
g1 x215.676812 y187.381368
g1 x215.685857 y187.418674
g1 x215.701039 y187.455362
g1 x215.721178 y187.488223
g1 x215.746787 y187.518176
g1 x215.776088 y187.543266
g1 x215.808866 y187.563324
g1 x215.844935 y187.578249
g1 x215.883321 y187.587457
g1 x215.921654 y187.590479
g1 x215.959988 y187.587457
g1 x215.998376 y187.578249
g1 x216.034441 y187.563326
g1 x216.06722 y187.543266
g1 x216.096521 y187.518176
g1 x216.122126 y187.488228
g1 x216.142268 y187.455362
g1 x216.15745 y187.418674
g1 x216.166495 y187.381368
g1 x216.169456 y187.342808
g1 x216.166495 y187.304247
g1 x216.15745 y187.266941
g1 x216.142268 y187.230253
g1 x216.122126 y187.197387
g1 x216.096521 y187.167439
g1 x216.06722 y187.142349
g1 x216.034251 y187.122173
g1 x215.998376 y187.107304
g1 x215.960221 y187.098176
g1 x215.921654 y187.095136
g1 x215.883088 y187.098176
g1 z-0.5 f500
g1 x215.844935 y187.107303 f1200
g1 x215.809055 y187.122175
g1 x215.776088 y187.142349
g1 x215.746787 y187.167439
g1 x215.721178 y187.197392
g1 x215.701039 y187.230253
g1 x215.685857 y187.266941
g1 x215.676812 y187.304247
g1 x215.673851 y187.342808
g1 x215.676812 y187.381368
g1 x215.685857 y187.418674
g1 x215.701039 y187.455362
g1 x215.721178 y187.488223
g1 x215.746787 y187.518176
g1 x215.776088 y187.543266
g1 x215.808866 y187.563324
g1 x215.844935 y187.578249
g1 x215.883321 y187.587457
g1 x215.921654 y187.590479
g1 x215.959988 y187.587457
g1 x215.998376 y187.578249
g1 x216.034441 y187.563326
g1 x216.06722 y187.543266
g1 x216.096521 y187.518176
g1 x216.122126 y187.488228
g1 x216.142268 y187.455362
g1 x216.15745 y187.418674
g1 x216.166495 y187.381368
g1 x216.169456 y187.342808
g1 x216.166495 y187.304247
g1 x216.15745 y187.266941
g1 x216.142268 y187.230253
g1 x216.122126 y187.197387
g1 x216.096521 y187.167439
g1 x216.06722 y187.142349
g1 x216.034251 y187.122173
g1 x215.998376 y187.107304
g1 x215.960221 y187.098176
g1 x215.921654 y187.095136
g1 x215.883088 y187.098176
g1 z-1 f500
g1 x215.844935 y187.107303 f1200
g1 x215.809055 y187.122175
g1 x215.776088 y187.142349
g1 x215.746787 y187.167439
g1 x215.721178 y187.197392
g1 x215.701039 y187.230253
g1 x215.685857 y187.266941
g1 x215.676812 y187.304247
g1 x215.673851 y187.342808
g1 x215.676812 y187.381368
g1 x215.685857 y187.418674
g1 x215.701039 y187.455362
g1 x215.721178 y187.488223
g1 x215.746787 y187.518176
g1 x215.776088 y187.543266
g1 x215.808866 y187.563324
g1 x215.844935 y187.578249
g1 x215.883321 y187.587457
g1 x215.921654 y187.590479
g1 x215.959988 y187.587457
g1 x215.998376 y187.578249
g1 x216.034441 y187.563326
g1 x216.06722 y187.543266
g1 x216.096521 y187.518176
g1 x216.122126 y187.488228
g1 x216.142268 y187.455362
g1 x216.15745 y187.418674
g1 x216.166495 y187.381368
g1 x216.169456 y187.342808
g1 x216.166495 y187.304247
g1 x216.15745 y187.266941
g1 x216.142268 y187.230253
g1 x216.122126 y187.197387
g1 x216.096521 y187.167439
g1 x216.06722 y187.142349
g1 x216.034251 y187.122173
g1 x215.998376 y187.107304
g1 x215.960221 y187.098176
g1 x215.921654 y187.095136
g1 x215.883088 y187.098176
g1 z-1.5 f500
g1 x215.844935 y187.107303 f1200
g1 x215.809055 y187.122175
g1 x215.776088 y187.142349
g1 x215.746787 y187.167439
g1 x215.721178 y187.197392
g1 x215.701039 y187.230253
g1 x215.685857 y187.266941
g1 x215.676812 y187.304247
g1 x215.673851 y187.342808
g1 x215.676812 y187.381368
g1 x215.685857 y187.418674
g1 x215.701039 y187.455362
g1 x215.721178 y187.488223
g1 x215.746787 y187.518176
g1 x215.776088 y187.543266
g1 x215.808866 y187.563324
g1 x215.844935 y187.578249
g1 x215.883321 y187.587457
g1 x215.921654 y187.590479
g1 x215.959988 y187.587457
g1 x215.998376 y187.578249
g1 x216.034441 y187.563326
g1 x216.06722 y187.543266
g1 x216.096521 y187.518176
g1 x216.122126 y187.488228
g1 x216.142268 y187.455362
g1 x216.15745 y187.418674
g1 x216.166495 y187.381368
g1 x216.169456 y187.342808
g1 x216.166495 y187.304247
g1 x216.15745 y187.266941
g1 x216.142268 y187.230253
g1 x216.122126 y187.197387
g1 x216.096521 y187.167439
g1 x216.06722 y187.142349
g1 x216.034251 y187.122173
g1 x215.998376 y187.107304
g1 x215.960221 y187.098176
g1 x215.921654 y187.095136
g1 x215.883088 y187.098176
g1 z-2 f500
g1 x215.844935 y187.107303 f1200
g1 x215.809055 y187.122175
g1 x215.776088 y187.142349
g1 x215.746787 y187.167439
g1 x215.721178 y187.197392
g1 x215.701039 y187.230253
g1 x215.685857 y187.266941
g1 x215.676812 y187.304247
g1 x215.673851 y187.342808
g1 x215.676812 y187.381368
g1 x215.685857 y187.418674
g1 x215.701039 y187.455362
g1 x215.721178 y187.488223
g1 x215.746787 y187.518176
g1 x215.776088 y187.543266
g1 x215.808866 y187.563324
g1 x215.844935 y187.578249
g1 x215.883321 y187.587457
g1 x215.921654 y187.590479
g1 x215.959988 y187.587457
g1 x215.998376 y187.578249
g1 x216.034441 y187.563326
g1 x216.06722 y187.543266
g1 x216.096521 y187.518176
g1 x216.122126 y187.488228
g1 x216.142268 y187.455362
g1 x216.15745 y187.418674
g1 x216.166495 y187.381368
g1 x216.169456 y187.342808
g1 x216.166495 y187.304247
g1 x216.15745 y187.266941
g1 x216.142268 y187.230253
g1 x216.122126 y187.197387
g1 x216.096521 y187.167439
g1 x216.06722 y187.142349
g1 x216.034251 y187.122173
g1 x215.998376 y187.107304
g1 x215.960221 y187.098176
g1 x215.921654 y187.095136
g1 x215.883088 y187.098176
g0 z30
(Block-name: change tool)
(Block-expand: 0)
(Block-enable: 1)
M6 T2 (Change tool to T2)
M3
(Block-name: path4)
(Block-expand: 0)
(Block-enable: 0)

(End cutting path id: path4)


(Start cutting path id: path4)
(Change tool to Default tool)

G0 Z20
G0 X161.186954 Y219.861307

G1 Z-0.125 F100
G1 X160.958154 Y219.916207 Z-0.125 F400
G1 X160.740654 Y220.006307 Z-0.125
G1 X160.539954 Y220.129307 Z-0.125
G1 X160.360954 Y220.282107 Z-0.125
G1 X160.208154 Y220.461107 Z-0.125
G1 X160.085154 Y220.661807 Z-0.125
G1 X159.995054 Y220.879307 Z-0.125
G1 X159.940154 Y221.108107 Z-0.125
G1 X159.921654 Y221.342807 Z-0.125
G1 X159.940154 Y221.577407 Z-0.125
G1 X159.995054 Y221.806307 Z-0.125
G1 X160.085154 Y222.023807 Z-0.125
G1 X160.208154 Y222.224507 Z-0.125
G1 X160.360954 Y222.403507 Z-0.125
G1 X160.539954 Y222.556307 Z-0.125
G1 X160.740654 Y222.679307 Z-0.125
G1 X160.958154 Y222.769407 Z-0.125
G1 X161.186954 Y222.824307 Z-0.125
G1 X161.421654 Y222.842807 Z-0.125
G1 X161.656254 Y222.824307 Z-0.125
G1 X161.885154 Y222.769407 Z-0.125
G1 X162.102654 Y222.679307 Z-0.125
G1 X162.303354 Y222.556307 Z-0.125
G1 X162.482354 Y222.403507 Z-0.125
G1 X162.635154 Y222.224507 Z-0.125
G1 X162.758154 Y222.023807 Z-0.125
G1 X162.848254 Y221.806307 Z-0.125
G1 X162.903154 Y221.577407 Z-0.125
G1 X162.921654 Y221.342807 Z-0.125
G1 X162.903154 Y221.108107 Z-0.125
G1 X162.848254 Y220.879307 Z-0.125
G1 X162.758154 Y220.661807 Z-0.125
G1 X162.635154 Y220.461107 Z-0.125
G1 X162.482354 Y220.282107 Z-0.125
G1 X162.303354 Y220.129307 Z-0.125
G1 X162.102654 Y220.006307 Z-0.125
G1 X161.885154 Y219.916207 Z-0.125
G1 X161.656254 Y219.861307 Z-0.125
G1 X161.421654 Y219.842807 Z-0.125
G1 X161.186954 Y219.861307 Z-0.125
G0 Z20
(Block-name: path4 [in,cut])
(Block-expand: 0)
(Block-enable: 1)
g0 x161.343869 y220.85204
g1 z0 f500
g1 x161.268085 y220.870224 f1200
g1 x161.196081 y220.900052
g1 x161.12946 y220.940881
g1 x161.070262 y220.991415
g1 x161.019728 y221.050613
g1 x160.978899 y221.117234
g1 x160.949071 y221.189238
g1 x160.930887 y221.265022
g1 x160.924757 y221.34279
g1 x160.930887 y221.420525
g1 x160.94909 y221.496422
g1 x160.978899 y221.56838
g1 x161.019728 y221.635001
g1 x161.070262 y221.694199
g1 x161.12946 y221.744733
g1 x161.196081 y221.785562
g1 x161.268085 y221.81539
g1 x161.343869 y221.833574
g1 x161.421637 y221.839704
g1 x161.499372 y221.833574
g1 x161.575269 y221.815371
g1 x161.647227 y221.785562
g1 x161.713848 y221.744733
g1 x161.773046 y221.694199
g1 x161.82358 y221.635001
g1 x161.864409 y221.56838
g1 x161.894218 y221.496422
g1 x161.912421 y221.420525
g1 x161.918551 y221.34279
g1 x161.912421 y221.265022
g1 x161.894237 y221.189238
g1 x161.864409 y221.117234
g1 x161.82358 y221.050613
g1 x161.773046 y220.991415
g1 x161.713848 y220.940881
g1 x161.647227 y220.900052
g1 x161.575269 y220.870243
g1 x161.499372 y220.85204
g1 x161.421637 y220.84591
g1 x161.343869 y220.85204
g1 z-0.5 f500
g1 x161.268085 y220.870224 f1200
g1 x161.196081 y220.900052
g1 x161.12946 y220.940881
g1 x161.070262 y220.991415
g1 x161.019728 y221.050613
g1 x160.978899 y221.117234
g1 x160.949071 y221.189238
g1 x160.930887 y221.265022
g1 x160.924757 y221.34279
g1 x160.930887 y221.420525
g1 x160.94909 y221.496422
g1 x160.978899 y221.56838
g1 x161.019728 y221.635001
g1 x161.070262 y221.694199
g1 x161.12946 y221.744733
g1 x161.196081 y221.785562
g1 x161.268085 y221.81539
g1 x161.343869 y221.833574
g1 x161.421637 y221.839704
g1 x161.499372 y221.833574
g1 x161.575269 y221.815371
g1 x161.647227 y221.785562
g1 x161.713848 y221.744733
g1 x161.773046 y221.694199
g1 x161.82358 y221.635001
g1 x161.864409 y221.56838
g1 x161.894218 y221.496422
g1 x161.912421 y221.420525
g1 x161.918551 y221.34279
g1 x161.912421 y221.265022
g1 x161.894237 y221.189238
g1 x161.864409 y221.117234
g1 x161.82358 y221.050613
g1 x161.773046 y220.991415
g1 x161.713848 y220.940881
g1 x161.647227 y220.900052
g1 x161.575269 y220.870243
g1 x161.499372 y220.85204
g1 x161.421637 y220.84591
g1 x161.343869 y220.85204
g1 z-1 f500
g1 x161.268085 y220.870224 f1200
g1 x161.196081 y220.900052
g1 x161.12946 y220.940881
g1 x161.070262 y220.991415
g1 x161.019728 y221.050613
g1 x160.978899 y221.117234
g1 x160.949071 y221.189238
g1 x160.930887 y221.265022
g1 x160.924757 y221.34279
g1 x160.930887 y221.420525
g1 x160.94909 y221.496422
g1 x160.978899 y221.56838
g1 x161.019728 y221.635001
g1 x161.070262 y221.694199
g1 x161.12946 y221.744733
g1 x161.196081 y221.785562
g1 x161.268085 y221.81539
g1 x161.343869 y221.833574
g1 x161.421637 y221.839704
g1 x161.499372 y221.833574
g1 x161.575269 y221.815371
g1 x161.647227 y221.785562
g1 x161.713848 y221.744733
g1 x161.773046 y221.694199
g1 x161.82358 y221.635001
g1 x161.864409 y221.56838
g1 x161.894218 y221.496422
g1 x161.912421 y221.420525
g1 x161.918551 y221.34279
g1 x161.912421 y221.265022
g1 x161.894237 y221.189238
g1 x161.864409 y221.117234
g1 x161.82358 y221.050613
g1 x161.773046 y220.991415
g1 x161.713848 y220.940881
g1 x161.647227 y220.900052
g1 x161.575269 y220.870243
g1 x161.499372 y220.85204
g1 x161.421637 y220.84591
g1 x161.343869 y220.85204
g1 z-1.5 f500
g1 x161.268085 y220.870224 f1200
g1 x161.196081 y220.900052
g1 x161.12946 y220.940881
g1 x161.070262 y220.991415
g1 x161.019728 y221.050613
g1 x160.978899 y221.117234
g1 x160.949071 y221.189238
g1 x160.930887 y221.265022
g1 x160.924757 y221.34279
g1 x160.930887 y221.420525
g1 x160.94909 y221.496422
g1 x160.978899 y221.56838
g1 x161.019728 y221.635001
g1 x161.070262 y221.694199
g1 x161.12946 y221.744733
g1 x161.196081 y221.785562
g1 x161.268085 y221.81539
g1 x161.343869 y221.833574
g1 x161.421637 y221.839704
g1 x161.499372 y221.833574
g1 x161.575269 y221.815371
g1 x161.647227 y221.785562
g1 x161.713848 y221.744733
g1 x161.773046 y221.694199
g1 x161.82358 y221.635001
g1 x161.864409 y221.56838
g1 x161.894218 y221.496422
g1 x161.912421 y221.420525
g1 x161.918551 y221.34279
g1 x161.912421 y221.265022
g1 x161.894237 y221.189238
g1 x161.864409 y221.117234
g1 x161.82358 y221.050613
g1 x161.773046 y220.991415
g1 x161.713848 y220.940881
g1 x161.647227 y220.900052
g1 x161.575269 y220.870243
g1 x161.499372 y220.85204
g1 x161.421637 y220.84591
g1 x161.343869 y220.85204
g1 z-2 f500
g1 x161.268085 y220.870224 f1200
g1 x161.196081 y220.900052
g1 x161.12946 y220.940881
g1 x161.070262 y220.991415
g1 x161.019728 y221.050613
g1 x160.978899 y221.117234
g1 x160.949071 y221.189238
g1 x160.930887 y221.265022
g1 x160.924757 y221.34279
g1 x160.930887 y221.420525
g1 x160.94909 y221.496422
g1 x160.978899 y221.56838
g1 x161.019728 y221.635001
g1 x161.070262 y221.694199
g1 x161.12946 y221.744733
g1 x161.196081 y221.785562
g1 x161.268085 y221.81539
g1 x161.343869 y221.833574
g1 x161.421637 y221.839704
g1 x161.499372 y221.833574
g1 x161.575269 y221.815371
g1 x161.647227 y221.785562
g1 x161.713848 y221.744733
g1 x161.773046 y221.694199
g1 x161.82358 y221.635001
g1 x161.864409 y221.56838
g1 x161.894218 y221.496422
g1 x161.912421 y221.420525
g1 x161.918551 y221.34279
g1 x161.912421 y221.265022
g1 x161.894237 y221.189238
g1 x161.864409 y221.117234
g1 x161.82358 y221.050613
g1 x161.773046 y220.991415
g1 x161.713848 y220.940881
g1 x161.647227 y220.900052
g1 x161.575269 y220.870243
g1 x161.499372 y220.85204
g1 x161.421637 y220.84591
g1 x161.343869 y220.85204
g0 z30
(Block-name: path4)
(Block-expand: 0)
(Block-enable: 0)

(End cutting path id: path4)


(Start cutting path id: path4)
(Change tool to Default tool)

G0 Z20
G0 X216.186655 Y219.861307

G1 Z-0.125 F100
G1 X215.957653 Y219.916207 Z-0.125 F400
G1 X215.740655 Y220.006307 Z-0.125
G1 X215.539654 Y220.129307 Z-0.125
G1 X215.360655 Y220.282107 Z-0.125
G1 X215.207655 Y220.461107 Z-0.125
G1 X215.084655 Y220.661807 Z-0.125
G1 X214.994655 Y220.879307 Z-0.125
G1 X214.939655 Y221.108107 Z-0.125
G1 X214.921665 Y221.342807 Z-0.125
G1 X214.939655 Y221.577407 Z-0.125
G1 X214.994655 Y221.806307 Z-0.125
G1 X215.084655 Y222.023807 Z-0.125
G1 X215.207655 Y222.224507 Z-0.125
G1 X215.360655 Y222.403507 Z-0.125
G1 X215.539654 Y222.556307 Z-0.125
G1 X215.740655 Y222.679307 Z-0.125
G1 X215.957653 Y222.769407 Z-0.125
G1 X216.186655 Y222.824307 Z-0.125
G1 X216.421655 Y222.842807 Z-0.125
G1 X216.656653 Y222.824307 Z-0.125
G1 X216.885655 Y222.769407 Z-0.125
G1 X217.102653 Y222.679307 Z-0.125
G1 X217.303655 Y222.556307 Z-0.125
G1 X217.482653 Y222.403507 Z-0.125
G1 X217.635654 Y222.224507 Z-0.125
G1 X217.758653 Y222.023807 Z-0.125
G1 X217.848653 Y221.806307 Z-0.125
G1 X217.903653 Y221.577407 Z-0.125
G1 X217.921643 Y221.342807 Z-0.125
G1 X217.903653 Y221.108107 Z-0.125
G1 X217.848653 Y220.879307 Z-0.125
G1 X217.758653 Y220.661807 Z-0.125
G1 X217.635654 Y220.461107 Z-0.125
G1 X217.482653 Y220.282107 Z-0.125
G1 X217.303655 Y220.129307 Z-0.125
G1 X217.102653 Y220.006307 Z-0.125
G1 X216.885655 Y219.916207 Z-0.125
G1 X216.656653 Y219.861307 Z-0.125
G1 X216.421655 Y219.842807 Z-0.125
G1 X216.186655 Y219.861307 Z-0.125
G0 Z20
(Block-name: path4 [in,cut])
(Block-expand: 0)
(Block-enable: 1)
g0 x216.343421 y220.85206
g1 z0 f500
g1 x216.267891 y220.870167 f1200
g1 x216.196123 y220.899966
g1 x216.128906 y220.941098
g1 x216.069717 y220.991625
g1 x216.019059 y221.05089
g1 x215.978503 y221.117066
g1 x215.948639 y221.189238
g1 x215.930626 y221.264173
g1 x215.9246 y221.342791
g1 x215.930626 y221.421375
g1 x215.948658 y221.496422
g1 x215.978503 y221.568548
g1 x216.019059 y221.634724
g1 x216.069717 y221.693989
g1 x216.128906 y221.744516
g1 x216.196123 y221.785648
g1 x216.267891 y221.815447
g1 x216.343421 y221.833554
g1 x216.421655 y221.839713
g1 x216.499887 y221.833554
g1 x216.575417 y221.815447
g1 x216.647186 y221.785647
g1 x216.714402 y221.744516
g1 x216.773592 y221.693989
g1 x216.824249 y221.634724
g1 x216.864804 y221.56855
g1 x216.89465 y221.496422
g1 x216.912682 y221.421375
g1 x216.918708 y221.342791
g1 x216.912682 y221.264173
g1 x216.894669 y221.189238
g1 x216.864804 y221.117064
g1 x216.824249 y221.05089
g1 x216.773592 y220.991625
g1 x216.714402 y220.941098
g1 x216.647186 y220.899967
g1 x216.575417 y220.870167
g1 x216.499887 y220.85206
g1 x216.421655 y220.845901
g1 x216.343421 y220.85206
g1 z-0.5 f500
g1 x216.267891 y220.870167 f1200
g1 x216.196123 y220.899966
g1 x216.128906 y220.941098
g1 x216.069717 y220.991625
g1 x216.019059 y221.05089
g1 x215.978503 y221.117066
g1 x215.948639 y221.189238
g1 x215.930626 y221.264173
g1 x215.9246 y221.342791
g1 x215.930626 y221.421375
g1 x215.948658 y221.496422
g1 x215.978503 y221.568548
g1 x216.019059 y221.634724
g1 x216.069717 y221.693989
g1 x216.128906 y221.744516
g1 x216.196123 y221.785648
g1 x216.267891 y221.815447
g1 x216.343421 y221.833554
g1 x216.421655 y221.839713
g1 x216.499887 y221.833554
g1 x216.575417 y221.815447
g1 x216.647186 y221.785647
g1 x216.714402 y221.744516
g1 x216.773592 y221.693989
g1 x216.824249 y221.634724
g1 x216.864804 y221.56855
g1 x216.89465 y221.496422
g1 x216.912682 y221.421375
g1 x216.918708 y221.342791
g1 x216.912682 y221.264173
g1 x216.894669 y221.189238
g1 x216.864804 y221.117064
g1 x216.824249 y221.05089
g1 x216.773592 y220.991625
g1 x216.714402 y220.941098
g1 x216.647186 y220.899967
g1 x216.575417 y220.870167
g1 x216.499887 y220.85206
g1 x216.421655 y220.845901
g1 x216.343421 y220.85206
g1 z-1 f500
g1 x216.267891 y220.870167 f1200
g1 x216.196123 y220.899966
g1 x216.128906 y220.941098
g1 x216.069717 y220.991625
g1 x216.019059 y221.05089
g1 x215.978503 y221.117066
g1 x215.948639 y221.189238
g1 x215.930626 y221.264173
g1 x215.9246 y221.342791
g1 x215.930626 y221.421375
g1 x215.948658 y221.496422
g1 x215.978503 y221.568548
g1 x216.019059 y221.634724
g1 x216.069717 y221.693989
g1 x216.128906 y221.744516
g1 x216.196123 y221.785648
g1 x216.267891 y221.815447
g1 x216.343421 y221.833554
g1 x216.421655 y221.839713
g1 x216.499887 y221.833554
g1 x216.575417 y221.815447
g1 x216.647186 y221.785647
g1 x216.714402 y221.744516
g1 x216.773592 y221.693989
g1 x216.824249 y221.634724
g1 x216.864804 y221.56855
g1 x216.89465 y221.496422
g1 x216.912682 y221.421375
g1 x216.918708 y221.342791
g1 x216.912682 y221.264173
g1 x216.894669 y221.189238
g1 x216.864804 y221.117064
g1 x216.824249 y221.05089
g1 x216.773592 y220.991625
g1 x216.714402 y220.941098
g1 x216.647186 y220.899967
g1 x216.575417 y220.870167
g1 x216.499887 y220.85206
g1 x216.421655 y220.845901
g1 x216.343421 y220.85206
g1 z-1.5 f500
g1 x216.267891 y220.870167 f1200
g1 x216.196123 y220.899966
g1 x216.128906 y220.941098
g1 x216.069717 y220.991625
g1 x216.019059 y221.05089
g1 x215.978503 y221.117066
g1 x215.948639 y221.189238
g1 x215.930626 y221.264173
g1 x215.9246 y221.342791
g1 x215.930626 y221.421375
g1 x215.948658 y221.496422
g1 x215.978503 y221.568548
g1 x216.019059 y221.634724
g1 x216.069717 y221.693989
g1 x216.128906 y221.744516
g1 x216.196123 y221.785648
g1 x216.267891 y221.815447
g1 x216.343421 y221.833554
g1 x216.421655 y221.839713
g1 x216.499887 y221.833554
g1 x216.575417 y221.815447
g1 x216.647186 y221.785647
g1 x216.714402 y221.744516
g1 x216.773592 y221.693989
g1 x216.824249 y221.634724
g1 x216.864804 y221.56855
g1 x216.89465 y221.496422
g1 x216.912682 y221.421375
g1 x216.918708 y221.342791
g1 x216.912682 y221.264173
g1 x216.894669 y221.189238
g1 x216.864804 y221.117064
g1 x216.824249 y221.05089
g1 x216.773592 y220.991625
g1 x216.714402 y220.941098
g1 x216.647186 y220.899967
g1 x216.575417 y220.870167
g1 x216.499887 y220.85206
g1 x216.421655 y220.845901
g1 x216.343421 y220.85206
g1 z-2 f500
g1 x216.267891 y220.870167 f1200
g1 x216.196123 y220.899966
g1 x216.128906 y220.941098
g1 x216.069717 y220.991625
g1 x216.019059 y221.05089
g1 x215.978503 y221.117066
g1 x215.948639 y221.189238
g1 x215.930626 y221.264173
g1 x215.9246 y221.342791
g1 x215.930626 y221.421375
g1 x215.948658 y221.496422
g1 x215.978503 y221.568548
g1 x216.019059 y221.634724
g1 x216.069717 y221.693989
g1 x216.128906 y221.744516
g1 x216.196123 y221.785648
g1 x216.267891 y221.815447
g1 x216.343421 y221.833554
g1 x216.421655 y221.839713
g1 x216.499887 y221.833554
g1 x216.575417 y221.815447
g1 x216.647186 y221.785647
g1 x216.714402 y221.744516
g1 x216.773592 y221.693989
g1 x216.824249 y221.634724
g1 x216.864804 y221.56855
g1 x216.89465 y221.496422
g1 x216.912682 y221.421375
g1 x216.918708 y221.342791
g1 x216.912682 y221.264173
g1 x216.894669 y221.189238
g1 x216.864804 y221.117064
g1 x216.824249 y221.05089
g1 x216.773592 y220.991625
g1 x216.714402 y220.941098
g1 x216.647186 y220.899967
g1 x216.575417 y220.870167
g1 x216.499887 y220.85206
g1 x216.421655 y220.845901
g1 x216.343421 y220.85206
g0 z30
(Block-name: path4)
(Block-expand: 0)
(Block-enable: 0)

(End cutting path id: path4)


(Start cutting path id: path4)
(Change tool to Default tool)

G0 Z20
G0 X202.507655 Y218.087507

G1 Z-0.125 F100
G1 X202.278653 Y218.142407 Z-0.125 F400
G1 X202.061655 Y218.232507 Z-0.125
G1 X201.860654 Y218.355507 Z-0.125
G1 X201.681655 Y218.508307 Z-0.125
G1 X201.528654 Y218.687307 Z-0.125
G1 X201.405655 Y218.888007 Z-0.125
G1 X201.315655 Y219.105507 Z-0.125
G1 X201.260655 Y219.334407 Z-0.125
G1 X201.242665 Y219.569007 Z-0.125
G1 X201.260655 Y219.803707 Z-0.125
G1 X201.315655 Y220.032507 Z-0.125
G1 X201.405655 Y220.250007 Z-0.125
G1 X201.528654 Y220.450707 Z-0.125
G1 X201.681655 Y220.629707 Z-0.125
G1 X201.860654 Y220.782507 Z-0.125
G1 X202.061655 Y220.905507 Z-0.125
G1 X202.278653 Y220.995607 Z-0.125
G1 X202.507655 Y221.050507 Z-0.125
G1 X202.742655 Y221.069007 Z-0.125
G1 X202.976655 Y221.050507 Z-0.125
G1 X203.205655 Y220.995607 Z-0.125
G1 X203.423653 Y220.905507 Z-0.125
G1 X203.623654 Y220.782507 Z-0.125
G1 X203.802655 Y220.629707 Z-0.125
G1 X203.955653 Y220.450707 Z-0.125
G1 X204.078653 Y220.250007 Z-0.125
G1 X204.168653 Y220.032507 Z-0.125
G1 X204.223653 Y219.803707 Z-0.125
G1 X204.242653 Y219.569007 Z-0.125
G1 X204.223653 Y219.334407 Z-0.125
G1 X204.168653 Y219.105507 Z-0.125
G1 X204.078653 Y218.888007 Z-0.125
G1 X203.955653 Y218.687307 Z-0.125
G1 X203.802655 Y218.508307 Z-0.125
G1 X203.623654 Y218.355507 Z-0.125
G1 X203.423653 Y218.232507 Z-0.125
G1 X203.205655 Y218.142407 Z-0.125
G1 X202.976655 Y218.087507 Z-0.125
G1 X202.742655 Y218.069007 Z-0.125
G1 X202.507655 Y218.087507 Z-0.125
G0 Z20
(Block-name: path4 [in,cut])
(Block-expand: 0)
(Block-enable: 1)
g0 x202.664421 y219.07826
g1 z0 f500
g1 x202.588891 y219.096367 f1200
g1 x202.517123 y219.126166
g1 x202.449906 y219.167298
g1 x202.390715 y219.217826
g1 x202.340059 y219.27709
g1 x202.299504 y219.343264
g1 x202.269658 y219.415392
g1 x202.251626 y219.490439
g1 x202.2456 y219.569023
g1 x202.251626 y219.647641
g1 x202.269639 y219.722576
g1 x202.299504 y219.79475
g1 x202.340059 y219.860924
g1 x202.390715 y219.920188
g1 x202.449906 y219.970716
g1 x202.517123 y220.011848
g1 x202.588891 y220.041647
g1 x202.664421 y220.059754
g1 x202.742487 y220.0659
g1 x202.819724 y220.059794
g1 x202.896211 y220.041457
g1 x202.967849 y220.011848
g1 x203.033554 y219.97144
g1 x203.093593 y219.920189
g1 x203.144247 y219.860926
g1 x203.184805 y219.794748
g1 x203.214669 y219.722576
g1 x203.233185 y219.645549
g1 x203.23938 y219.569024
g1 x203.233185 y219.492532
g1 x203.21465 y219.415392
g1 x203.184805 y219.343266
g1 x203.144247 y219.277088
g1 x203.093593 y219.217825
g1 x203.033554 y219.166574
g1 x202.967849 y219.126166
g1 x202.896211 y219.096557
g1 x202.819724 y219.07822
g1 x202.742487 y219.072114
g1 x202.664421 y219.07826
g1 z-0.5 f500
g1 x202.588891 y219.096367 f1200
g1 x202.517123 y219.126166
g1 x202.449906 y219.167298
g1 x202.390715 y219.217826
g1 x202.340059 y219.27709
g1 x202.299504 y219.343264
g1 x202.269658 y219.415392
g1 x202.251626 y219.490439
g1 x202.2456 y219.569023
g1 x202.251626 y219.647641
g1 x202.269639 y219.722576
g1 x202.299504 y219.79475
g1 x202.340059 y219.860924
g1 x202.390715 y219.920188
g1 x202.449906 y219.970716
g1 x202.517123 y220.011848
g1 x202.588891 y220.041647
g1 x202.664421 y220.059754
g1 x202.742487 y220.0659
g1 x202.819724 y220.059794
g1 x202.896211 y220.041457
g1 x202.967849 y220.011848
g1 x203.033554 y219.97144
g1 x203.093593 y219.920189
g1 x203.144247 y219.860926
g1 x203.184805 y219.794748
g1 x203.214669 y219.722576
g1 x203.233185 y219.645549
g1 x203.23938 y219.569024
g1 x203.233185 y219.492532
g1 x203.21465 y219.415392
g1 x203.184805 y219.343266
g1 x203.144247 y219.277088
g1 x203.093593 y219.217825
g1 x203.033554 y219.166574
g1 x202.967849 y219.126166
g1 x202.896211 y219.096557
g1 x202.819724 y219.07822
g1 x202.742487 y219.072114
g1 x202.664421 y219.07826
g1 z-1 f500
g1 x202.588891 y219.096367 f1200
g1 x202.517123 y219.126166
g1 x202.449906 y219.167298
g1 x202.390715 y219.217826
g1 x202.340059 y219.27709
g1 x202.299504 y219.343264
g1 x202.269658 y219.415392
g1 x202.251626 y219.490439
g1 x202.2456 y219.569023
g1 x202.251626 y219.647641
g1 x202.269639 y219.722576
g1 x202.299504 y219.79475
g1 x202.340059 y219.860924
g1 x202.390715 y219.920188
g1 x202.449906 y219.970716
g1 x202.517123 y220.011848
g1 x202.588891 y220.041647
g1 x202.664421 y220.059754
g1 x202.742487 y220.0659
g1 x202.819724 y220.059794
g1 x202.896211 y220.041457
g1 x202.967849 y220.011848
g1 x203.033554 y219.97144
g1 x203.093593 y219.920189
g1 x203.144247 y219.860926
g1 x203.184805 y219.794748
g1 x203.214669 y219.722576
g1 x203.233185 y219.645549
g1 x203.23938 y219.569024
g1 x203.233185 y219.492532
g1 x203.21465 y219.415392
g1 x203.184805 y219.343266
g1 x203.144247 y219.277088
g1 x203.093593 y219.217825
g1 x203.033554 y219.166574
g1 x202.967849 y219.126166
g1 x202.896211 y219.096557
g1 x202.819724 y219.07822
g1 x202.742487 y219.072114
g1 x202.664421 y219.07826
g1 z-1.5 f500
g1 x202.588891 y219.096367 f1200
g1 x202.517123 y219.126166
g1 x202.449906 y219.167298
g1 x202.390715 y219.217826
g1 x202.340059 y219.27709
g1 x202.299504 y219.343264
g1 x202.269658 y219.415392
g1 x202.251626 y219.490439
g1 x202.2456 y219.569023
g1 x202.251626 y219.647641
g1 x202.269639 y219.722576
g1 x202.299504 y219.79475
g1 x202.340059 y219.860924
g1 x202.390715 y219.920188
g1 x202.449906 y219.970716
g1 x202.517123 y220.011848
g1 x202.588891 y220.041647
g1 x202.664421 y220.059754
g1 x202.742487 y220.0659
g1 x202.819724 y220.059794
g1 x202.896211 y220.041457
g1 x202.967849 y220.011848
g1 x203.033554 y219.97144
g1 x203.093593 y219.920189
g1 x203.144247 y219.860926
g1 x203.184805 y219.794748
g1 x203.214669 y219.722576
g1 x203.233185 y219.645549
g1 x203.23938 y219.569024
g1 x203.233185 y219.492532
g1 x203.21465 y219.415392
g1 x203.184805 y219.343266
g1 x203.144247 y219.277088
g1 x203.093593 y219.217825
g1 x203.033554 y219.166574
g1 x202.967849 y219.126166
g1 x202.896211 y219.096557
g1 x202.819724 y219.07822
g1 x202.742487 y219.072114
g1 x202.664421 y219.07826
g1 z-2 f500
g1 x202.588891 y219.096367 f1200
g1 x202.517123 y219.126166
g1 x202.449906 y219.167298
g1 x202.390715 y219.217826
g1 x202.340059 y219.27709
g1 x202.299504 y219.343264
g1 x202.269658 y219.415392
g1 x202.251626 y219.490439
g1 x202.2456 y219.569023
g1 x202.251626 y219.647641
g1 x202.269639 y219.722576
g1 x202.299504 y219.79475
g1 x202.340059 y219.860924
g1 x202.390715 y219.920188
g1 x202.449906 y219.970716
g1 x202.517123 y220.011848
g1 x202.588891 y220.041647
g1 x202.664421 y220.059754
g1 x202.742487 y220.0659
g1 x202.819724 y220.059794
g1 x202.896211 y220.041457
g1 x202.967849 y220.011848
g1 x203.033554 y219.97144
g1 x203.093593 y219.920189
g1 x203.144247 y219.860926
g1 x203.184805 y219.794748
g1 x203.214669 y219.722576
g1 x203.233185 y219.645549
g1 x203.23938 y219.569024
g1 x203.233185 y219.492532
g1 x203.21465 y219.415392
g1 x203.184805 y219.343266
g1 x203.144247 y219.277088
g1 x203.093593 y219.217825
g1 x203.033554 y219.166574
g1 x202.967849 y219.126166
g1 x202.896211 y219.096557
g1 x202.819724 y219.07822
g1 x202.742487 y219.072114
g1 x202.664421 y219.07826
g0 z30
(Block-name: path4)
(Block-expand: 0)
(Block-enable: 0)

(End cutting path id: path4)


(Start cutting path id: path4)
(Change tool to Default tool)

G0 Z20
G0 X175.686654 Y214.861307

G1 Z-0.125 F100
G1 X175.457654 Y214.916207 Z-0.125 F400
G1 X175.240654 Y215.006307 Z-0.125
G1 X175.039654 Y215.129307 Z-0.125
G1 X174.860654 Y215.282107 Z-0.125
G1 X174.707654 Y215.461107 Z-0.125
G1 X174.584654 Y215.661807 Z-0.125
G1 X174.494654 Y215.879307 Z-0.125
G1 X174.439654 Y216.108107 Z-0.125
G1 X174.421654 Y216.342807 Z-0.125
G1 X174.439654 Y216.577407 Z-0.125
G1 X174.494654 Y216.806307 Z-0.125
G1 X174.584654 Y217.023807 Z-0.125
G1 X174.707654 Y217.224507 Z-0.125
G1 X174.860654 Y217.403507 Z-0.125
G1 X175.039654 Y217.556307 Z-0.125
G1 X175.240654 Y217.679307 Z-0.125
G1 X175.457654 Y217.769407 Z-0.125
G1 X175.686654 Y217.824307 Z-0.125
G1 X175.921654 Y217.842807 Z-0.125
G1 X176.156654 Y217.824307 Z-0.125
G1 X176.385654 Y217.769407 Z-0.125
G1 X176.602654 Y217.679307 Z-0.125
G1 X176.803654 Y217.556307 Z-0.125
G1 X176.982654 Y217.403507 Z-0.125
G1 X177.135654 Y217.224507 Z-0.125
G1 X177.258654 Y217.023807 Z-0.125
G1 X177.348654 Y216.806307 Z-0.125
G1 X177.403654 Y216.577407 Z-0.125
G1 X177.421654 Y216.342807 Z-0.125
G1 X177.403654 Y216.108107 Z-0.125
G1 X177.348654 Y215.879307 Z-0.125
G1 X177.258654 Y215.661807 Z-0.125
G1 X177.135654 Y215.461107 Z-0.125
G1 X176.982654 Y215.282107 Z-0.125
G1 X176.803654 Y215.129307 Z-0.125
G1 X176.602654 Y215.006307 Z-0.125
G1 X176.385654 Y214.916207 Z-0.125
G1 X176.156654 Y214.861307 Z-0.125
G1 X175.921654 Y214.842807 Z-0.125
G1 X175.686654 Y214.861307 Z-0.125
G0 Z20
(Block-name: path4 [in,cut])
(Block-expand: 0)
(Block-enable: 1)
g0 x175.843421 y215.85206
g1 z0 f500
g1 x175.767892 y215.870167 f1200
g1 x175.696121 y215.899967
g1 x175.628906 y215.941098
g1 x175.569715 y215.991626
g1 x175.519058 y216.05089
g1 x175.478502 y216.117066
g1 x175.448638 y216.189238
g1 x175.43062 y216.264194
g1 x175.424592 y216.342791
g1 x175.43062 y216.421354
g1 x175.448657 y216.496422
g1 x175.478502 y216.568548
g1 x175.519058 y216.634724
g1 x175.569715 y216.693988
g1 x175.628906 y216.744516
g1 x175.696121 y216.785647
g1 x175.767892 y216.815447
g1 x175.843421 y216.833554
g1 x175.921654 y216.839713
g1 x175.999887 y216.833554
g1 x176.075416 y216.815447
g1 x176.147187 y216.785647
g1 x176.214402 y216.744516
g1 x176.273593 y216.693988
g1 x176.32425 y216.634724
g1 x176.364806 y216.568548
g1 x176.394651 y216.496422
g1 x176.412688 y216.421354
g1 x176.418716 y216.342791
g1 x176.412688 y216.264194
g1 x176.39467 y216.189238
g1 x176.364806 y216.117066
g1 x176.32425 y216.05089
g1 x176.273593 y215.991626
g1 x176.214402 y215.941098
g1 x176.147187 y215.899967
g1 x176.075416 y215.870167
g1 x175.999887 y215.85206
g1 x175.921654 y215.845901
g1 x175.843421 y215.85206
g1 z-0.5 f500
g1 x175.767892 y215.870167 f1200
g1 x175.696121 y215.899967
g1 x175.628906 y215.941098
g1 x175.569715 y215.991626
g1 x175.519058 y216.05089
g1 x175.478502 y216.117066
g1 x175.448638 y216.189238
g1 x175.43062 y216.264194
g1 x175.424592 y216.342791
g1 x175.43062 y216.421354
g1 x175.448657 y216.496422
g1 x175.478502 y216.568548
g1 x175.519058 y216.634724
g1 x175.569715 y216.693988
g1 x175.628906 y216.744516
g1 x175.696121 y216.785647
g1 x175.767892 y216.815447
g1 x175.843421 y216.833554
g1 x175.921654 y216.839713
g1 x175.999887 y216.833554
g1 x176.075416 y216.815447
g1 x176.147187 y216.785647
g1 x176.214402 y216.744516
g1 x176.273593 y216.693988
g1 x176.32425 y216.634724
g1 x176.364806 y216.568548
g1 x176.394651 y216.496422
g1 x176.412688 y216.421354
g1 x176.418716 y216.342791
g1 x176.412688 y216.264194
g1 x176.39467 y216.189238
g1 x176.364806 y216.117066
g1 x176.32425 y216.05089
g1 x176.273593 y215.991626
g1 x176.214402 y215.941098
g1 x176.147187 y215.899967
g1 x176.075416 y215.870167
g1 x175.999887 y215.85206
g1 x175.921654 y215.845901
g1 x175.843421 y215.85206
g1 z-1 f500
g1 x175.767892 y215.870167 f1200
g1 x175.696121 y215.899967
g1 x175.628906 y215.941098
g1 x175.569715 y215.991626
g1 x175.519058 y216.05089
g1 x175.478502 y216.117066
g1 x175.448638 y216.189238
g1 x175.43062 y216.264194
g1 x175.424592 y216.342791
g1 x175.43062 y216.421354
g1 x175.448657 y216.496422
g1 x175.478502 y216.568548
g1 x175.519058 y216.634724
g1 x175.569715 y216.693988
g1 x175.628906 y216.744516
g1 x175.696121 y216.785647
g1 x175.767892 y216.815447
g1 x175.843421 y216.833554
g1 x175.921654 y216.839713
g1 x175.999887 y216.833554
g1 x176.075416 y216.815447
g1 x176.147187 y216.785647
g1 x176.214402 y216.744516
g1 x176.273593 y216.693988
g1 x176.32425 y216.634724
g1 x176.364806 y216.568548
g1 x176.394651 y216.496422
g1 x176.412688 y216.421354
g1 x176.418716 y216.342791
g1 x176.412688 y216.264194
g1 x176.39467 y216.189238
g1 x176.364806 y216.117066
g1 x176.32425 y216.05089
g1 x176.273593 y215.991626
g1 x176.214402 y215.941098
g1 x176.147187 y215.899967
g1 x176.075416 y215.870167
g1 x175.999887 y215.85206
g1 x175.921654 y215.845901
g1 x175.843421 y215.85206
g1 z-1.5 f500
g1 x175.767892 y215.870167 f1200
g1 x175.696121 y215.899967
g1 x175.628906 y215.941098
g1 x175.569715 y215.991626
g1 x175.519058 y216.05089
g1 x175.478502 y216.117066
g1 x175.448638 y216.189238
g1 x175.43062 y216.264194
g1 x175.424592 y216.342791
g1 x175.43062 y216.421354
g1 x175.448657 y216.496422
g1 x175.478502 y216.568548
g1 x175.519058 y216.634724
g1 x175.569715 y216.693988
g1 x175.628906 y216.744516
g1 x175.696121 y216.785647
g1 x175.767892 y216.815447
g1 x175.843421 y216.833554
g1 x175.921654 y216.839713
g1 x175.999887 y216.833554
g1 x176.075416 y216.815447
g1 x176.147187 y216.785647
g1 x176.214402 y216.744516
g1 x176.273593 y216.693988
g1 x176.32425 y216.634724
g1 x176.364806 y216.568548
g1 x176.394651 y216.496422
g1 x176.412688 y216.421354
g1 x176.418716 y216.342791
g1 x176.412688 y216.264194
g1 x176.39467 y216.189238
g1 x176.364806 y216.117066
g1 x176.32425 y216.05089
g1 x176.273593 y215.991626
g1 x176.214402 y215.941098
g1 x176.147187 y215.899967
g1 x176.075416 y215.870167
g1 x175.999887 y215.85206
g1 x175.921654 y215.845901
g1 x175.843421 y215.85206
g1 z-2 f500
g1 x175.767892 y215.870167 f1200
g1 x175.696121 y215.899967
g1 x175.628906 y215.941098
g1 x175.569715 y215.991626
g1 x175.519058 y216.05089
g1 x175.478502 y216.117066
g1 x175.448638 y216.189238
g1 x175.43062 y216.264194
g1 x175.424592 y216.342791
g1 x175.43062 y216.421354
g1 x175.448657 y216.496422
g1 x175.478502 y216.568548
g1 x175.519058 y216.634724
g1 x175.569715 y216.693988
g1 x175.628906 y216.744516
g1 x175.696121 y216.785647
g1 x175.767892 y216.815447
g1 x175.843421 y216.833554
g1 x175.921654 y216.839713
g1 x175.999887 y216.833554
g1 x176.075416 y216.815447
g1 x176.147187 y216.785647
g1 x176.214402 y216.744516
g1 x176.273593 y216.693988
g1 x176.32425 y216.634724
g1 x176.364806 y216.568548
g1 x176.394651 y216.496422
g1 x176.412688 y216.421354
g1 x176.418716 y216.342791
g1 x176.412688 y216.264194
g1 x176.39467 y216.189238
g1 x176.364806 y216.117066
g1 x176.32425 y216.05089
g1 x176.273593 y215.991626
g1 x176.214402 y215.941098
g1 x176.147187 y215.899967
g1 x176.075416 y215.870167
g1 x175.999887 y215.85206
g1 x175.921654 y215.845901
g1 x175.843421 y215.85206
g0 z30
(Block-name: path4)
(Block-expand: 0)
(Block-enable: 0)

(End cutting path id: path4)


(Start cutting path id: path4)
(Change tool to Default tool)

G0 Z20
G0 X193.491653 Y209.071907

G1 Z-0.125 F100
G1 X193.262653 Y209.126807 Z-0.125 F400
G1 X193.045655 Y209.216907 Z-0.125
G1 X192.844654 Y209.339907 Z-0.125
G1 X192.665655 Y209.492707 Z-0.125
G1 X192.512655 Y209.671707 Z-0.125
G1 X192.389655 Y209.872407 Z-0.125
G1 X192.299655 Y210.089907 Z-0.125
G1 X192.244655 Y210.318707 Z-0.125
G1 X192.226665 Y210.553407 Z-0.125
G1 X192.244655 Y210.788107 Z-0.125
G1 X192.299655 Y211.016907 Z-0.125
G1 X192.389655 Y211.234407 Z-0.125
G1 X192.512655 Y211.435107 Z-0.125
G1 X192.665655 Y211.614107 Z-0.125
G1 X192.844654 Y211.766907 Z-0.125
G1 X193.045655 Y211.889907 Z-0.125
G1 X193.262653 Y211.980007 Z-0.125
G1 X193.491653 Y212.034907 Z-0.125
G1 X193.726653 Y212.053407 Z-0.125
G1 X193.961653 Y212.034907 Z-0.125
G1 X194.190653 Y211.980007 Z-0.125
G1 X194.407653 Y211.889907 Z-0.125
G1 X194.608655 Y211.766907 Z-0.125
G1 X194.787653 Y211.614107 Z-0.125
G1 X194.940654 Y211.435107 Z-0.125
G1 X195.063653 Y211.234407 Z-0.125
G1 X195.153653 Y211.016907 Z-0.125
G1 X195.208653 Y210.788107 Z-0.125
G1 X195.226643 Y210.553407 Z-0.125
G1 X195.208653 Y210.318707 Z-0.125
G1 X195.153653 Y210.089907 Z-0.125
G1 X195.063653 Y209.872407 Z-0.125
G1 X194.940654 Y209.671707 Z-0.125
G1 X194.787653 Y209.492707 Z-0.125
G1 X194.608655 Y209.339907 Z-0.125
G1 X194.407653 Y209.216907 Z-0.125
G1 X194.190653 Y209.126807 Z-0.125
G1 X193.961653 Y209.071907 Z-0.125
G1 X193.726653 Y209.053407 Z-0.125
G1 X193.491653 Y209.071907 Z-0.125
G0 Z20
(Block-name: path4 [in,cut])
(Block-expand: 0)
(Block-enable: 1)
g0 x193.64842 y210.06266
g1 z0 f500
g1 x193.572892 y210.080767 f1200
g1 x193.501123 y210.110566
g1 x193.433906 y210.151698
g1 x193.374717 y210.202225
g1 x193.324059 y210.26149
g1 x193.283503 y210.327666
g1 x193.253639 y210.399838
g1 x193.235626 y210.474773
g1 x193.229598 y210.553407
g1 x193.235626 y210.632041
g1 x193.253639 y210.706976
g1 x193.283503 y210.779148
g1 x193.324059 y210.845324
g1 x193.374717 y210.904589
g1 x193.433906 y210.955116
g1 x193.501123 y210.996248
g1 x193.572892 y211.026047
g1 x193.64842 y211.044154
g1 x193.726653 y211.050313
g1 x193.804886 y211.044154
g1 x193.880415 y211.026047
g1 x193.952188 y210.996247
g1 x194.019402 y210.955116
g1 x194.078592 y210.904589
g1 x194.129249 y210.845324
g1 x194.169804 y210.77915
g1 x194.199669 y210.706976
g1 x194.217682 y210.632041
g1 x194.22371 y210.553407
g1 x194.217682 y210.474773
g1 x194.199669 y210.399838
g1 x194.169804 y210.327664
g1 x194.129249 y210.26149
g1 x194.078592 y210.202225
g1 x194.019402 y210.151698
g1 x193.952188 y210.110567
g1 x193.880415 y210.080767
g1 x193.804886 y210.06266
g1 x193.726653 y210.056501
g1 x193.64842 y210.06266
g1 z-0.5 f500
g1 x193.572892 y210.080767 f1200
g1 x193.501123 y210.110566
g1 x193.433906 y210.151698
g1 x193.374717 y210.202225
g1 x193.324059 y210.26149
g1 x193.283503 y210.327666
g1 x193.253639 y210.399838
g1 x193.235626 y210.474773
g1 x193.229598 y210.553407
g1 x193.235626 y210.632041
g1 x193.253639 y210.706976
g1 x193.283503 y210.779148
g1 x193.324059 y210.845324
g1 x193.374717 y210.904589
g1 x193.433906 y210.955116
g1 x193.501123 y210.996248
g1 x193.572892 y211.026047
g1 x193.64842 y211.044154
g1 x193.726653 y211.050313
g1 x193.804886 y211.044154
g1 x193.880415 y211.026047
g1 x193.952188 y210.996247
g1 x194.019402 y210.955116
g1 x194.078592 y210.904589
g1 x194.129249 y210.845324
g1 x194.169804 y210.77915
g1 x194.199669 y210.706976
g1 x194.217682 y210.632041
g1 x194.22371 y210.553407
g1 x194.217682 y210.474773
g1 x194.199669 y210.399838
g1 x194.169804 y210.327664
g1 x194.129249 y210.26149
g1 x194.078592 y210.202225
g1 x194.019402 y210.151698
g1 x193.952188 y210.110567
g1 x193.880415 y210.080767
g1 x193.804886 y210.06266
g1 x193.726653 y210.056501
g1 x193.64842 y210.06266
g1 z-1 f500
g1 x193.572892 y210.080767 f1200
g1 x193.501123 y210.110566
g1 x193.433906 y210.151698
g1 x193.374717 y210.202225
g1 x193.324059 y210.26149
g1 x193.283503 y210.327666
g1 x193.253639 y210.399838
g1 x193.235626 y210.474773
g1 x193.229598 y210.553407
g1 x193.235626 y210.632041
g1 x193.253639 y210.706976
g1 x193.283503 y210.779148
g1 x193.324059 y210.845324
g1 x193.374717 y210.904589
g1 x193.433906 y210.955116
g1 x193.501123 y210.996248
g1 x193.572892 y211.026047
g1 x193.64842 y211.044154
g1 x193.726653 y211.050313
g1 x193.804886 y211.044154
g1 x193.880415 y211.026047
g1 x193.952188 y210.996247
g1 x194.019402 y210.955116
g1 x194.078592 y210.904589
g1 x194.129249 y210.845324
g1 x194.169804 y210.77915
g1 x194.199669 y210.706976
g1 x194.217682 y210.632041
g1 x194.22371 y210.553407
g1 x194.217682 y210.474773
g1 x194.199669 y210.399838
g1 x194.169804 y210.327664
g1 x194.129249 y210.26149
g1 x194.078592 y210.202225
g1 x194.019402 y210.151698
g1 x193.952188 y210.110567
g1 x193.880415 y210.080767
g1 x193.804886 y210.06266
g1 x193.726653 y210.056501
g1 x193.64842 y210.06266
g1 z-1.5 f500
g1 x193.572892 y210.080767 f1200
g1 x193.501123 y210.110566
g1 x193.433906 y210.151698
g1 x193.374717 y210.202225
g1 x193.324059 y210.26149
g1 x193.283503 y210.327666
g1 x193.253639 y210.399838
g1 x193.235626 y210.474773
g1 x193.229598 y210.553407
g1 x193.235626 y210.632041
g1 x193.253639 y210.706976
g1 x193.283503 y210.779148
g1 x193.324059 y210.845324
g1 x193.374717 y210.904589
g1 x193.433906 y210.955116
g1 x193.501123 y210.996248
g1 x193.572892 y211.026047
g1 x193.64842 y211.044154
g1 x193.726653 y211.050313
g1 x193.804886 y211.044154
g1 x193.880415 y211.026047
g1 x193.952188 y210.996247
g1 x194.019402 y210.955116
g1 x194.078592 y210.904589
g1 x194.129249 y210.845324
g1 x194.169804 y210.77915
g1 x194.199669 y210.706976
g1 x194.217682 y210.632041
g1 x194.22371 y210.553407
g1 x194.217682 y210.474773
g1 x194.199669 y210.399838
g1 x194.169804 y210.327664
g1 x194.129249 y210.26149
g1 x194.078592 y210.202225
g1 x194.019402 y210.151698
g1 x193.952188 y210.110567
g1 x193.880415 y210.080767
g1 x193.804886 y210.06266
g1 x193.726653 y210.056501
g1 x193.64842 y210.06266
g1 z-2 f500
g1 x193.572892 y210.080767 f1200
g1 x193.501123 y210.110566
g1 x193.433906 y210.151698
g1 x193.374717 y210.202225
g1 x193.324059 y210.26149
g1 x193.283503 y210.327666
g1 x193.253639 y210.399838
g1 x193.235626 y210.474773
g1 x193.229598 y210.553407
g1 x193.235626 y210.632041
g1 x193.253639 y210.706976
g1 x193.283503 y210.779148
g1 x193.324059 y210.845324
g1 x193.374717 y210.904589
g1 x193.433906 y210.955116
g1 x193.501123 y210.996248
g1 x193.572892 y211.026047
g1 x193.64842 y211.044154
g1 x193.726653 y211.050313
g1 x193.804886 y211.044154
g1 x193.880415 y211.026047
g1 x193.952188 y210.996247
g1 x194.019402 y210.955116
g1 x194.078592 y210.904589
g1 x194.129249 y210.845324
g1 x194.169804 y210.77915
g1 x194.199669 y210.706976
g1 x194.217682 y210.632041
g1 x194.22371 y210.553407
g1 x194.217682 y210.474773
g1 x194.199669 y210.399838
g1 x194.169804 y210.327664
g1 x194.129249 y210.26149
g1 x194.078592 y210.202225
g1 x194.019402 y210.151698
g1 x193.952188 y210.110567
g1 x193.880415 y210.080767
g1 x193.804886 y210.06266
g1 x193.726653 y210.056501
g1 x193.64842 y210.06266
g0 z30
(Block-name: path4)
(Block-expand: 0)
(Block-enable: 0)

(End cutting path id: path4)


(Start cutting path id: path4)
(Change tool to Default tool)

G0 Z20
G0 X177.357654 Y190.965906

G1 Z-0.125 F100
G1 X175.831654 Y191.332206 Z-0.125 F400
G1 X174.381654 Y191.932707 Z-0.125
G1 X173.043754 Y192.752608 Z-0.125
G1 X171.850554 Y193.771706 Z-0.125
G1 X170.831454 Y194.964906 Z-0.125
G1 X170.011554 Y196.302906 Z-0.125
G1 X169.411054 Y197.752606 Z-0.125
G1 X169.044754 Y199.278508 Z-0.125
G1 X168.921654 Y200.842807 Z-0.125
G1 X169.044754 Y202.407108 Z-0.125
G1 X169.411054 Y203.933007 Z-0.125
G1 X170.011554 Y205.382707 Z-0.125
G1 X170.831454 Y206.720707 Z-0.125
G1 X171.850554 Y207.913907 Z-0.125
G1 X173.043754 Y208.933007 Z-0.125
G1 X174.381654 Y209.752907 Z-0.125
G1 X175.831654 Y210.353407 Z-0.125
G1 X177.357654 Y210.719707 Z-0.125
G1 X178.921654 Y210.842807 Z-0.125
G1 X180.485655 Y210.719707 Z-0.125
G1 X182.011655 Y210.353407 Z-0.125
G1 X183.461654 Y209.752907 Z-0.125
G1 X184.799654 Y208.933007 Z-0.125
G1 X185.992655 Y207.913907 Z-0.125
G1 X187.011655 Y206.720707 Z-0.125
G1 X187.831655 Y205.382707 Z-0.125
G1 X188.432653 Y203.933007 Z-0.125
G1 X188.798654 Y202.407108 Z-0.125
G1 X188.921653 Y200.842807 Z-0.125
G1 X188.798654 Y199.278508 Z-0.125
G1 X188.432653 Y197.752606 Z-0.125
G1 X187.831655 Y196.302906 Z-0.125
G1 X187.011655 Y194.964906 Z-0.125
G1 X185.992655 Y193.771706 Z-0.125
G1 X184.799654 Y192.752608 Z-0.125
G1 X183.461654 Y191.932707 Z-0.125
G1 X182.011655 Y191.332206 Z-0.125
G1 X180.485655 Y190.965906 Z-0.125
G1 X178.921654 Y190.842806 Z-0.125
G1 X177.357654 Y190.965906 Z-0.125
G0 Z20
(Block-name: path4 [in,cut])
(Block-expand: 0)
(Block-enable: 1)
g0 x177.514557 y191.956649
g1 z0 f500
g1 x176.141578 y192.286218 f1200
g1 x174.83703 y192.826482
g1 x173.633366 y193.564119
g1 x172.559847 y194.480999
g1 x171.642976 y195.554505
g1 x170.905316 y196.758297
g1 x170.365055 y198.062572
g1 x170.035498 y199.435411
g1 x169.924746 y200.842807
g1 x170.035498 y202.250205
g1 x170.365055 y203.623041
g1 x170.905316 y204.927316
g1 x171.642976 y206.131108
g1 x172.559847 y207.204614
g1 x173.633366 y208.121496
g1 x174.837029 y208.859132
g1 x176.141578 y209.399395
g1 x177.514557 y209.728964
g1 x178.921654 y209.839714
g1 x180.328752 y209.728964
g1 x181.701731 y209.399395
g1 x183.006294 y208.859126
g1 x184.210019 y208.121507
g1 x185.283317 y207.204661
g1 x186.200138 y206.131108
g1 x186.93798 y204.927165
g1 x187.478651 y203.622983
g1 x187.807895 y202.250329
g1 x187.918567 y200.842807
g1 x187.807895 y199.435286
g1 x187.478651 y198.062629
g1 x186.93798 y196.758448
g1 x186.200138 y195.554505
g1 x185.283317 y194.480952
g1 x184.21002 y193.564109
g1 x183.006294 y192.826488
g1 x181.701731 y192.286218
g1 x180.328752 y191.956649
g1 x178.921654 y191.845899
g1 x177.514557 y191.956649
g1 z-0.5 f500
g1 x176.141578 y192.286218 f1200
g1 x174.83703 y192.826482
g1 x173.633366 y193.564119
g1 x172.559847 y194.480999
g1 x171.642976 y195.554505
g1 x170.905316 y196.758297
g1 x170.365055 y198.062572
g1 x170.035498 y199.435411
g1 x169.924746 y200.842807
g1 x170.035498 y202.250205
g1 x170.365055 y203.623041
g1 x170.905316 y204.927316
g1 x171.642976 y206.131108
g1 x172.559847 y207.204614
g1 x173.633366 y208.121496
g1 x174.837029 y208.859132
g1 x176.141578 y209.399395
g1 x177.514557 y209.728964
g1 x178.921654 y209.839714
g1 x180.328752 y209.728964
g1 x181.701731 y209.399395
g1 x183.006294 y208.859126
g1 x184.210019 y208.121507
g1 x185.283317 y207.204661
g1 x186.200138 y206.131108
g1 x186.93798 y204.927165
g1 x187.478651 y203.622983
g1 x187.807895 y202.250329
g1 x187.918567 y200.842807
g1 x187.807895 y199.435286
g1 x187.478651 y198.062629
g1 x186.93798 y196.758448
g1 x186.200138 y195.554505
g1 x185.283317 y194.480952
g1 x184.21002 y193.564109
g1 x183.006294 y192.826488
g1 x181.701731 y192.286218
g1 x180.328752 y191.956649
g1 x178.921654 y191.845899
g1 x177.514557 y191.956649
g1 z-1 f500
g1 x176.141578 y192.286218 f1200
g1 x174.83703 y192.826482
g1 x173.633366 y193.564119
g1 x172.559847 y194.480999
g1 x171.642976 y195.554505
g1 x170.905316 y196.758297
g1 x170.365055 y198.062572
g1 x170.035498 y199.435411
g1 x169.924746 y200.842807
g1 x170.035498 y202.250205
g1 x170.365055 y203.623041
g1 x170.905316 y204.927316
g1 x171.642976 y206.131108
g1 x172.559847 y207.204614
g1 x173.633366 y208.121496
g1 x174.837029 y208.859132
g1 x176.141578 y209.399395
g1 x177.514557 y209.728964
g1 x178.921654 y209.839714
g1 x180.328752 y209.728964
g1 x181.701731 y209.399395
g1 x183.006294 y208.859126
g1 x184.210019 y208.121507
g1 x185.283317 y207.204661
g1 x186.200138 y206.131108
g1 x186.93798 y204.927165
g1 x187.478651 y203.622983
g1 x187.807895 y202.250329
g1 x187.918567 y200.842807
g1 x187.807895 y199.435286
g1 x187.478651 y198.062629
g1 x186.93798 y196.758448
g1 x186.200138 y195.554505
g1 x185.283317 y194.480952
g1 x184.21002 y193.564109
g1 x183.006294 y192.826488
g1 x181.701731 y192.286218
g1 x180.328752 y191.956649
g1 x178.921654 y191.845899
g1 x177.514557 y191.956649
g1 z-1.5 f500
g1 x176.141578 y192.286218 f1200
g1 x174.83703 y192.826482
g1 x173.633366 y193.564119
g1 x172.559847 y194.480999
g1 x171.642976 y195.554505
g1 x170.905316 y196.758297
g1 x170.365055 y198.062572
g1 x170.035498 y199.435411
g1 x169.924746 y200.842807
g1 x170.035498 y202.250205
g1 x170.365055 y203.623041
g1 x170.905316 y204.927316
g1 x171.642976 y206.131108
g1 x172.559847 y207.204614
g1 x173.633366 y208.121496
g1 x174.837029 y208.859132
g1 x176.141578 y209.399395
g1 x177.514557 y209.728964
g1 x178.921654 y209.839714
g1 x180.328752 y209.728964
g1 x181.701731 y209.399395
g1 x183.006294 y208.859126
g1 x184.210019 y208.121507
g1 x185.283317 y207.204661
g1 x186.200138 y206.131108
g1 x186.93798 y204.927165
g1 x187.478651 y203.622983
g1 x187.807895 y202.250329
g1 x187.918567 y200.842807
g1 x187.807895 y199.435286
g1 x187.478651 y198.062629
g1 x186.93798 y196.758448
g1 x186.200138 y195.554505
g1 x185.283317 y194.480952
g1 x184.21002 y193.564109
g1 x183.006294 y192.826488
g1 x181.701731 y192.286218
g1 x180.328752 y191.956649
g1 x178.921654 y191.845899
g1 x177.514557 y191.956649
g1 z-2 f500
g1 x176.141578 y192.286218 f1200
g1 x174.83703 y192.826482
g1 x173.633366 y193.564119
g1 x172.559847 y194.480999
g1 x171.642976 y195.554505
g1 x170.905316 y196.758297
g1 x170.365055 y198.062572
g1 x170.035498 y199.435411
g1 x169.924746 y200.842807
g1 x170.035498 y202.250205
g1 x170.365055 y203.623041
g1 x170.905316 y204.927316
g1 x171.642976 y206.131108
g1 x172.559847 y207.204614
g1 x173.633366 y208.121496
g1 x174.837029 y208.859132
g1 x176.141578 y209.399395
g1 x177.514557 y209.728964
g1 x178.921654 y209.839714
g1 x180.328752 y209.728964
g1 x181.701731 y209.399395
g1 x183.006294 y208.859126
g1 x184.210019 y208.121507
g1 x185.283317 y207.204661
g1 x186.200138 y206.131108
g1 x186.93798 y204.927165
g1 x187.478651 y203.622983
g1 x187.807895 y202.250329
g1 x187.918567 y200.842807
g1 x187.807895 y199.435286
g1 x187.478651 y198.062629
g1 x186.93798 y196.758448
g1 x186.200138 y195.554505
g1 x185.283317 y194.480952
g1 x184.21002 y193.564109
g1 x183.006294 y192.826488
g1 x181.701731 y192.286218
g1 x180.328752 y191.956649
g1 x178.921654 y191.845899
g1 x177.514557 y191.956649
g0 z30
(Block-name: path4)
(Block-expand: 0)
(Block-enable: 0)

(End cutting path id: path4)


(Start cutting path id: path4)
(Change tool to Default tool)

G0 Z20
G0 X219.124655 Y201.470507

G1 Z-0.125 F100
G1 X218.895655 Y201.525407 Z-0.125 F400
G1 X218.678654 Y201.615507 Z-0.125
G1 X218.477653 Y201.738506 Z-0.125
G1 X218.298655 Y201.891308 Z-0.125
G1 X218.145654 Y202.070307 Z-0.125
G1 X218.022654 Y202.271006 Z-0.125
G1 X217.932654 Y202.488507 Z-0.125
G1 X217.877654 Y202.717308 Z-0.125
G1 X217.859664 Y202.952007 Z-0.125
G1 X217.877654 Y203.186707 Z-0.125
G1 X217.932654 Y203.415507 Z-0.125
G1 X218.022654 Y203.633007 Z-0.125
G1 X218.145654 Y203.833707 Z-0.125
G1 X218.298655 Y204.012707 Z-0.125
G1 X218.477653 Y204.165507 Z-0.125
G1 X218.678654 Y204.288507 Z-0.125
G1 X218.895655 Y204.378607 Z-0.125
G1 X219.124655 Y204.433507 Z-0.125
G1 X219.359655 Y204.452007 Z-0.125
G1 X219.593655 Y204.433507 Z-0.125
G1 X219.822654 Y204.378607 Z-0.125
G1 X220.040655 Y204.288507 Z-0.125
G1 X220.240654 Y204.165507 Z-0.125
G1 X220.419655 Y204.012707 Z-0.125
G1 X220.572653 Y203.833707 Z-0.125
G1 X220.695655 Y203.633007 Z-0.125
G1 X220.785655 Y203.415507 Z-0.125
G1 X220.840655 Y203.186707 Z-0.125
G1 X220.859655 Y202.952007 Z-0.125
G1 X220.840655 Y202.717308 Z-0.125
G1 X220.785655 Y202.488507 Z-0.125
G1 X220.695655 Y202.271006 Z-0.125
G1 X220.572653 Y202.070307 Z-0.125
G1 X220.419655 Y201.891308 Z-0.125
G1 X220.240654 Y201.738506 Z-0.125
G1 X220.040655 Y201.615507 Z-0.125
G1 X219.822654 Y201.525407 Z-0.125
G1 X219.593655 Y201.470507 Z-0.125
G1 X219.359655 Y201.452017 Z-0.125
G1 X219.124655 Y201.470507 Z-0.125
G0 Z20
(Block-name: path4 [in,cut])
(Block-expand: 0)
(Block-enable: 1)
g0 x219.281401 y202.461265
g1 z0 f500
g1 x219.205892 y202.479367 f1200
g1 x219.134118 y202.509168
g1 x219.066908 y202.550296
g1 x219.007717 y202.600824
g1 x218.957056 y202.660094
g1 x218.916502 y202.726265
g1 x218.886638 y202.798437
g1 x218.868625 y202.873374
g1 x218.862597 y202.952007
g1 x218.868625 y203.030641
g1 x218.886638 y203.105576
g1 x218.916502 y203.177748
g1 x218.957057 y203.243922
g1 x219.007716 y203.303189
g1 x219.066906 y203.353716
g1 x219.13412 y203.394847
g1 x219.205892 y203.424647
g1 x219.281422 y203.442754
g1 x219.359487 y203.4489
g1 x219.436724 y203.442794
g1 x219.513212 y203.424456
g1 x219.584851 y203.394848
g1 x219.650552 y203.354442
g1 x219.710593 y203.303189
g1 x219.761249 y203.243924
g1 x219.801808 y203.177745
g1 x219.831671 y203.105576
g1 x219.850187 y203.028549
g1 x219.856384 y202.952007
g1 x219.850187 y202.875466
g1 x219.831671 y202.798437
g1 x219.801808 y202.726268
g1 x219.761251 y202.660093
g1 x219.710592 y202.600824
g1 x219.650551 y202.549571
g1 x219.584853 y202.509167
g1 x219.513212 y202.479558
g1 x219.436745 y202.461225
g1 x219.359487 y202.455121
g1 x219.281401 y202.461265
g1 z-0.5 f500
g1 x219.205892 y202.479367 f1200
g1 x219.134118 y202.509168
g1 x219.066908 y202.550296
g1 x219.007717 y202.600824
g1 x218.957056 y202.660094
g1 x218.916502 y202.726265
g1 x218.886638 y202.798437
g1 x218.868625 y202.873374
g1 x218.862597 y202.952007
g1 x218.868625 y203.030641
g1 x218.886638 y203.105576
g1 x218.916502 y203.177748
g1 x218.957057 y203.243922
g1 x219.007716 y203.303189
g1 x219.066906 y203.353716
g1 x219.13412 y203.394847
g1 x219.205892 y203.424647
g1 x219.281422 y203.442754
g1 x219.359487 y203.4489
g1 x219.436724 y203.442794
g1 x219.513212 y203.424456
g1 x219.584851 y203.394848
g1 x219.650552 y203.354442
g1 x219.710593 y203.303189
g1 x219.761249 y203.243924
g1 x219.801808 y203.177745
g1 x219.831671 y203.105576
g1 x219.850187 y203.028549
g1 x219.856384 y202.952007
g1 x219.850187 y202.875466
g1 x219.831671 y202.798437
g1 x219.801808 y202.726268
g1 x219.761251 y202.660093
g1 x219.710592 y202.600824
g1 x219.650551 y202.549571
g1 x219.584853 y202.509167
g1 x219.513212 y202.479558
g1 x219.436745 y202.461225
g1 x219.359487 y202.455121
g1 x219.281401 y202.461265
g1 z-1 f500
g1 x219.205892 y202.479367 f1200
g1 x219.134118 y202.509168
g1 x219.066908 y202.550296
g1 x219.007717 y202.600824
g1 x218.957056 y202.660094
g1 x218.916502 y202.726265
g1 x218.886638 y202.798437
g1 x218.868625 y202.873374
g1 x218.862597 y202.952007
g1 x218.868625 y203.030641
g1 x218.886638 y203.105576
g1 x218.916502 y203.177748
g1 x218.957057 y203.243922
g1 x219.007716 y203.303189
g1 x219.066906 y203.353716
g1 x219.13412 y203.394847
g1 x219.205892 y203.424647
g1 x219.281422 y203.442754
g1 x219.359487 y203.4489
g1 x219.436724 y203.442794
g1 x219.513212 y203.424456
g1 x219.584851 y203.394848
g1 x219.650552 y203.354442
g1 x219.710593 y203.303189
g1 x219.761249 y203.243924
g1 x219.801808 y203.177745
g1 x219.831671 y203.105576
g1 x219.850187 y203.028549
g1 x219.856384 y202.952007
g1 x219.850187 y202.875466
g1 x219.831671 y202.798437
g1 x219.801808 y202.726268
g1 x219.761251 y202.660093
g1 x219.710592 y202.600824
g1 x219.650551 y202.549571
g1 x219.584853 y202.509167
g1 x219.513212 y202.479558
g1 x219.436745 y202.461225
g1 x219.359487 y202.455121
g1 x219.281401 y202.461265
g1 z-1.5 f500
g1 x219.205892 y202.479367 f1200
g1 x219.134118 y202.509168
g1 x219.066908 y202.550296
g1 x219.007717 y202.600824
g1 x218.957056 y202.660094
g1 x218.916502 y202.726265
g1 x218.886638 y202.798437
g1 x218.868625 y202.873374
g1 x218.862597 y202.952007
g1 x218.868625 y203.030641
g1 x218.886638 y203.105576
g1 x218.916502 y203.177748
g1 x218.957057 y203.243922
g1 x219.007716 y203.303189
g1 x219.066906 y203.353716
g1 x219.13412 y203.394847
g1 x219.205892 y203.424647
g1 x219.281422 y203.442754
g1 x219.359487 y203.4489
g1 x219.436724 y203.442794
g1 x219.513212 y203.424456
g1 x219.584851 y203.394848
g1 x219.650552 y203.354442
g1 x219.710593 y203.303189
g1 x219.761249 y203.243924
g1 x219.801808 y203.177745
g1 x219.831671 y203.105576
g1 x219.850187 y203.028549
g1 x219.856384 y202.952007
g1 x219.850187 y202.875466
g1 x219.831671 y202.798437
g1 x219.801808 y202.726268
g1 x219.761251 y202.660093
g1 x219.710592 y202.600824
g1 x219.650551 y202.549571
g1 x219.584853 y202.509167
g1 x219.513212 y202.479558
g1 x219.436745 y202.461225
g1 x219.359487 y202.455121
g1 x219.281401 y202.461265
g1 z-2 f500
g1 x219.205892 y202.479367 f1200
g1 x219.134118 y202.509168
g1 x219.066908 y202.550296
g1 x219.007717 y202.600824
g1 x218.957056 y202.660094
g1 x218.916502 y202.726265
g1 x218.886638 y202.798437
g1 x218.868625 y202.873374
g1 x218.862597 y202.952007
g1 x218.868625 y203.030641
g1 x218.886638 y203.105576
g1 x218.916502 y203.177748
g1 x218.957057 y203.243922
g1 x219.007716 y203.303189
g1 x219.066906 y203.353716
g1 x219.13412 y203.394847
g1 x219.205892 y203.424647
g1 x219.281422 y203.442754
g1 x219.359487 y203.4489
g1 x219.436724 y203.442794
g1 x219.513212 y203.424456
g1 x219.584851 y203.394848
g1 x219.650552 y203.354442
g1 x219.710593 y203.303189
g1 x219.761249 y203.243924
g1 x219.801808 y203.177745
g1 x219.831671 y203.105576
g1 x219.850187 y203.028549
g1 x219.856384 y202.952007
g1 x219.850187 y202.875466
g1 x219.831671 y202.798437
g1 x219.801808 y202.726268
g1 x219.761251 y202.660093
g1 x219.710592 y202.600824
g1 x219.650551 y202.549571
g1 x219.584853 y202.509167
g1 x219.513212 y202.479558
g1 x219.436745 y202.461225
g1 x219.359487 y202.455121
g1 x219.281401 y202.461265
g0 z30
(Block-name: path4)
(Block-expand: 0)
(Block-enable: 0)

(End cutting path id: path4)


(Start cutting path id: path4)
(Change tool to Default tool)

G0 Z20
G0 X161.186954 Y194.861308

G1 Z-0.125 F100
G1 X160.958154 Y194.916208 Z-0.125 F400
G1 X160.740654 Y195.006308 Z-0.125
G1 X160.539954 Y195.129307 Z-0.125
G1 X160.360954 Y195.282107 Z-0.125
G1 X160.208154 Y195.461108 Z-0.125
G1 X160.085154 Y195.661808 Z-0.125
G1 X159.995054 Y195.879306 Z-0.125
G1 X159.940154 Y196.108107 Z-0.125
G1 X159.921654 Y196.342808 Z-0.125
G1 X159.940154 Y196.577406 Z-0.125
G1 X159.995054 Y196.806308 Z-0.125
G1 X160.085154 Y197.023806 Z-0.125
G1 X160.208154 Y197.224508 Z-0.125
G1 X160.360954 Y197.403507 Z-0.125
G1 X160.539954 Y197.556306 Z-0.125
G1 X160.740654 Y197.679306 Z-0.125
G1 X160.958154 Y197.769406 Z-0.125
G1 X161.186954 Y197.824306 Z-0.125
G1 X161.421654 Y197.842796 Z-0.125
G1 X161.656254 Y197.824306 Z-0.125
G1 X161.885154 Y197.769406 Z-0.125
G1 X162.102654 Y197.679306 Z-0.125
G1 X162.303354 Y197.556306 Z-0.125
G1 X162.482354 Y197.403507 Z-0.125
G1 X162.635154 Y197.224508 Z-0.125
G1 X162.758154 Y197.023806 Z-0.125
G1 X162.848254 Y196.806308 Z-0.125
G1 X162.903154 Y196.577406 Z-0.125
G1 X162.921654 Y196.342808 Z-0.125
G1 X162.903154 Y196.108107 Z-0.125
G1 X162.848254 Y195.879306 Z-0.125
G1 X162.758154 Y195.661808 Z-0.125
G1 X162.635154 Y195.461108 Z-0.125
G1 X162.482354 Y195.282107 Z-0.125
G1 X162.303354 Y195.129307 Z-0.125
G1 X162.102654 Y195.006308 Z-0.125
G1 X161.885154 Y194.916208 Z-0.125
G1 X161.656254 Y194.861308 Z-0.125
G1 X161.421654 Y194.842818 Z-0.125
G1 X161.186954 Y194.861308 Z-0.125
G0 Z20
(Block-name: path4 [in,cut])
(Block-expand: 0)
(Block-enable: 1)
g0 x161.343849 y195.852046
g1 z0 f500
g1 x161.268085 y195.870225 f1200
g1 x161.196079 y195.900054
g1 x161.129459 y195.940882
g1 x161.070263 y195.991414
g1 x161.019729 y196.050613
g1 x160.978898 y196.117236
g1 x160.949071 y196.189238
g1 x160.930887 y196.265022
g1 x160.924757 y196.342791
g1 x160.930887 y196.420525
g1 x160.94909 y196.496422
g1 x160.978899 y196.56838
g1 x161.019729 y196.635002
g1 x161.07026 y196.694197
g1 x161.129459 y196.744731
g1 x161.196081 y196.785561
g1 x161.268085 y196.815389
g1 x161.343849 y196.833568
g1 x161.421637 y196.839696
g1 x161.499393 y196.833568
g1 x161.575269 y196.81537
g1 x161.647227 y196.785561
g1 x161.713849 y196.744731
g1 x161.773048 y196.694197
g1 x161.823579 y196.635002
g1 x161.864409 y196.56838
g1 x161.894218 y196.496422
g1 x161.912421 y196.420525
g1 x161.918551 y196.342791
g1 x161.912421 y196.265022
g1 x161.894237 y196.189238
g1 x161.86441 y196.117236
g1 x161.823579 y196.050613
g1 x161.773045 y195.991414
g1 x161.713849 y195.940882
g1 x161.647229 y195.900054
g1 x161.575269 y195.870244
g1 x161.499393 y195.852046
g1 x161.421637 y195.845918
g1 x161.343849 y195.852046
g1 z-0.5 f500
g1 x161.268085 y195.870225 f1200
g1 x161.196079 y195.900054
g1 x161.129459 y195.940882
g1 x161.070263 y195.991414
g1 x161.019729 y196.050613
g1 x160.978898 y196.117236
g1 x160.949071 y196.189238
g1 x160.930887 y196.265022
g1 x160.924757 y196.342791
g1 x160.930887 y196.420525
g1 x160.94909 y196.496422
g1 x160.978899 y196.56838
g1 x161.019729 y196.635002
g1 x161.07026 y196.694197
g1 x161.129459 y196.744731
g1 x161.196081 y196.785561
g1 x161.268085 y196.815389
g1 x161.343849 y196.833568
g1 x161.421637 y196.839696
g1 x161.499393 y196.833568
g1 x161.575269 y196.81537
g1 x161.647227 y196.785561
g1 x161.713849 y196.744731
g1 x161.773048 y196.694197
g1 x161.823579 y196.635002
g1 x161.864409 y196.56838
g1 x161.894218 y196.496422
g1 x161.912421 y196.420525
g1 x161.918551 y196.342791
g1 x161.912421 y196.265022
g1 x161.894237 y196.189238
g1 x161.86441 y196.117236
g1 x161.823579 y196.050613
g1 x161.773045 y195.991414
g1 x161.713849 y195.940882
g1 x161.647229 y195.900054
g1 x161.575269 y195.870244
g1 x161.499393 y195.852046
g1 x161.421637 y195.845918
g1 x161.343849 y195.852046
g1 z-1 f500
g1 x161.268085 y195.870225 f1200
g1 x161.196079 y195.900054
g1 x161.129459 y195.940882
g1 x161.070263 y195.991414
g1 x161.019729 y196.050613
g1 x160.978898 y196.117236
g1 x160.949071 y196.189238
g1 x160.930887 y196.265022
g1 x160.924757 y196.342791
g1 x160.930887 y196.420525
g1 x160.94909 y196.496422
g1 x160.978899 y196.56838
g1 x161.019729 y196.635002
g1 x161.07026 y196.694197
g1 x161.129459 y196.744731
g1 x161.196081 y196.785561
g1 x161.268085 y196.815389
g1 x161.343849 y196.833568
g1 x161.421637 y196.839696
g1 x161.499393 y196.833568
g1 x161.575269 y196.81537
g1 x161.647227 y196.785561
g1 x161.713849 y196.744731
g1 x161.773048 y196.694197
g1 x161.823579 y196.635002
g1 x161.864409 y196.56838
g1 x161.894218 y196.496422
g1 x161.912421 y196.420525
g1 x161.918551 y196.342791
g1 x161.912421 y196.265022
g1 x161.894237 y196.189238
g1 x161.86441 y196.117236
g1 x161.823579 y196.050613
g1 x161.773045 y195.991414
g1 x161.713849 y195.940882
g1 x161.647229 y195.900054
g1 x161.575269 y195.870244
g1 x161.499393 y195.852046
g1 x161.421637 y195.845918
g1 x161.343849 y195.852046
g1 z-1.5 f500
g1 x161.268085 y195.870225 f1200
g1 x161.196079 y195.900054
g1 x161.129459 y195.940882
g1 x161.070263 y195.991414
g1 x161.019729 y196.050613
g1 x160.978898 y196.117236
g1 x160.949071 y196.189238
g1 x160.930887 y196.265022
g1 x160.924757 y196.342791
g1 x160.930887 y196.420525
g1 x160.94909 y196.496422
g1 x160.978899 y196.56838
g1 x161.019729 y196.635002
g1 x161.07026 y196.694197
g1 x161.129459 y196.744731
g1 x161.196081 y196.785561
g1 x161.268085 y196.815389
g1 x161.343849 y196.833568
g1 x161.421637 y196.839696
g1 x161.499393 y196.833568
g1 x161.575269 y196.81537
g1 x161.647227 y196.785561
g1 x161.713849 y196.744731
g1 x161.773048 y196.694197
g1 x161.823579 y196.635002
g1 x161.864409 y196.56838
g1 x161.894218 y196.496422
g1 x161.912421 y196.420525
g1 x161.918551 y196.342791
g1 x161.912421 y196.265022
g1 x161.894237 y196.189238
g1 x161.86441 y196.117236
g1 x161.823579 y196.050613
g1 x161.773045 y195.991414
g1 x161.713849 y195.940882
g1 x161.647229 y195.900054
g1 x161.575269 y195.870244
g1 x161.499393 y195.852046
g1 x161.421637 y195.845918
g1 x161.343849 y195.852046
g1 z-2 f500
g1 x161.268085 y195.870225 f1200
g1 x161.196079 y195.900054
g1 x161.129459 y195.940882
g1 x161.070263 y195.991414
g1 x161.019729 y196.050613
g1 x160.978898 y196.117236
g1 x160.949071 y196.189238
g1 x160.930887 y196.265022
g1 x160.924757 y196.342791
g1 x160.930887 y196.420525
g1 x160.94909 y196.496422
g1 x160.978899 y196.56838
g1 x161.019729 y196.635002
g1 x161.07026 y196.694197
g1 x161.129459 y196.744731
g1 x161.196081 y196.785561
g1 x161.268085 y196.815389
g1 x161.343849 y196.833568
g1 x161.421637 y196.839696
g1 x161.499393 y196.833568
g1 x161.575269 y196.81537
g1 x161.647227 y196.785561
g1 x161.713849 y196.744731
g1 x161.773048 y196.694197
g1 x161.823579 y196.635002
g1 x161.864409 y196.56838
g1 x161.894218 y196.496422
g1 x161.912421 y196.420525
g1 x161.918551 y196.342791
g1 x161.912421 y196.265022
g1 x161.894237 y196.189238
g1 x161.86441 y196.117236
g1 x161.823579 y196.050613
g1 x161.773045 y195.991414
g1 x161.713849 y195.940882
g1 x161.647229 y195.900054
g1 x161.575269 y195.870244
g1 x161.499393 y195.852046
g1 x161.421637 y195.845918
g1 x161.343849 y195.852046
g0 z30
(Block-name: path4)
(Block-expand: 0)
(Block-enable: 0)

(End cutting path id: path4)


(Start cutting path id: path4)
(Change tool to Default tool)

G0 Z20
G0 X210.108655 Y192.454907

G1 Z-0.125 F100
G1 X209.879653 Y192.509807 Z-0.125 F400
G1 X209.662655 Y192.599907 Z-0.125
G1 X209.461654 Y192.722907 Z-0.125
G1 X209.282655 Y192.875709 Z-0.125
G1 X209.129654 Y193.054708 Z-0.125
G1 X209.007655 Y193.255407 Z-0.125
G1 X208.916655 Y193.472908 Z-0.125
G1 X208.861655 Y193.701709 Z-0.125
G1 X208.843665 Y193.936408 Z-0.125
G1 X208.861655 Y194.171009 Z-0.125
G1 X208.916655 Y194.399908 Z-0.125
G1 X209.007655 Y194.617408 Z-0.125
G1 X209.129654 Y194.818108 Z-0.125
G1 X209.282655 Y194.997109 Z-0.125
G1 X209.461654 Y195.149909 Z-0.125
G1 X209.662655 Y195.272908 Z-0.125
G1 X209.879653 Y195.363008 Z-0.125
G1 X210.108655 Y195.417908 Z-0.125
G1 X210.343655 Y195.436398 Z-0.125
G1 X210.578653 Y195.417908 Z-0.125
G1 X210.807655 Y195.363008 Z-0.125
G1 X211.024653 Y195.272908 Z-0.125
G1 X211.225654 Y195.149909 Z-0.125
G1 X211.404653 Y194.997109 Z-0.125
G1 X211.557654 Y194.818108 Z-0.125
G1 X211.680653 Y194.617408 Z-0.125
G1 X211.770653 Y194.399908 Z-0.125
G1 X211.825653 Y194.171009 Z-0.125
G1 X211.843643 Y193.936408 Z-0.125
G1 X211.825653 Y193.701709 Z-0.125
G1 X211.770653 Y193.472908 Z-0.125
G1 X211.680653 Y193.255407 Z-0.125
G1 X211.557654 Y193.054708 Z-0.125
G1 X211.404653 Y192.875709 Z-0.125
G1 X211.225654 Y192.722907 Z-0.125
G1 X211.024653 Y192.599907 Z-0.125
G1 X210.807655 Y192.509807 Z-0.125
G1 X210.578653 Y192.454907 Z-0.125
G1 X210.343655 Y192.436407 Z-0.125
G1 X210.108655 Y192.454907 Z-0.125
G0 Z20
(Block-name: path4 [in,cut])
(Block-expand: 0)
(Block-enable: 1)
g0 x210.265421 y193.44566
g1 z0 f500
g1 x210.189891 y193.463767 f1200
g1 x210.118123 y193.493566
g1 x210.050909 y193.534697
g1 x209.991716 y193.585226
g1 x209.942244 y193.643105
g1 x209.901179 y193.710661
g1 x209.870178 y193.784755
g1 x209.852626 y193.857775
g1 x209.8466 y193.936392
g1 x209.852626 y194.014977
g1 x209.870197 y194.088105
g1 x209.901179 y194.162154
g1 x209.942246 y194.229714
g1 x209.991716 y194.287591
g1 x210.050905 y194.338116
g1 x210.118121 y194.379248
g1 x210.189891 y194.409048
g1 x210.2654 y194.42715
g1 x210.343655 y194.433307
g1 x210.421907 y194.42715
g1 x210.497417 y194.409048
g1 x210.569187 y194.379248
g1 x210.636403 y194.338116
g1 x210.695592 y194.287591
g1 x210.746249 y194.228326
g1 x210.786804 y194.162151
g1 x210.81665 y194.090022
g1 x210.834682 y194.014977
g1 x210.840708 y193.936392
g1 x210.834682 y193.857775
g1 x210.816669 y193.782838
g1 x210.786804 y193.710664
g1 x210.746251 y193.644494
g1 x210.695592 y193.585226
g1 x210.636399 y193.534697
g1 x210.569185 y193.493566
g1 x210.497417 y193.463767
g1 x210.421887 y193.44566
g1 x210.343655 y193.439501
g1 x210.265421 y193.44566
g1 z-0.5 f500
g1 x210.189891 y193.463767 f1200
g1 x210.118123 y193.493566
g1 x210.050909 y193.534697
g1 x209.991716 y193.585226
g1 x209.942244 y193.643105
g1 x209.901179 y193.710661
g1 x209.870178 y193.784755
g1 x209.852626 y193.857775
g1 x209.8466 y193.936392
g1 x209.852626 y194.014977
g1 x209.870197 y194.088105
g1 x209.901179 y194.162154
g1 x209.942246 y194.229714
g1 x209.991716 y194.287591
g1 x210.050905 y194.338116
g1 x210.118121 y194.379248
g1 x210.189891 y194.409048
g1 x210.2654 y194.42715
g1 x210.343655 y194.433307
g1 x210.421907 y194.42715
g1 x210.497417 y194.409048
g1 x210.569187 y194.379248
g1 x210.636403 y194.338116
g1 x210.695592 y194.287591
g1 x210.746249 y194.228326
g1 x210.786804 y194.162151
g1 x210.81665 y194.090022
g1 x210.834682 y194.014977
g1 x210.840708 y193.936392
g1 x210.834682 y193.857775
g1 x210.816669 y193.782838
g1 x210.786804 y193.710664
g1 x210.746251 y193.644494
g1 x210.695592 y193.585226
g1 x210.636399 y193.534697
g1 x210.569185 y193.493566
g1 x210.497417 y193.463767
g1 x210.421887 y193.44566
g1 x210.343655 y193.439501
g1 x210.265421 y193.44566
g1 z-1 f500
g1 x210.189891 y193.463767 f1200
g1 x210.118123 y193.493566
g1 x210.050909 y193.534697
g1 x209.991716 y193.585226
g1 x209.942244 y193.643105
g1 x209.901179 y193.710661
g1 x209.870178 y193.784755
g1 x209.852626 y193.857775
g1 x209.8466 y193.936392
g1 x209.852626 y194.014977
g1 x209.870197 y194.088105
g1 x209.901179 y194.162154
g1 x209.942246 y194.229714
g1 x209.991716 y194.287591
g1 x210.050905 y194.338116
g1 x210.118121 y194.379248
g1 x210.189891 y194.409048
g1 x210.2654 y194.42715
g1 x210.343655 y194.433307
g1 x210.421907 y194.42715
g1 x210.497417 y194.409048
g1 x210.569187 y194.379248
g1 x210.636403 y194.338116
g1 x210.695592 y194.287591
g1 x210.746249 y194.228326
g1 x210.786804 y194.162151
g1 x210.81665 y194.090022
g1 x210.834682 y194.014977
g1 x210.840708 y193.936392
g1 x210.834682 y193.857775
g1 x210.816669 y193.782838
g1 x210.786804 y193.710664
g1 x210.746251 y193.644494
g1 x210.695592 y193.585226
g1 x210.636399 y193.534697
g1 x210.569185 y193.493566
g1 x210.497417 y193.463767
g1 x210.421887 y193.44566
g1 x210.343655 y193.439501
g1 x210.265421 y193.44566
g1 z-1.5 f500
g1 x210.189891 y193.463767 f1200
g1 x210.118123 y193.493566
g1 x210.050909 y193.534697
g1 x209.991716 y193.585226
g1 x209.942244 y193.643105
g1 x209.901179 y193.710661
g1 x209.870178 y193.784755
g1 x209.852626 y193.857775
g1 x209.8466 y193.936392
g1 x209.852626 y194.014977
g1 x209.870197 y194.088105
g1 x209.901179 y194.162154
g1 x209.942246 y194.229714
g1 x209.991716 y194.287591
g1 x210.050905 y194.338116
g1 x210.118121 y194.379248
g1 x210.189891 y194.409048
g1 x210.2654 y194.42715
g1 x210.343655 y194.433307
g1 x210.421907 y194.42715
g1 x210.497417 y194.409048
g1 x210.569187 y194.379248
g1 x210.636403 y194.338116
g1 x210.695592 y194.287591
g1 x210.746249 y194.228326
g1 x210.786804 y194.162151
g1 x210.81665 y194.090022
g1 x210.834682 y194.014977
g1 x210.840708 y193.936392
g1 x210.834682 y193.857775
g1 x210.816669 y193.782838
g1 x210.786804 y193.710664
g1 x210.746251 y193.644494
g1 x210.695592 y193.585226
g1 x210.636399 y193.534697
g1 x210.569185 y193.493566
g1 x210.497417 y193.463767
g1 x210.421887 y193.44566
g1 x210.343655 y193.439501
g1 x210.265421 y193.44566
g1 z-2 f500
g1 x210.189891 y193.463767 f1200
g1 x210.118123 y193.493566
g1 x210.050909 y193.534697
g1 x209.991716 y193.585226
g1 x209.942244 y193.643105
g1 x209.901179 y193.710661
g1 x209.870178 y193.784755
g1 x209.852626 y193.857775
g1 x209.8466 y193.936392
g1 x209.852626 y194.014977
g1 x209.870197 y194.088105
g1 x209.901179 y194.162154
g1 x209.942246 y194.229714
g1 x209.991716 y194.287591
g1 x210.050905 y194.338116
g1 x210.118121 y194.379248
g1 x210.189891 y194.409048
g1 x210.2654 y194.42715
g1 x210.343655 y194.433307
g1 x210.421907 y194.42715
g1 x210.497417 y194.409048
g1 x210.569187 y194.379248
g1 x210.636403 y194.338116
g1 x210.695592 y194.287591
g1 x210.746249 y194.228326
g1 x210.786804 y194.162151
g1 x210.81665 y194.090022
g1 x210.834682 y194.014977
g1 x210.840708 y193.936392
g1 x210.834682 y193.857775
g1 x210.816669 y193.782838
g1 x210.786804 y193.710664
g1 x210.746251 y193.644494
g1 x210.695592 y193.585226
g1 x210.636399 y193.534697
g1 x210.569185 y193.493566
g1 x210.497417 y193.463767
g1 x210.421887 y193.44566
g1 x210.343655 y193.439501
g1 x210.265421 y193.44566
g0 z30
(Block-name: path4)
(Block-expand: 0)
(Block-enable: 0)

(End cutting path id: path4)


(Start cutting path id: path4)
(Change tool to Default tool)

G0 Z20
G0 X161.186954 Y183.861307

G1 Z-0.125 F100
G1 X160.958154 Y183.916207 Z-0.125 F400
G1 X160.740654 Y184.006307 Z-0.125
G1 X160.539954 Y184.129307 Z-0.125
G1 X160.360954 Y184.282109 Z-0.125
G1 X160.208154 Y184.461107 Z-0.125
G1 X160.085154 Y184.661807 Z-0.125
G1 X159.995054 Y184.879308 Z-0.125
G1 X159.940154 Y185.108109 Z-0.125
G1 X159.921654 Y185.342808 Z-0.125
G1 X159.940154 Y185.577408 Z-0.125
G1 X159.995054 Y185.806307 Z-0.125
G1 X160.085154 Y186.023808 Z-0.125
G1 X160.208154 Y186.224508 Z-0.125
G1 X160.360954 Y186.403509 Z-0.125
G1 X160.539954 Y186.556308 Z-0.125
G1 X160.740654 Y186.679308 Z-0.125
G1 X160.958154 Y186.769408 Z-0.125
G1 X161.186954 Y186.824308 Z-0.125
G1 X161.421654 Y186.842798 Z-0.125
G1 X161.656254 Y186.824308 Z-0.125
G1 X161.885154 Y186.769408 Z-0.125
G1 X162.102654 Y186.679308 Z-0.125
G1 X162.303354 Y186.556308 Z-0.125
G1 X162.482354 Y186.403509 Z-0.125
G1 X162.635154 Y186.224508 Z-0.125
G1 X162.758154 Y186.023808 Z-0.125
G1 X162.848254 Y185.806307 Z-0.125
G1 X162.903154 Y185.577408 Z-0.125
G1 X162.921654 Y185.342808 Z-0.125
G1 X162.903154 Y185.108109 Z-0.125
G1 X162.848254 Y184.879308 Z-0.125
G1 X162.758154 Y184.661807 Z-0.125
G1 X162.635154 Y184.461107 Z-0.125
G1 X162.482354 Y184.282109 Z-0.125
G1 X162.303354 Y184.129307 Z-0.125
G1 X162.102654 Y184.006307 Z-0.125
G1 X161.885154 Y183.916207 Z-0.125
G1 X161.656254 Y183.861307 Z-0.125
G1 X161.421654 Y183.842817 Z-0.125
G1 X161.186954 Y183.861307 Z-0.125
G0 Z20
(Block-name: path4 [in,cut])
(Block-expand: 0)
(Block-enable: 1)
g0 x161.343849 y184.852045
g1 z0 f500
g1 x161.268085 y184.870224 f1200
g1 x161.196081 y184.900052
g1 x161.129463 y184.940879
g1 x161.070262 y184.991416
g1 x161.019727 y185.050616
g1 x160.9789 y185.117233
g1 x160.949072 y185.189238
g1 x160.930887 y185.265024
g1 x160.924757 y185.342791
g1 x160.930887 y185.420525
g1 x160.94909 y185.496422
g1 x160.9789 y185.568382
g1 x161.019729 y185.635003
g1 x161.070262 y185.694201
g1 x161.129459 y185.744733
g1 x161.196081 y185.785563
g1 x161.268085 y185.815391
g1 x161.343849 y185.83357
g1 x161.421637 y185.839698
g1 x161.499393 y185.83357
g1 x161.575269 y185.815372
g1 x161.647227 y185.785563
g1 x161.713849 y185.744733
g1 x161.773046 y185.694201
g1 x161.823579 y185.635003
g1 x161.864408 y185.568382
g1 x161.894218 y185.496422
g1 x161.912421 y185.420525
g1 x161.918551 y185.342791
g1 x161.912421 y185.265024
g1 x161.894236 y185.189238
g1 x161.864408 y185.117233
g1 x161.823581 y185.050616
g1 x161.773046 y184.991416
g1 x161.713845 y184.940879
g1 x161.647227 y184.900052
g1 x161.575269 y184.870243
g1 x161.499393 y184.852045
g1 x161.421637 y184.845917
g1 x161.343849 y184.852045
g1 z-0.5 f500
g1 x161.268085 y184.870224 f1200
g1 x161.196081 y184.900052
g1 x161.129463 y184.940879
g1 x161.070262 y184.991416
g1 x161.019727 y185.050616
g1 x160.9789 y185.117233
g1 x160.949072 y185.189238
g1 x160.930887 y185.265024
g1 x160.924757 y185.342791
g1 x160.930887 y185.420525
g1 x160.94909 y185.496422
g1 x160.9789 y185.568382
g1 x161.019729 y185.635003
g1 x161.070262 y185.694201
g1 x161.129459 y185.744733
g1 x161.196081 y185.785563
g1 x161.268085 y185.815391
g1 x161.343849 y185.83357
g1 x161.421637 y185.839698
g1 x161.499393 y185.83357
g1 x161.575269 y185.815372
g1 x161.647227 y185.785563
g1 x161.713849 y185.744733
g1 x161.773046 y185.694201
g1 x161.823579 y185.635003
g1 x161.864408 y185.568382
g1 x161.894218 y185.496422
g1 x161.912421 y185.420525
g1 x161.918551 y185.342791
g1 x161.912421 y185.265024
g1 x161.894236 y185.189238
g1 x161.864408 y185.117233
g1 x161.823581 y185.050616
g1 x161.773046 y184.991416
g1 x161.713845 y184.940879
g1 x161.647227 y184.900052
g1 x161.575269 y184.870243
g1 x161.499393 y184.852045
g1 x161.421637 y184.845917
g1 x161.343849 y184.852045
g1 z-1 f500
g1 x161.268085 y184.870224 f1200
g1 x161.196081 y184.900052
g1 x161.129463 y184.940879
g1 x161.070262 y184.991416
g1 x161.019727 y185.050616
g1 x160.9789 y185.117233
g1 x160.949072 y185.189238
g1 x160.930887 y185.265024
g1 x160.924757 y185.342791
g1 x160.930887 y185.420525
g1 x160.94909 y185.496422
g1 x160.9789 y185.568382
g1 x161.019729 y185.635003
g1 x161.070262 y185.694201
g1 x161.129459 y185.744733
g1 x161.196081 y185.785563
g1 x161.268085 y185.815391
g1 x161.343849 y185.83357
g1 x161.421637 y185.839698
g1 x161.499393 y185.83357
g1 x161.575269 y185.815372
g1 x161.647227 y185.785563
g1 x161.713849 y185.744733
g1 x161.773046 y185.694201
g1 x161.823579 y185.635003
g1 x161.864408 y185.568382
g1 x161.894218 y185.496422
g1 x161.912421 y185.420525
g1 x161.918551 y185.342791
g1 x161.912421 y185.265024
g1 x161.894236 y185.189238
g1 x161.864408 y185.117233
g1 x161.823581 y185.050616
g1 x161.773046 y184.991416
g1 x161.713845 y184.940879
g1 x161.647227 y184.900052
g1 x161.575269 y184.870243
g1 x161.499393 y184.852045
g1 x161.421637 y184.845917
g1 x161.343849 y184.852045
g1 z-1.5 f500
g1 x161.268085 y184.870224 f1200
g1 x161.196081 y184.900052
g1 x161.129463 y184.940879
g1 x161.070262 y184.991416
g1 x161.019727 y185.050616
g1 x160.9789 y185.117233
g1 x160.949072 y185.189238
g1 x160.930887 y185.265024
g1 x160.924757 y185.342791
g1 x160.930887 y185.420525
g1 x160.94909 y185.496422
g1 x160.9789 y185.568382
g1 x161.019729 y185.635003
g1 x161.070262 y185.694201
g1 x161.129459 y185.744733
g1 x161.196081 y185.785563
g1 x161.268085 y185.815391
g1 x161.343849 y185.83357
g1 x161.421637 y185.839698
g1 x161.499393 y185.83357
g1 x161.575269 y185.815372
g1 x161.647227 y185.785563
g1 x161.713849 y185.744733
g1 x161.773046 y185.694201
g1 x161.823579 y185.635003
g1 x161.864408 y185.568382
g1 x161.894218 y185.496422
g1 x161.912421 y185.420525
g1 x161.918551 y185.342791
g1 x161.912421 y185.265024
g1 x161.894236 y185.189238
g1 x161.864408 y185.117233
g1 x161.823581 y185.050616
g1 x161.773046 y184.991416
g1 x161.713845 y184.940879
g1 x161.647227 y184.900052
g1 x161.575269 y184.870243
g1 x161.499393 y184.852045
g1 x161.421637 y184.845917
g1 x161.343849 y184.852045
g1 z-2 f500
g1 x161.268085 y184.870224 f1200
g1 x161.196081 y184.900052
g1 x161.129463 y184.940879
g1 x161.070262 y184.991416
g1 x161.019727 y185.050616
g1 x160.9789 y185.117233
g1 x160.949072 y185.189238
g1 x160.930887 y185.265024
g1 x160.924757 y185.342791
g1 x160.930887 y185.420525
g1 x160.94909 y185.496422
