(Block-name: Header)
(Block-expand: 0)
(Block-enable: 1)
%
(Header)
(Generated by gcodetools from Inkscape.)
(Using default header. To add your own header create file "header" in the output dir.)
M3
(Header end.)
G21 (All units in mm)

(Start cutting path id: path4)
(Change tool to Default tool)

G00 Z20.000000
(Block-name: path4)
(Block-expand: 0)
(Block-enable: 0)

(End cutting path id: path4)


(Start cutting path id: path4)
(Change tool to Default tool)

G0 Z20
G0 X215.867737 Y202.24339

G1 Z-0.125 F100
G1 X215.104837 Y202.42649 Z-0.125 F400
G1 X214.379937 Y202.72679 Z-0.125
G1 X213.711036 Y203.13669 Z-0.125
G1 X213.114438 Y203.64629 Z-0.125
G1 X212.604837 Y204.24289 Z-0.125
G1 X212.194936 Y204.91189 Z-0.125
G1 X211.894637 Y205.63669 Z-0.125
G1 X211.711537 Y206.39959 Z-0.125
G1 X211.649937 Y207.18179 Z-0.125
G1 X211.711537 Y207.96399 Z-0.125
G1 X211.894637 Y208.72689 Z-0.125
G1 X212.194936 Y209.45179 Z-0.125
G1 X212.604837 Y210.12069 Z-0.125
G1 X213.114438 Y210.71739 Z-0.125
G1 X213.711036 Y211.22689 Z-0.125
G1 X214.379937 Y211.63689 Z-0.125
G1 X215.104837 Y211.93709 Z-0.125
G1 X215.867737 Y212.12029 Z-0.125
G1 X216.649938 Y212.18179 Z-0.125
G1 X217.432136 Y212.12029 Z-0.125
G1 X218.195038 Y211.93709 Z-0.125
G1 X218.919838 Y211.63689 Z-0.125
G1 X219.588837 Y211.22689 Z-0.125
G1 X220.185438 Y210.71739 Z-0.125
G1 X220.695036 Y210.12069 Z-0.125
G1 X221.104936 Y209.45179 Z-0.125
G1 X221.405236 Y208.72689 Z-0.125
G1 X221.588338 Y207.96399 Z-0.125
G1 X221.649938 Y207.18179 Z-0.125
G1 X221.588338 Y206.39959 Z-0.125
G1 X221.405236 Y205.63669 Z-0.125
G1 X221.104936 Y204.91189 Z-0.125
G1 X220.695036 Y204.24289 Z-0.125
G1 X220.185438 Y203.64629 Z-0.125
G1 X219.588837 Y203.13669 Z-0.125
G1 X218.919838 Y202.72679 Z-0.125
G1 X218.195038 Y202.42649 Z-0.125
G1 X217.432136 Y202.24339 Z-0.125
G1 X216.649938 Y202.18179 Z-0.125
G1 X215.867737 Y202.24339 Z-0.125
G0 Z20
(Block-name: path4 [in,cut])
(Block-expand: 0)
(Block-enable: 1)
g0 x216.024645 y203.234129
g1 z0 f500
g1 x215.414798 y203.380496 f1200
g1 x214.835348 y203.620541
g1 x214.300661 y203.948195
g1 x213.823728 y204.35558
g1 x213.416364 y204.83249
g1 x213.088687 y205.367292
g1 x212.848637 y205.946675
g1 x212.702276 y206.556498
g1 x212.653033 y207.18179
g1 x212.702276 y207.807082
g1 x212.848643 y208.416929
g1 x213.088687 y208.996378
g1 x213.416364 y209.5311
g1 x213.823728 y210.00809
g1 x214.300661 y210.415395
g1 x214.835348 y210.743129
g1 x215.414798 y210.983094
g1 x216.024645 y211.129541
g1 x216.649938 y211.178704
g1 x217.275228 y211.129541
g1 x217.885053 y210.9831
g1 x218.464436 y210.743129
g1 x218.999238 y210.415373
g1 x219.476147 y210.00809
g1 x219.883508 y209.531101
g1 x220.211185 y208.996378
g1 x220.451231 y208.416928
g1 x220.597599 y207.807081
g1 x220.646842 y207.18179
g1 x220.597599 y206.556499
g1 x220.451237 y205.946676
g1 x220.211185 y205.367292
g1 x219.883508 y204.832489
g1 x219.476147 y204.35558
g1 x218.999238 y203.948217
g1 x218.464436 y203.620541
g1 x217.885053 y203.38049
g1 x217.275228 y203.234129
g1 x216.649938 y203.184886
g1 x216.024645 y203.234129
g1 z-0.5 f500
g1 x215.414798 y203.380496 f1200
g1 x214.835348 y203.620541
g1 x214.300661 y203.948195
g1 x213.823728 y204.35558
g1 x213.416364 y204.83249
g1 x213.088687 y205.367292
g1 x212.848637 y205.946675
g1 x212.702276 y206.556498
g1 x212.653033 y207.18179
g1 x212.702276 y207.807082
g1 x212.848643 y208.416929
g1 x213.088687 y208.996378
g1 x213.416364 y209.5311
g1 x213.823728 y210.00809
g1 x214.300661 y210.415395
g1 x214.835348 y210.743129
g1 x215.414798 y210.983094
g1 x216.024645 y211.129541
g1 x216.649938 y211.178704
g1 x217.275228 y211.129541
g1 x217.885053 y210.9831
g1 x218.464436 y210.743129
g1 x218.999238 y210.415373
g1 x219.476147 y210.00809
g1 x219.883508 y209.531101
g1 x220.211185 y208.996378
g1 x220.451231 y208.416928
g1 x220.597599 y207.807081
g1 x220.646842 y207.18179
g1 x220.597599 y206.556499
g1 x220.451237 y205.946676
g1 x220.211185 y205.367292
g1 x219.883508 y204.832489
g1 x219.476147 y204.35558
g1 x218.999238 y203.948217
g1 x218.464436 y203.620541
g1 x217.885053 y203.38049
g1 x217.275228 y203.234129
g1 x216.649938 y203.184886
g1 x216.024645 y203.234129
g1 z-1 f500
g1 x215.414798 y203.380496 f1200
g1 x214.835348 y203.620541
g1 x214.300661 y203.948195
g1 x213.823728 y204.35558
g1 x213.416364 y204.83249
g1 x213.088687 y205.367292
g1 x212.848637 y205.946675
g1 x212.702276 y206.556498
g1 x212.653033 y207.18179
g1 x212.702276 y207.807082
g1 x212.848643 y208.416929
g1 x213.088687 y208.996378
g1 x213.416364 y209.5311
g1 x213.823728 y210.00809
g1 x214.300661 y210.415395
g1 x214.835348 y210.743129
g1 x215.414798 y210.983094
g1 x216.024645 y211.129541
g1 x216.649938 y211.178704
g1 x217.275228 y211.129541
g1 x217.885053 y210.9831
g1 x218.464436 y210.743129
g1 x218.999238 y210.415373
g1 x219.476147 y210.00809
g1 x219.883508 y209.531101
g1 x220.211185 y208.996378
g1 x220.451231 y208.416928
g1 x220.597599 y207.807081
g1 x220.646842 y207.18179
g1 x220.597599 y206.556499
g1 x220.451237 y205.946676
g1 x220.211185 y205.367292
g1 x219.883508 y204.832489
g1 x219.476147 y204.35558
g1 x218.999238 y203.948217
g1 x218.464436 y203.620541
g1 x217.885053 y203.38049
g1 x217.275228 y203.234129
g1 x216.649938 y203.184886
g1 x216.024645 y203.234129
g1 z-1.5 f500
g1 x215.414798 y203.380496 f1200
g1 x214.835348 y203.620541
g1 x214.300661 y203.948195
g1 x213.823728 y204.35558
g1 x213.416364 y204.83249
g1 x213.088687 y205.367292
g1 x212.848637 y205.946675
g1 x212.702276 y206.556498
g1 x212.653033 y207.18179
g1 x212.702276 y207.807082
g1 x212.848643 y208.416929
g1 x213.088687 y208.996378
g1 x213.416364 y209.5311
g1 x213.823728 y210.00809
g1 x214.300661 y210.415395
g1 x214.835348 y210.743129
g1 x215.414798 y210.983094
g1 x216.024645 y211.129541
g1 x216.649938 y211.178704
g1 x217.275228 y211.129541
g1 x217.885053 y210.9831
g1 x218.464436 y210.743129
g1 x218.999238 y210.415373
g1 x219.476147 y210.00809
g1 x219.883508 y209.531101
g1 x220.211185 y208.996378
g1 x220.451231 y208.416928
g1 x220.597599 y207.807081
g1 x220.646842 y207.18179
g1 x220.597599 y206.556499
g1 x220.451237 y205.946676
g1 x220.211185 y205.367292
g1 x219.883508 y204.832489
g1 x219.476147 y204.35558
g1 x218.999238 y203.948217
g1 x218.464436 y203.620541
g1 x217.885053 y203.38049
g1 x217.275228 y203.234129
g1 x216.649938 y203.184886
g1 x216.024645 y203.234129
g1 z-2 f500
g1 x215.414798 y203.380496 f1200
g1 x214.835348 y203.620541
g1 x214.300661 y203.948195
g1 x213.823728 y204.35558
g1 x213.416364 y204.83249
g1 x213.088687 y205.367292
g1 x212.848637 y205.946675
g1 x212.702276 y206.556498
g1 x212.653033 y207.18179
g1 x212.702276 y207.807082
g1 x212.848643 y208.416929
g1 x213.088687 y208.996378
g1 x213.416364 y209.5311
g1 x213.823728 y210.00809
g1 x214.300661 y210.415395
g1 x214.835348 y210.743129
g1 x215.414798 y210.983094
g1 x216.024645 y211.129541
g1 x216.649938 y211.178704
g1 x217.275228 y211.129541
g1 x217.885053 y210.9831
g1 x218.464436 y210.743129
g1 x218.999238 y210.415373
g1 x219.476147 y210.00809
g1 x219.883508 y209.531101
g1 x220.211185 y208.996378
g1 x220.451231 y208.416928
g1 x220.597599 y207.807081
g1 x220.646842 y207.18179
g1 x220.597599 y206.556499
g1 x220.451237 y205.946676
g1 x220.211185 y205.367292
g1 x219.883508 y204.832489
g1 x219.476147 y204.35558
g1 x218.999238 y203.948217
g1 x218.464436 y203.620541
g1 x217.885053 y203.38049
g1 x217.275228 y203.234129
g1 x216.649938 y203.184886
g1 x216.024645 y203.234129
g0 z30
(Block-name: path4)
(Block-expand: 0)
(Block-enable: 0)

(End cutting path id: path4)


(Start cutting path id: path4)
(Change tool to Default tool)

G0 Z20
G0 X183.367737 Y202.24339

G1 Z-0.125 F100
G1 X182.604837 Y202.42649 Z-0.125 F400
G1 X181.879937 Y202.72679 Z-0.125
G1 X181.211037 Y203.13669 Z-0.125
G1 X180.614437 Y203.64629 Z-0.125
G1 X180.104837 Y204.24289 Z-0.125
G1 X179.694937 Y204.91189 Z-0.125
G1 X179.394637 Y205.63669 Z-0.125
G1 X179.211537 Y206.39959 Z-0.125
G1 X179.149937 Y207.18179 Z-0.125
G1 X179.211537 Y207.96399 Z-0.125
G1 X179.394637 Y208.72689 Z-0.125
G1 X179.694937 Y209.45179 Z-0.125
G1 X180.104837 Y210.12069 Z-0.125
G1 X180.614437 Y210.71739 Z-0.125
G1 X181.211037 Y211.22689 Z-0.125
G1 X181.879937 Y211.63689 Z-0.125
G1 X182.604837 Y211.93709 Z-0.125
G1 X183.367737 Y212.12029 Z-0.125
G1 X184.149937 Y212.18179 Z-0.125
G1 X184.932137 Y212.12029 Z-0.125
G1 X185.695037 Y211.93709 Z-0.125
G1 X186.419837 Y211.63689 Z-0.125
G1 X187.088837 Y211.22689 Z-0.125
G1 X187.685437 Y210.71739 Z-0.125
G1 X188.195037 Y210.12069 Z-0.125
G1 X188.604937 Y209.45179 Z-0.125
G1 X188.905237 Y208.72689 Z-0.125
G1 X189.088337 Y207.96399 Z-0.125
G1 X189.149937 Y207.18179 Z-0.125
G1 X189.088337 Y206.39959 Z-0.125
G1 X188.905237 Y205.63669 Z-0.125
G1 X188.604937 Y204.91189 Z-0.125
G1 X188.195037 Y204.24289 Z-0.125
G1 X187.685437 Y203.64629 Z-0.125
G1 X187.088837 Y203.13669 Z-0.125
G1 X186.419837 Y202.72679 Z-0.125
G1 X185.695037 Y202.42649 Z-0.125
G1 X184.932137 Y202.24339 Z-0.125
G1 X184.149937 Y202.18179 Z-0.125
G1 X183.367737 Y202.24339 Z-0.125
G0 Z20
(Block-name: path4 [in,cut])
(Block-expand: 0)
(Block-enable: 1)
g0 x183.524645 y203.234129
g1 z0 f500
g1 x182.914798 y203.380496 f1200
g1 x182.335349 y203.620541
g1 x181.800662 y203.948195
g1 x181.323727 y204.35558
g1 x180.916364 y204.832489
g1 x180.588688 y205.367292
g1 x180.348637 y205.946675
g1 x180.202276 y206.556498
g1 x180.153033 y207.18179
g1 x180.202276 y207.807082
g1 x180.348643 y208.416929
g1 x180.588688 y208.996378
g1 x180.916364 y209.531101
g1 x181.323727 y210.00809
g1 x181.800662 y210.415395
g1 x182.335349 y210.743129
g1 x182.914798 y210.983094
g1 x183.524645 y211.129541
g1 x184.149937 y211.178704
g1 x184.775229 y211.129541
g1 x185.385052 y210.9831
g1 x185.964435 y210.743129
g1 x186.499238 y210.415373
g1 x186.976147 y210.00809
g1 x187.38351 y209.531101
g1 x187.711186 y208.996378
g1 x187.951231 y208.416929
g1 x188.097598 y207.807082
g1 x188.146841 y207.18179
g1 x188.097598 y206.556498
g1 x187.951237 y205.946675
g1 x187.711186 y205.367292
g1 x187.38351 y204.832489
g1 x186.976147 y204.35558
g1 x186.499238 y203.948217
g1 x185.964435 y203.620541
g1 x185.385052 y203.38049
g1 x184.775229 y203.234129
g1 x184.149937 y203.184886
g1 x183.524645 y203.234129
g1 z-0.5 f500
g1 x182.914798 y203.380496 f1200
g1 x182.335349 y203.620541
g1 x181.800662 y203.948195
g1 x181.323727 y204.35558
g1 x180.916364 y204.832489
g1 x180.588688 y205.367292
g1 x180.348637 y205.946675
g1 x180.202276 y206.556498
g1 x180.153033 y207.18179
g1 x180.202276 y207.807082
g1 x180.348643 y208.416929
g1 x180.588688 y208.996378
g1 x180.916364 y209.531101
g1 x181.323727 y210.00809
g1 x181.800662 y210.415395
g1 x182.335349 y210.743129
g1 x182.914798 y210.983094
g1 x183.524645 y211.129541
g1 x184.149937 y211.178704
g1 x184.775229 y211.129541
g1 x185.385052 y210.9831
g1 x185.964435 y210.743129
g1 x186.499238 y210.415373
g1 x186.976147 y210.00809
g1 x187.38351 y209.531101
g1 x187.711186 y208.996378
g1 x187.951231 y208.416929
g1 x188.097598 y207.807082
g1 x188.146841 y207.18179
g1 x188.097598 y206.556498
g1 x187.951237 y205.946675
g1 x187.711186 y205.367292
g1 x187.38351 y204.832489
g1 x186.976147 y204.35558
g1 x186.499238 y203.948217
g1 x185.964435 y203.620541
g1 x185.385052 y203.38049
g1 x184.775229 y203.234129
g1 x184.149937 y203.184886
g1 x183.524645 y203.234129
g1 z-1 f500
g1 x182.914798 y203.380496 f1200
g1 x182.335349 y203.620541
g1 x181.800662 y203.948195
g1 x181.323727 y204.35558
g1 x180.916364 y204.832489
g1 x180.588688 y205.367292
g1 x180.348637 y205.946675
g1 x180.202276 y206.556498
g1 x180.153033 y207.18179
g1 x180.202276 y207.807082
g1 x180.348643 y208.416929
g1 x180.588688 y208.996378
g1 x180.916364 y209.531101
g1 x181.323727 y210.00809
g1 x181.800662 y210.415395
g1 x182.335349 y210.743129
g1 x182.914798 y210.983094
g1 x183.524645 y211.129541
g1 x184.149937 y211.178704
g1 x184.775229 y211.129541
g1 x185.385052 y210.9831
g1 x185.964435 y210.743129
g1 x186.499238 y210.415373
g1 x186.976147 y210.00809
g1 x187.38351 y209.531101
g1 x187.711186 y208.996378
g1 x187.951231 y208.416929
g1 x188.097598 y207.807082
g1 x188.146841 y207.18179
g1 x188.097598 y206.556498
g1 x187.951237 y205.946675
g1 x187.711186 y205.367292
g1 x187.38351 y204.832489
g1 x186.976147 y204.35558
g1 x186.499238 y203.948217
g1 x185.964435 y203.620541
g1 x185.385052 y203.38049
g1 x184.775229 y203.234129
g1 x184.149937 y203.184886
g1 x183.524645 y203.234129
g1 z-1.5 f500
g1 x182.914798 y203.380496 f1200
g1 x182.335349 y203.620541
g1 x181.800662 y203.948195
g1 x181.323727 y204.35558
g1 x180.916364 y204.832489
g1 x180.588688 y205.367292
g1 x180.348637 y205.946675
g1 x180.202276 y206.556498
g1 x180.153033 y207.18179
g1 x180.202276 y207.807082
g1 x180.348643 y208.416929
g1 x180.588688 y208.996378
g1 x180.916364 y209.531101
g1 x181.323727 y210.00809
g1 x181.800662 y210.415395
g1 x182.335349 y210.743129
g1 x182.914798 y210.983094
g1 x183.524645 y211.129541
g1 x184.149937 y211.178704
g1 x184.775229 y211.129541
g1 x185.385052 y210.9831
g1 x185.964435 y210.743129
g1 x186.499238 y210.415373
g1 x186.976147 y210.00809
g1 x187.38351 y209.531101
g1 x187.711186 y208.996378
g1 x187.951231 y208.416929
g1 x188.097598 y207.807082
g1 x188.146841 y207.18179
g1 x188.097598 y206.556498
g1 x187.951237 y205.946675
g1 x187.711186 y205.367292
g1 x187.38351 y204.832489
g1 x186.976147 y204.35558
g1 x186.499238 y203.948217
g1 x185.964435 y203.620541
g1 x185.385052 y203.38049
g1 x184.775229 y203.234129
g1 x184.149937 y203.184886
g1 x183.524645 y203.234129
g1 z-2 f500
g1 x182.914798 y203.380496 f1200
g1 x182.335349 y203.620541
g1 x181.800662 y203.948195
g1 x181.323727 y204.35558
g1 x180.916364 y204.832489
g1 x180.588688 y205.367292
g1 x180.348637 y205.946675
g1 x180.202276 y206.556498
g1 x180.153033 y207.18179
g1 x180.202276 y207.807082
g1 x180.348643 y208.416929
g1 x180.588688 y208.996378
g1 x180.916364 y209.531101
g1 x181.323727 y210.00809
g1 x181.800662 y210.415395
g1 x182.335349 y210.743129
g1 x182.914798 y210.983094
g1 x183.524645 y211.129541
g1 x184.149937 y211.178704
g1 x184.775229 y211.129541
g1 x185.385052 y210.9831
g1 x185.964435 y210.743129
g1 x186.499238 y210.415373
g1 x186.976147 y210.00809
g1 x187.38351 y209.531101
g1 x187.711186 y208.996378
g1 x187.951231 y208.416929
g1 x188.097598 y207.807082
g1 x188.146841 y207.18179
g1 x188.097598 y206.556498
g1 x187.951237 y205.946675
g1 x187.711186 y205.367292
g1 x187.38351 y204.832489
g1 x186.976147 y204.35558
g1 x186.499238 y203.948217
g1 x185.964435 y203.620541
g1 x185.385052 y203.38049
g1 x184.775229 y203.234129
g1 x184.149937 y203.184886
g1 x183.524645 y203.234129
g0 z30
(Block-name: path4)
(Block-expand: 0)
(Block-enable: 0)

(End cutting path id: path4)


(Start cutting path id: path4)
(Change tool to Default tool)

G0 Z20
G0 X199.617737 Y201.59759

G1 Z-0.125 F100
G1 X198.854838 Y201.78069 Z-0.125 F400
G1 X198.129938 Y202.08099 Z-0.125
G1 X197.461036 Y202.49089 Z-0.125
G1 X196.864438 Y203.00049 Z-0.125
G1 X196.354837 Y203.59709 Z-0.125
G1 X195.944937 Y204.26599 Z-0.125
G1 X195.644637 Y204.99089 Z-0.125
G1 X195.461538 Y205.75379 Z-0.125
G1 X195.399938 Y206.53599 Z-0.125
G1 X195.461538 Y207.31819 Z-0.125
G1 X195.644637 Y208.08109 Z-0.125
G1 X195.944937 Y208.80589 Z-0.125
G1 X196.354837 Y209.47489 Z-0.125
G1 X196.864438 Y210.07149 Z-0.125
G1 X197.461036 Y210.58109 Z-0.125
G1 X198.129938 Y210.99099 Z-0.125
G1 X198.854838 Y211.29129 Z-0.125
G1 X199.617737 Y211.47439 Z-0.125
G1 X200.399938 Y211.53599 Z-0.125
G1 X201.182137 Y211.47439 Z-0.125
G1 X201.945036 Y211.29129 Z-0.125
G1 X202.669836 Y210.99099 Z-0.125
G1 X203.338837 Y210.58109 Z-0.125
G1 X203.935436 Y210.07149 Z-0.125
G1 X204.445036 Y209.47489 Z-0.125
G1 X204.854937 Y208.80589 Z-0.125
G1 X205.155236 Y208.08109 Z-0.125
G1 X205.338336 Y207.31819 Z-0.125
G1 X205.399936 Y206.53599 Z-0.125
G1 X205.338336 Y205.75379 Z-0.125
G1 X205.155236 Y204.99089 Z-0.125
G1 X204.854937 Y204.26599 Z-0.125
G1 X204.445036 Y203.59709 Z-0.125
G1 X203.935436 Y203.00049 Z-0.125
G1 X203.338837 Y202.49089 Z-0.125
G1 X202.669836 Y202.08099 Z-0.125
G1 X201.945036 Y201.78069 Z-0.125
G1 X201.182137 Y201.59759 Z-0.125
G1 X200.399938 Y201.53599 Z-0.125
G1 X199.617737 Y201.59759 Z-0.125
G0 Z20
(Block-name: path4 [in,cut])
(Block-expand: 0)
(Block-enable: 1)
g0 x199.774645 y202.588329
g1 z0 f500
g1 x199.164799 y202.734696 f1200
g1 x198.585349 y202.974741
g1 x198.050661 y203.302395
g1 x197.573728 y203.70978
g1 x197.166342 y204.186715
g1 x196.838688 y204.721402
g1 x196.598643 y205.300851
g1 x196.452277 y205.910697
g1 x196.403034 y206.53599
g1 x196.452277 y207.161283
g1 x196.598637 y207.771105
g1 x196.838688 y208.350488
g1 x197.166364 y208.88529
g1 x197.573728 y209.3622
g1 x198.050661 y209.769585
g1 x198.585349 y210.097239
g1 x199.164799 y210.337284
g1 x199.774645 y210.483651
g1 x200.399938 y210.532894
g1 x201.025229 y210.483651
g1 x201.635051 y210.33729
g1 x202.214435 y210.097239
g1 x202.749238 y209.769563
g1 x203.226145 y209.3622
g1 x203.633509 y208.88529
g1 x203.961186 y208.350488
g1 x204.201236 y207.771105
g1 x204.347597 y207.161282
g1 x204.39684 y206.53599
g1 x204.347597 y205.910698
g1 x204.20123 y205.300851
g1 x203.961186 y204.721402
g1 x203.633531 y204.186715
g1 x203.226145 y203.70978
g1 x202.749238 y203.302417
g1 x202.214435 y202.974741
g1 x201.635051 y202.73469
g1 x201.025229 y202.588329
g1 x200.399938 y202.539086
g1 x199.774645 y202.588329
g1 z-0.5 f500
g1 x199.164799 y202.734696 f1200
g1 x198.585349 y202.974741
g1 x198.050661 y203.302395
g1 x197.573728 y203.70978
g1 x197.166342 y204.186715
g1 x196.838688 y204.721402
g1 x196.598643 y205.300851
g1 x196.452277 y205.910697
g1 x196.403034 y206.53599
g1 x196.452277 y207.161283
g1 x196.598637 y207.771105
g1 x196.838688 y208.350488
g1 x197.166364 y208.88529
g1 x197.573728 y209.3622
g1 x198.050661 y209.769585
g1 x198.585349 y210.097239
g1 x199.164799 y210.337284
g1 x199.774645 y210.483651
g1 x200.399938 y210.532894
g1 x201.025229 y210.483651
g1 x201.635051 y210.33729
g1 x202.214435 y210.097239
g1 x202.749238 y209.769563
g1 x203.226145 y209.3622
g1 x203.633509 y208.88529
g1 x203.961186 y208.350488
g1 x204.201236 y207.771105
g1 x204.347597 y207.161282
g1 x204.39684 y206.53599
g1 x204.347597 y205.910698
g1 x204.20123 y205.300851
g1 x203.961186 y204.721402
g1 x203.633531 y204.186715
g1 x203.226145 y203.70978
g1 x202.749238 y203.302417
g1 x202.214435 y202.974741
g1 x201.635051 y202.73469
g1 x201.025229 y202.588329
g1 x200.399938 y202.539086
g1 x199.774645 y202.588329
g1 z-1 f500
g1 x199.164799 y202.734696 f1200
g1 x198.585349 y202.974741
g1 x198.050661 y203.302395
g1 x197.573728 y203.70978
g1 x197.166342 y204.186715
g1 x196.838688 y204.721402
g1 x196.598643 y205.300851
g1 x196.452277 y205.910697
g1 x196.403034 y206.53599
g1 x196.452277 y207.161283
g1 x196.598637 y207.771105
g1 x196.838688 y208.350488
g1 x197.166364 y208.88529
g1 x197.573728 y209.3622
g1 x198.050661 y209.769585
g1 x198.585349 y210.097239
g1 x199.164799 y210.337284
g1 x199.774645 y210.483651
g1 x200.399938 y210.532894
g1 x201.025229 y210.483651
g1 x201.635051 y210.33729
g1 x202.214435 y210.097239
g1 x202.749238 y209.769563
g1 x203.226145 y209.3622
g1 x203.633509 y208.88529
g1 x203.961186 y208.350488
g1 x204.201236 y207.771105
g1 x204.347597 y207.161282
g1 x204.39684 y206.53599
g1 x204.347597 y205.910698
g1 x204.20123 y205.300851
g1 x203.961186 y204.721402
g1 x203.633531 y204.186715
g1 x203.226145 y203.70978
g1 x202.749238 y203.302417
g1 x202.214435 y202.974741
g1 x201.635051 y202.73469
g1 x201.025229 y202.588329
g1 x200.399938 y202.539086
g1 x199.774645 y202.588329
g1 z-1.5 f500
g1 x199.164799 y202.734696 f1200
g1 x198.585349 y202.974741
g1 x198.050661 y203.302395
g1 x197.573728 y203.70978
g1 x197.166342 y204.186715
g1 x196.838688 y204.721402
g1 x196.598643 y205.300851
g1 x196.452277 y205.910697
g1 x196.403034 y206.53599
g1 x196.452277 y207.161283
g1 x196.598637 y207.771105
g1 x196.838688 y208.350488
g1 x197.166364 y208.88529
g1 x197.573728 y209.3622
g1 x198.050661 y209.769585
g1 x198.585349 y210.097239
g1 x199.164799 y210.337284
g1 x199.774645 y210.483651
g1 x200.399938 y210.532894
g1 x201.025229 y210.483651
g1 x201.635051 y210.33729
g1 x202.214435 y210.097239
g1 x202.749238 y209.769563
g1 x203.226145 y209.3622
g1 x203.633509 y208.88529
g1 x203.961186 y208.350488
g1 x204.201236 y207.771105
g1 x204.347597 y207.161282
g1 x204.39684 y206.53599
g1 x204.347597 y205.910698
g1 x204.20123 y205.300851
g1 x203.961186 y204.721402
g1 x203.633531 y204.186715
g1 x203.226145 y203.70978
g1 x202.749238 y203.302417
g1 x202.214435 y202.974741
g1 x201.635051 y202.73469
g1 x201.025229 y202.588329
g1 x200.399938 y202.539086
g1 x199.774645 y202.588329
g1 z-2 f500
g1 x199.164799 y202.734696 f1200
g1 x198.585349 y202.974741
g1 x198.050661 y203.302395
g1 x197.573728 y203.70978
g1 x197.166342 y204.186715
g1 x196.838688 y204.721402
g1 x196.598643 y205.300851
g1 x196.452277 y205.910697
g1 x196.403034 y206.53599
g1 x196.452277 y207.161283
g1 x196.598637 y207.771105
g1 x196.838688 y208.350488
g1 x197.166364 y208.88529
g1 x197.573728 y209.3622
g1 x198.050661 y209.769585
g1 x198.585349 y210.097239
g1 x199.164799 y210.337284
g1 x199.774645 y210.483651
g1 x200.399938 y210.532894
g1 x201.025229 y210.483651
g1 x201.635051 y210.33729
g1 x202.214435 y210.097239
g1 x202.749238 y209.769563
g1 x203.226145 y209.3622
g1 x203.633509 y208.88529
g1 x203.961186 y208.350488
g1 x204.201236 y207.771105
g1 x204.347597 y207.161282
g1 x204.39684 y206.53599
g1 x204.347597 y205.910698
g1 x204.20123 y205.300851
g1 x203.961186 y204.721402
g1 x203.633531 y204.186715
g1 x203.226145 y203.70978
g1 x202.749238 y203.302417
g1 x202.214435 y202.974741
g1 x201.635051 y202.73469
g1 x201.025229 y202.588329
g1 x200.399938 y202.539086
g1 x199.774645 y202.588329
g0 z30
(Block-name: path4)
(Block-expand: 0)
(Block-enable: 0)

(End cutting path id: path4)


(Start cutting path id: path4)
(Change tool to Default tool)

G0 Z20
G0 X227.665238 Y205.05449

G1 Z-0.125 F100
G1 X227.436437 Y205.10939 Z-0.125 F400
G1 X227.218936 Y205.19949 Z-0.125
G1 X227.018236 Y205.32249 Z-0.125
G1 X226.839238 Y205.47529 Z-0.125
G1 X226.686436 Y205.65429 Z-0.125
G1 X226.563436 Y205.85499 Z-0.125
G1 X226.473336 Y206.07249 Z-0.125
G1 X226.418436 Y206.30129 Z-0.125
G1 X226.399946 Y206.53599 Z-0.125
G1 X226.418436 Y206.77059 Z-0.125
G1 X226.473336 Y206.99949 Z-0.125
G1 X226.563436 Y207.21699 Z-0.125
G1 X226.686436 Y207.41769 Z-0.125
G1 X226.839238 Y207.59669 Z-0.125
G1 X227.018236 Y207.74949 Z-0.125
G1 X227.218936 Y207.87249 Z-0.125
G1 X227.436437 Y207.96259 Z-0.125
G1 X227.665238 Y208.01749 Z-0.125
G1 X227.899937 Y208.03599 Z-0.125
G1 X228.134537 Y208.01749 Z-0.125
G1 X228.363436 Y207.96259 Z-0.125
G1 X228.580937 Y207.87249 Z-0.125
G1 X228.781637 Y207.74949 Z-0.125
G1 X228.960638 Y207.59669 Z-0.125
G1 X229.113437 Y207.41769 Z-0.125
G1 X229.236437 Y207.21699 Z-0.125
G1 X229.326537 Y206.99949 Z-0.125
G1 X229.381437 Y206.77059 Z-0.125
G1 X229.399927 Y206.53599 Z-0.125
G1 X229.381437 Y206.30129 Z-0.125
G1 X229.326537 Y206.07249 Z-0.125
G1 X229.236437 Y205.85499 Z-0.125
G1 X229.113437 Y205.65429 Z-0.125
G1 X228.960638 Y205.47529 Z-0.125
G1 X228.781637 Y205.32249 Z-0.125
G1 X228.580937 Y205.19949 Z-0.125
G1 X228.363436 Y205.10939 Z-0.125
G1 X228.134537 Y205.05449 Z-0.125
G1 X227.899937 Y205.03599 Z-0.125
G1 X227.665238 Y205.05449 Z-0.125
G0 Z20
(Block-name: path4 [in,cut])
(Block-expand: 0)
(Block-enable: 1)
g0 x227.822153 y206.045223
g1 z0 f500
g1 x227.746367 y206.063408 f1200
g1 x227.674362 y206.093236
g1 x227.607745 y206.134063
g1 x227.548545 y206.184598
g1 x227.498008 y206.243799
g1 x227.457181 y206.310417
g1 x227.427353 y206.382421
g1 x227.409174 y206.458185
g1 x227.403046 y206.535973
g1 x227.409174 y206.613729
g1 x227.427372 y206.689605
g1 x227.457181 y206.761563
g1 x227.498008 y206.828181
g1 x227.548545 y206.887382
g1 x227.607745 y206.937917
g1 x227.674362 y206.978744
g1 x227.746367 y207.008572
g1 x227.822153 y207.026757
g1 x227.89992 y207.032887
g1 x227.977654 y207.026757
g1 x228.053551 y207.008554
g1 x228.125511 y206.978744
g1 x228.192132 y206.937915
g1 x228.25133 y206.887382
g1 x228.301862 y206.828185
g1 x228.342692 y206.761563
g1 x228.372501 y206.689605
g1 x228.390699 y206.613729
g1 x228.396827 y206.535973
g1 x228.390699 y206.458185
g1 x228.37252 y206.382421
g1 x228.342692 y206.310417
g1 x228.301862 y206.243795
g1 x228.25133 y206.184598
g1 x228.192132 y206.134065
g1 x228.125511 y206.093236
g1 x228.053551 y206.063426
g1 x227.977654 y206.045223
g1 x227.89992 y206.039093
g1 x227.822153 y206.045223
g1 z-0.5 f500
g1 x227.746367 y206.063408 f1200
g1 x227.674362 y206.093236
g1 x227.607745 y206.134063
g1 x227.548545 y206.184598
g1 x227.498008 y206.243799
g1 x227.457181 y206.310417
g1 x227.427353 y206.382421
g1 x227.409174 y206.458185
g1 x227.403046 y206.535973
g1 x227.409174 y206.613729
g1 x227.427372 y206.689605
g1 x227.457181 y206.761563
g1 x227.498008 y206.828181
g1 x227.548545 y206.887382
g1 x227.607745 y206.937917
g1 x227.674362 y206.978744
g1 x227.746367 y207.008572
g1 x227.822153 y207.026757
g1 x227.89992 y207.032887
g1 x227.977654 y207.026757
g1 x228.053551 y207.008554
g1 x228.125511 y206.978744
g1 x228.192132 y206.937915
g1 x228.25133 y206.887382
g1 x228.301862 y206.828185
g1 x228.342692 y206.761563
g1 x228.372501 y206.689605
g1 x228.390699 y206.613729
g1 x228.396827 y206.535973
g1 x228.390699 y206.458185
g1 x228.37252 y206.382421
g1 x228.342692 y206.310417
g1 x228.301862 y206.243795
g1 x228.25133 y206.184598
g1 x228.192132 y206.134065
g1 x228.125511 y206.093236
g1 x228.053551 y206.063426
g1 x227.977654 y206.045223
g1 x227.89992 y206.039093
g1 x227.822153 y206.045223
g1 z-1 f500
g1 x227.746367 y206.063408 f1200
g1 x227.674362 y206.093236
g1 x227.607745 y206.134063
g1 x227.548545 y206.184598
g1 x227.498008 y206.243799
g1 x227.457181 y206.310417
g1 x227.427353 y206.382421
g1 x227.409174 y206.458185
g1 x227.403046 y206.535973
g1 x227.409174 y206.613729
g1 x227.427372 y206.689605
g1 x227.457181 y206.761563
g1 x227.498008 y206.828181
g1 x227.548545 y206.887382
g1 x227.607745 y206.937917
g1 x227.674362 y206.978744
g1 x227.746367 y207.008572
g1 x227.822153 y207.026757
g1 x227.89992 y207.032887
g1 x227.977654 y207.026757
g1 x228.053551 y207.008554
g1 x228.125511 y206.978744
g1 x228.192132 y206.937915
g1 x228.25133 y206.887382
g1 x228.301862 y206.828185
g1 x228.342692 y206.761563
g1 x228.372501 y206.689605
g1 x228.390699 y206.613729
g1 x228.396827 y206.535973
g1 x228.390699 y206.458185
g1 x228.37252 y206.382421
g1 x228.342692 y206.310417
g1 x228.301862 y206.243795
g1 x228.25133 y206.184598
g1 x228.192132 y206.134065
g1 x228.125511 y206.093236
g1 x228.053551 y206.063426
g1 x227.977654 y206.045223
g1 x227.89992 y206.039093
g1 x227.822153 y206.045223
g1 z-1.5 f500
g1 x227.746367 y206.063408 f1200
g1 x227.674362 y206.093236
g1 x227.607745 y206.134063
g1 x227.548545 y206.184598
g1 x227.498008 y206.243799
g1 x227.457181 y206.310417
g1 x227.427353 y206.382421
g1 x227.409174 y206.458185
g1 x227.403046 y206.535973
g1 x227.409174 y206.613729
g1 x227.427372 y206.689605
g1 x227.457181 y206.761563
g1 x227.498008 y206.828181
g1 x227.548545 y206.887382
g1 x227.607745 y206.937917
g1 x227.674362 y206.978744
g1 x227.746367 y207.008572
g1 x227.822153 y207.026757
g1 x227.89992 y207.032887
g1 x227.977654 y207.026757
g1 x228.053551 y207.008554
g1 x228.125511 y206.978744
g1 x228.192132 y206.937915
g1 x228.25133 y206.887382
g1 x228.301862 y206.828185
g1 x228.342692 y206.761563
g1 x228.372501 y206.689605
g1 x228.390699 y206.613729
g1 x228.396827 y206.535973
g1 x228.390699 y206.458185
g1 x228.37252 y206.382421
g1 x228.342692 y206.310417
g1 x228.301862 y206.243795
g1 x228.25133 y206.184598
g1 x228.192132 y206.134065
g1 x228.125511 y206.093236
g1 x228.053551 y206.063426
g1 x227.977654 y206.045223
g1 x227.89992 y206.039093
g1 x227.822153 y206.045223
g1 z-2 f500
g1 x227.746367 y206.063408 f1200
g1 x227.674362 y206.093236
g1 x227.607745 y206.134063
g1 x227.548545 y206.184598
g1 x227.498008 y206.243799
g1 x227.457181 y206.310417
g1 x227.427353 y206.382421
g1 x227.409174 y206.458185
g1 x227.403046 y206.535973
g1 x227.409174 y206.613729
g1 x227.427372 y206.689605
g1 x227.457181 y206.761563
g1 x227.498008 y206.828181
g1 x227.548545 y206.887382
g1 x227.607745 y206.937917
g1 x227.674362 y206.978744
g1 x227.746367 y207.008572
g1 x227.822153 y207.026757
g1 x227.89992 y207.032887
g1 x227.977654 y207.026757
g1 x228.053551 y207.008554
g1 x228.125511 y206.978744
g1 x228.192132 y206.937915
g1 x228.25133 y206.887382
g1 x228.301862 y206.828185
g1 x228.342692 y206.761563
g1 x228.372501 y206.689605
g1 x228.390699 y206.613729
g1 x228.396827 y206.535973
g1 x228.390699 y206.458185
g1 x228.37252 y206.382421
g1 x228.342692 y206.310417
g1 x228.301862 y206.243795
g1 x228.25133 y206.184598
g1 x228.192132 y206.134065
g1 x228.125511 y206.093236
g1 x228.053551 y206.063426
g1 x227.977654 y206.045223
g1 x227.89992 y206.039093
g1 x227.822153 y206.045223
g0 z30
(Block-name: path4)
(Block-expand: 0)
(Block-enable: 0)

(End cutting path id: path4)


(Start cutting path id: path4)
(Change tool to Default tool)

G0 Z20
G0 X172.665277 Y205.05449

G1 Z-0.125 F100
G1 X172.436407 Y205.10939 Z-0.125 F400
G1 X172.218937 Y205.19949 Z-0.125
G1 X172.018257 Y205.32249 Z-0.125
G1 X171.839267 Y205.47529 Z-0.125
G1 X171.686407 Y205.65429 Z-0.125
G1 X171.563417 Y205.85499 Z-0.125
G1 X171.473347 Y206.07249 Z-0.125
G1 X171.418397 Y206.30129 Z-0.125
G1 X171.399937 Y206.53599 Z-0.125
G1 X171.418397 Y206.77059 Z-0.125
G1 X171.473347 Y206.99949 Z-0.125
G1 X171.563417 Y207.21699 Z-0.125
G1 X171.686407 Y207.41769 Z-0.125
G1 X171.839267 Y207.59669 Z-0.125
G1 X172.018257 Y207.74949 Z-0.125
G1 X172.218937 Y207.87249 Z-0.125
G1 X172.436407 Y207.96259 Z-0.125
G1 X172.665277 Y208.01749 Z-0.125
G1 X172.899937 Y208.03599 Z-0.125
G1 X173.134587 Y208.01749 Z-0.125
G1 X173.363457 Y207.96259 Z-0.125
G1 X173.580917 Y207.87249 Z-0.125
G1 X173.781607 Y207.74949 Z-0.125
G1 X173.960587 Y207.59669 Z-0.125
G1 X174.113457 Y207.41769 Z-0.125
G1 X174.236437 Y207.21699 Z-0.125
G1 X174.326507 Y206.99949 Z-0.125
G1 X174.381457 Y206.77059 Z-0.125
G1 X174.399937 Y206.53599 Z-0.125
G1 X174.381457 Y206.30129 Z-0.125
G1 X174.326507 Y206.07249 Z-0.125
G1 X174.236437 Y205.85499 Z-0.125
G1 X174.113457 Y205.65429 Z-0.125
G1 X173.960587 Y205.47529 Z-0.125
G1 X173.781607 Y205.32249 Z-0.125
G1 X173.580917 Y205.19949 Z-0.125
G1 X173.363457 Y205.10939 Z-0.125
G1 X173.134587 Y205.05449 Z-0.125
G1 X172.899937 Y205.03599 Z-0.125
G1 X172.665277 Y205.05449 Z-0.125
G0 Z20
(Block-name: path4 [in,cut])
(Block-expand: 0)
(Block-enable: 1)
g0 x172.822164 y206.045224
g1 z0 f500
g1 x172.74633 y206.063415 f1200
g1 x172.674406 y206.093214
g1 x172.607792 y206.134042
g1 x172.54851 y206.184651
g1 x172.497942 y206.243866
g1 x172.4572 y206.31035
g1 x172.427338 y206.38246
g1 x172.409142 y206.458226
g1 x172.403027 y206.535973
g1 x172.409142 y206.613687
g1 x172.427357 y206.689566
g1 x172.4572 y206.76163
g1 x172.497942 y206.828114
g1 x172.54851 y206.887329
g1 x172.607792 y206.937938
g1 x172.674406 y206.978766
g1 x172.74633 y207.008565
g1 x172.822164 y207.026756
g1 x172.899935 y207.032887
g1 x172.977698 y207.026756
g1 x173.053526 y207.008567
g1 x173.125452 y206.978766
g1 x173.192068 y206.937938
g1 x173.251348 y206.887329
g1 x173.301919 y206.828114
g1 x173.342647 y206.761647
g1 x173.372497 y206.689566
g1 x173.390722 y206.613646
g1 x173.396841 y206.535973
g1 x173.390722 y206.458268
g1 x173.372516 y206.38246
g1 x173.342647 y206.310333
g1 x173.301919 y206.243866
g1 x173.251348 y206.184651
g1 x173.192068 y206.134042
g1 x173.125452 y206.093214
g1 x173.053526 y206.063413
g1 x172.977698 y206.045224
g1 x172.899935 y206.039093
g1 x172.822164 y206.045224
g1 z-0.5 f500
g1 x172.74633 y206.063415 f1200
g1 x172.674406 y206.093214
g1 x172.607792 y206.134042
g1 x172.54851 y206.184651
g1 x172.497942 y206.243866
g1 x172.4572 y206.31035
g1 x172.427338 y206.38246
g1 x172.409142 y206.458226
g1 x172.403027 y206.535973
g1 x172.409142 y206.613687
g1 x172.427357 y206.689566
g1 x172.4572 y206.76163
g1 x172.497942 y206.828114
g1 x172.54851 y206.887329
g1 x172.607792 y206.937938
g1 x172.674406 y206.978766
g1 x172.74633 y207.008565
g1 x172.822164 y207.026756
g1 x172.899935 y207.032887
g1 x172.977698 y207.026756
g1 x173.053526 y207.008567
g1 x173.125452 y206.978766
g1 x173.192068 y206.937938
g1 x173.251348 y206.887329
g1 x173.301919 y206.828114
g1 x173.342647 y206.761647
g1 x173.372497 y206.689566
g1 x173.390722 y206.613646
g1 x173.396841 y206.535973
g1 x173.390722 y206.458268
g1 x173.372516 y206.38246
g1 x173.342647 y206.310333
g1 x173.301919 y206.243866
g1 x173.251348 y206.184651
g1 x173.192068 y206.134042
g1 x173.125452 y206.093214
g1 x173.053526 y206.063413
g1 x172.977698 y206.045224
g1 x172.899935 y206.039093
g1 x172.822164 y206.045224
g1 z-1 f500
g1 x172.74633 y206.063415 f1200
g1 x172.674406 y206.093214
g1 x172.607792 y206.134042
g1 x172.54851 y206.184651
g1 x172.497942 y206.243866
g1 x172.4572 y206.31035
g1 x172.427338 y206.38246
g1 x172.409142 y206.458226
g1 x172.403027 y206.535973
g1 x172.409142 y206.613687
g1 x172.427357 y206.689566
g1 x172.4572 y206.76163
g1 x172.497942 y206.828114
g1 x172.54851 y206.887329
g1 x172.607792 y206.937938
g1 x172.674406 y206.978766
g1 x172.74633 y207.008565
g1 x172.822164 y207.026756
g1 x172.899935 y207.032887
g1 x172.977698 y207.026756
g1 x173.053526 y207.008567
g1 x173.125452 y206.978766
g1 x173.192068 y206.937938
g1 x173.251348 y206.887329
g1 x173.301919 y206.828114
g1 x173.342647 y206.761647
g1 x173.372497 y206.689566
g1 x173.390722 y206.613646
g1 x173.396841 y206.535973
g1 x173.390722 y206.458268
g1 x173.372516 y206.38246
g1 x173.342647 y206.310333
g1 x173.301919 y206.243866
g1 x173.251348 y206.184651
g1 x173.192068 y206.134042
g1 x173.125452 y206.093214
g1 x173.053526 y206.063413
g1 x172.977698 y206.045224
g1 x172.899935 y206.039093
g1 x172.822164 y206.045224
g1 z-1.5 f500
g1 x172.74633 y206.063415 f1200
g1 x172.674406 y206.093214
g1 x172.607792 y206.134042
g1 x172.54851 y206.184651
g1 x172.497942 y206.243866
g1 x172.4572 y206.31035
g1 x172.427338 y206.38246
g1 x172.409142 y206.458226
g1 x172.403027 y206.535973
g1 x172.409142 y206.613687
g1 x172.427357 y206.689566
g1 x172.4572 y206.76163
g1 x172.497942 y206.828114
g1 x172.54851 y206.887329
g1 x172.607792 y206.937938
g1 x172.674406 y206.978766
g1 x172.74633 y207.008565
g1 x172.822164 y207.026756
g1 x172.899935 y207.032887
g1 x172.977698 y207.026756
g1 x173.053526 y207.008567
g1 x173.125452 y206.978766
g1 x173.192068 y206.937938
g1 x173.251348 y206.887329
g1 x173.301919 y206.828114
g1 x173.342647 y206.761647
g1 x173.372497 y206.689566
g1 x173.390722 y206.613646
g1 x173.396841 y206.535973
g1 x173.390722 y206.458268
g1 x173.372516 y206.38246
g1 x173.342647 y206.310333
g1 x173.301919 y206.243866
g1 x173.251348 y206.184651
g1 x173.192068 y206.134042
g1 x173.125452 y206.093214
g1 x173.053526 y206.063413
g1 x172.977698 y206.045224
g1 x172.899935 y206.039093
g1 x172.822164 y206.045224
g1 z-2 f500
g1 x172.74633 y206.063415 f1200
g1 x172.674406 y206.093214
g1 x172.607792 y206.134042
g1 x172.54851 y206.184651
g1 x172.497942 y206.243866
g1 x172.4572 y206.31035
g1 x172.427338 y206.38246
g1 x172.409142 y206.458226
g1 x172.403027 y206.535973
g1 x172.409142 y206.613687
g1 x172.427357 y206.689566
g1 x172.4572 y206.76163
g1 x172.497942 y206.828114
g1 x172.54851 y206.887329
g1 x172.607792 y206.937938
g1 x172.674406 y206.978766
g1 x172.74633 y207.008565
g1 x172.822164 y207.026756
g1 x172.899935 y207.032887
g1 x172.977698 y207.026756
g1 x173.053526 y207.008567
g1 x173.125452 y206.978766
g1 x173.192068 y206.937938
g1 x173.251348 y206.887329
g1 x173.301919 y206.828114
g1 x173.342647 y206.761647
g1 x173.372497 y206.689566
g1 x173.390722 y206.613646
g1 x173.396841 y206.535973
g1 x173.390722 y206.458268
g1 x173.372516 y206.38246
g1 x173.342647 y206.310333
g1 x173.301919 y206.243866
g1 x173.251348 y206.184651
g1 x173.192068 y206.134042
g1 x173.125452 y206.093214
g1 x173.053526 y206.063413
g1 x172.977698 y206.045224
g1 x172.899935 y206.039093
g1 x172.822164 y206.045224
g0 z30
(Block-name: path4)
(Block-expand: 0)
(Block-enable: 0)

(End cutting path id: path4)


(Start cutting path id: path4)
(Change tool to Default tool)

G0 Z20
G0 X171.471927 Y190.34759

G1 Z-0.125 F100
G1 X170.709017 Y190.53069 Z-0.125 F400
G1 X169.984147 Y190.83099 Z-0.125
G1 X169.315177 Y191.24089 Z-0.125
G1 X168.718567 Y191.75049 Z-0.125
G1 X168.209017 Y192.34709 Z-0.125
G1 X167.799077 Y193.01599 Z-0.125
G1 X167.498817 Y193.74089 Z-0.125
G1 X167.315667 Y194.50379 Z-0.125
G1 X167.254107 Y195.28599 Z-0.125
G1 X167.315667 Y196.06819 Z-0.125
G1 X167.498817 Y196.83109 Z-0.125
G1 X167.799077 Y197.55589 Z-0.125
G1 X168.209017 Y198.22489 Z-0.125
G1 X168.718567 Y198.82149 Z-0.125
G1 X169.315177 Y199.33109 Z-0.125
G1 X169.984147 Y199.74099 Z-0.125
G1 X170.709017 Y200.04129 Z-0.125
G1 X171.471927 Y200.22439 Z-0.125
G1 X172.254107 Y200.28599 Z-0.125
G1 X173.036277 Y200.22439 Z-0.125
G1 X173.799187 Y200.04129 Z-0.125
G1 X174.524047 Y199.74099 Z-0.125
G1 X175.193027 Y199.33109 Z-0.125
G1 X175.789637 Y198.82149 Z-0.125
G1 X176.299137 Y198.22489 Z-0.125
G1 X176.709137 Y197.55589 Z-0.125
G1 X177.009437 Y196.83109 Z-0.125
G1 X177.192537 Y196.06819 Z-0.125
G1 X177.254137 Y195.28599 Z-0.125
G1 X177.192537 Y194.50379 Z-0.125
G1 X177.009437 Y193.74089 Z-0.125
G1 X176.709137 Y193.01599 Z-0.125
G1 X176.299137 Y192.34709 Z-0.125
G1 X175.789637 Y191.75049 Z-0.125
G1 X175.193027 Y191.24089 Z-0.125
G1 X174.524047 Y190.83099 Z-0.125
G1 X173.799187 Y190.53069 Z-0.125
G1 X173.036277 Y190.34759 Z-0.125
G1 X172.254107 Y190.28599 Z-0.125
G1 X171.471927 Y190.34759 Z-0.125
G0 Z20
(Block-name: path4 [in,cut])
(Block-expand: 0)
(Block-enable: 1)
g0 x171.628834 y191.338329
g1 z0 f500
g1 x171.018984 y191.484695 f1200
g1 x170.439543 y191.724746
g1 x169.90478 y192.052413
g1 x169.427873 y192.459768
g1 x169.020521 y192.936711
g1 x168.692832 y193.471402
g1 x168.452816 y194.050857
g1 x168.30641 y194.660704
g1 x168.257199 y195.28599
g1 x168.30641 y195.911276
g1 x168.452811 y196.521099
g1 x168.692832 y197.100488
g1 x169.020543 y197.635295
g1 x169.427873 y198.112212
g1 x169.90478 y198.519567
g1 x170.439543 y198.847234
g1 x171.018984 y199.087285
g1 x171.628834 y199.233651
g1 x172.254106 y199.282894
g1 x172.879369 y199.233651
g1 x173.489218 y199.087286
g1 x174.068652 y198.847234
g1 x174.603426 y198.519565
g1 x175.080312 y198.112228
g1 x175.48762 y197.635291
g1 x175.815407 y197.100438
g1 x176.055437 y196.521105
g1 x176.201798 y195.911282
g1 x176.251041 y195.28599
g1 x176.201798 y194.660698
g1 x176.055431 y194.050851
g1 x175.815407 y193.471452
g1 x175.487642 y192.936715
g1 x175.080312 y192.459752
g1 x174.603426 y192.052415
g1 x174.068652 y191.724746
g1 x173.489218 y191.484694
g1 x172.879369 y191.338329
g1 x172.254106 y191.289086
g1 x171.628834 y191.338329
g1 z-0.5 f500
g1 x171.018984 y191.484695 f1200
g1 x170.439543 y191.724746
g1 x169.90478 y192.052413
g1 x169.427873 y192.459768
g1 x169.020521 y192.936711
g1 x168.692832 y193.471402
g1 x168.452816 y194.050857
g1 x168.30641 y194.660704
g1 x168.257199 y195.28599
g1 x168.30641 y195.911276
g1 x168.452811 y196.521099
g1 x168.692832 y197.100488
g1 x169.020543 y197.635295
g1 x169.427873 y198.112212
g1 x169.90478 y198.519567
g1 x170.439543 y198.847234
g1 x171.018984 y199.087285
g1 x171.628834 y199.233651
g1 x172.254106 y199.282894
g1 x172.879369 y199.233651
g1 x173.489218 y199.087286
g1 x174.068652 y198.847234
g1 x174.603426 y198.519565
g1 x175.080312 y198.112228
g1 x175.48762 y197.635291
g1 x175.815407 y197.100438
g1 x176.055437 y196.521105
g1 x176.201798 y195.911282
g1 x176.251041 y195.28599
g1 x176.201798 y194.660698
g1 x176.055431 y194.050851
g1 x175.815407 y193.471452
g1 x175.487642 y192.936715
g1 x175.080312 y192.459752
g1 x174.603426 y192.052415
g1 x174.068652 y191.724746
g1 x173.489218 y191.484694
g1 x172.879369 y191.338329
g1 x172.254106 y191.289086
g1 x171.628834 y191.338329
g1 z-1 f500
g1 x171.018984 y191.484695 f1200
g1 x170.439543 y191.724746
g1 x169.90478 y192.052413
g1 x169.427873 y192.459768
g1 x169.020521 y192.936711
g1 x168.692832 y193.471402
g1 x168.452816 y194.050857
g1 x168.30641 y194.660704
g1 x168.257199 y195.28599
g1 x168.30641 y195.911276
g1 x168.452811 y196.521099
g1 x168.692832 y197.100488
g1 x169.020543 y197.635295
g1 x169.427873 y198.112212
g1 x169.90478 y198.519567
g1 x170.439543 y198.847234
g1 x171.018984 y199.087285
g1 x171.628834 y199.233651
g1 x172.254106 y199.282894
g1 x172.879369 y199.233651
g1 x173.489218 y199.087286
g1 x174.068652 y198.847234
g1 x174.603426 y198.519565
g1 x175.080312 y198.112228
g1 x175.48762 y197.635291
g1 x175.815407 y197.100438
g1 x176.055437 y196.521105
g1 x176.201798 y195.911282
g1 x176.251041 y195.28599
g1 x176.201798 y194.660698
g1 x176.055431 y194.050851
g1 x175.815407 y193.471452
g1 x175.487642 y192.936715
g1 x175.080312 y192.459752
g1 x174.603426 y192.052415
g1 x174.068652 y191.724746
g1 x173.489218 y191.484694
g1 x172.879369 y191.338329
g1 x172.254106 y191.289086
g1 x171.628834 y191.338329
g1 z-1.5 f500
g1 x171.018984 y191.484695 f1200
g1 x170.439543 y191.724746
g1 x169.90478 y192.052413
g1 x169.427873 y192.459768
g1 x169.020521 y192.936711
g1 x168.692832 y193.471402
g1 x168.452816 y194.050857
g1 x168.30641 y194.660704
g1 x168.257199 y195.28599
g1 x168.30641 y195.911276
g1 x168.452811 y196.521099
g1 x168.692832 y197.100488
g1 x169.020543 y197.635295
g1 x169.427873 y198.112212
g1 x169.90478 y198.519567
g1 x170.439543 y198.847234
g1 x171.018984 y199.087285
g1 x171.628834 y199.233651
g1 x172.254106 y199.282894
g1 x172.879369 y199.233651
g1 x173.489218 y199.087286
g1 x174.068652 y198.847234
g1 x174.603426 y198.519565
g1 x175.080312 y198.112228
g1 x175.48762 y197.635291
g1 x175.815407 y197.100438
g1 x176.055437 y196.521105
g1 x176.201798 y195.911282
g1 x176.251041 y195.28599
g1 x176.201798 y194.660698
g1 x176.055431 y194.050851
g1 x175.815407 y193.471452
g1 x175.487642 y192.936715
g1 x175.080312 y192.459752
g1 x174.603426 y192.052415
g1 x174.068652 y191.724746
g1 x173.489218 y191.484694
g1 x172.879369 y191.338329
g1 x172.254106 y191.289086
g1 x171.628834 y191.338329
g1 z-2 f500
g1 x171.018984 y191.484695 f1200
g1 x170.439543 y191.724746
g1 x169.90478 y192.052413
g1 x169.427873 y192.459768
g1 x169.020521 y192.936711
g1 x168.692832 y193.471402
g1 x168.452816 y194.050857
g1 x168.30641 y194.660704
g1 x168.257199 y195.28599
g1 x168.30641 y195.911276
g1 x168.452811 y196.521099
g1 x168.692832 y197.100488
g1 x169.020543 y197.635295
g1 x169.427873 y198.112212
g1 x169.90478 y198.519567
g1 x170.439543 y198.847234
g1 x171.018984 y199.087285
g1 x171.628834 y199.233651
g1 x172.254106 y199.282894
g1 x172.879369 y199.233651
g1 x173.489218 y199.087286
g1 x174.068652 y198.847234
g1 x174.603426 y198.519565
g1 x175.080312 y198.112228
g1 x175.48762 y197.635291
g1 x175.815407 y197.100438
g1 x176.055437 y196.521105
g1 x176.201798 y195.911282
g1 x176.251041 y195.28599
g1 x176.201798 y194.660698
g1 x176.055431 y194.050851
g1 x175.815407 y193.471452
g1 x175.487642 y192.936715
g1 x175.080312 y192.459752
g1 x174.603426 y192.052415
g1 x174.068652 y191.724746
g1 x173.489218 y191.484694
g1 x172.879369 y191.338329
g1 x172.254106 y191.289086
g1 x171.628834 y191.338329
g0 z30
(Block-name: path4)
(Block-expand: 0)
(Block-enable: 0)

(End cutting path id: path4)


(Start cutting path id: path4)
(Change tool to Default tool)

G0 Z20
G0 X227.763536 Y190.34759

G1 Z-0.125 F100
G1 X227.000636 Y190.53069 Z-0.125 F400
G1 X226.275837 Y190.83099 Z-0.125
G1 X225.606838 Y191.24089 Z-0.125
G1 X225.010237 Y191.75049 Z-0.125
G1 X224.500636 Y192.34709 Z-0.125
G1 X224.090738 Y193.01599 Z-0.125
G1 X223.790436 Y193.74089 Z-0.125
G1 X223.607337 Y194.50379 Z-0.125
G1 X223.545737 Y195.28599 Z-0.125
G1 X223.607337 Y196.06819 Z-0.125
G1 X223.790436 Y196.83109 Z-0.125
G1 X224.090738 Y197.55589 Z-0.125
G1 X224.500636 Y198.22489 Z-0.125
G1 X225.010237 Y198.82149 Z-0.125
G1 X225.606838 Y199.33109 Z-0.125
G1 X226.275837 Y199.74099 Z-0.125
G1 X227.000636 Y200.04129 Z-0.125
G1 X227.763536 Y200.22439 Z-0.125
G1 X228.545737 Y200.28599 Z-0.125
G1 X229.327938 Y200.22439 Z-0.125
G1 X230.090837 Y200.04129 Z-0.125
G1 X230.815738 Y199.74099 Z-0.125
G1 X231.484636 Y199.33109 Z-0.125
G1 X232.081338 Y198.82149 Z-0.125
G1 X232.590838 Y198.22489 Z-0.125
G1 X233.000836 Y197.55589 Z-0.125
G1 X233.301038 Y196.83109 Z-0.125
G1 X233.484238 Y196.06819 Z-0.125
G1 X233.545738 Y195.28599 Z-0.125
G1 X233.484238 Y194.50379 Z-0.125
G1 X233.301038 Y193.74089 Z-0.125
G1 X233.000836 Y193.01599 Z-0.125
G1 X232.590838 Y192.34709 Z-0.125
G1 X232.081338 Y191.75049 Z-0.125
G1 X231.484636 Y191.24089 Z-0.125
G1 X230.815738 Y190.83099 Z-0.125
G1 X230.090837 Y190.53069 Z-0.125
G1 X229.327938 Y190.34759 Z-0.125
G1 X228.545737 Y190.28599 Z-0.125
G1 X227.763536 Y190.34759 Z-0.125
G0 Z20
(Block-name: path4 [in,cut])
(Block-expand: 0)
(Block-enable: 1)
g0 x227.920444 y191.338329
g1 z0 f500
g1 x227.310621 y191.48469 f1200
g1 x226.731239 y191.724741
g1 x226.196437 y192.052417
g1 x225.719527 y192.459781
g1 x225.312142 y192.936714
g1 x224.984489 y193.471402
g1 x224.744442 y194.050852
g1 x224.598076 y194.660697
g1 x224.548833 y195.28599
g1 x224.598076 y195.911283
g1 x224.744436 y196.521104
g1 x224.984489 y197.100488
g1 x225.312164 y197.635291
g1 x225.719527 y198.112199
g1 x226.196437 y198.519563
g1 x226.731239 y198.847239
g1 x227.310621 y199.08729
g1 x227.920444 y199.233651
g1 x228.545737 y199.282894
g1 x229.17103 y199.233651
g1 x229.780876 y199.087284
g1 x230.360326 y198.847239
g1 x230.895047 y198.519563
g1 x231.372038 y198.112199
g1 x231.77932 y197.635291
g1 x232.107075 y197.100488
g1 x232.347048 y196.521104
g1 x232.493489 y195.911282
g1 x232.542652 y195.28599
g1 x232.493489 y194.660698
g1 x232.347043 y194.050852
g1 x232.107075 y193.471402
g1 x231.779342 y192.936714
g1 x231.372038 y192.459781
g1 x230.895047 y192.052417
g1 x230.360326 y191.724741
g1 x229.780876 y191.484696
g1 x229.17103 y191.338329
g1 x228.545737 y191.289086
g1 x227.920444 y191.338329
g1 z-0.5 f500
g1 x227.310621 y191.48469 f1200
g1 x226.731239 y191.724741
g1 x226.196437 y192.052417
g1 x225.719527 y192.459781
g1 x225.312142 y192.936714
g1 x224.984489 y193.471402
g1 x224.744442 y194.050852
g1 x224.598076 y194.660697
g1 x224.548833 y195.28599
g1 x224.598076 y195.911283
g1 x224.744436 y196.521104
g1 x224.984489 y197.100488
g1 x225.312164 y197.635291
g1 x225.719527 y198.112199
g1 x226.196437 y198.519563
g1 x226.731239 y198.847239
g1 x227.310621 y199.08729
g1 x227.920444 y199.233651
g1 x228.545737 y199.282894
g1 x229.17103 y199.233651
g1 x229.780876 y199.087284
g1 x230.360326 y198.847239
g1 x230.895047 y198.519563
g1 x231.372038 y198.112199
g1 x231.77932 y197.635291
g1 x232.107075 y197.100488
g1 x232.347048 y196.521104
g1 x232.493489 y195.911282
g1 x232.542652 y195.28599
g1 x232.493489 y194.660698
g1 x232.347043 y194.050852
g1 x232.107075 y193.471402
g1 x231.779342 y192.936714
g1 x231.372038 y192.459781
g1 x230.895047 y192.052417
g1 x230.360326 y191.724741
g1 x229.780876 y191.484696
g1 x229.17103 y191.338329
g1 x228.545737 y191.289086
g1 x227.920444 y191.338329
g1 z-1 f500
g1 x227.310621 y191.48469 f1200
g1 x226.731239 y191.724741
g1 x226.196437 y192.052417
g1 x225.719527 y192.459781
g1 x225.312142 y192.936714
g1 x224.984489 y193.471402
g1 x224.744442 y194.050852
g1 x224.598076 y194.660697
g1 x224.548833 y195.28599
g1 x224.598076 y195.911283
g1 x224.744436 y196.521104
g1 x224.984489 y197.100488
g1 x225.312164 y197.635291
g1 x225.719527 y198.112199
g1 x226.196437 y198.519563
g1 x226.731239 y198.847239
g1 x227.310621 y199.08729
g1 x227.920444 y199.233651
g1 x228.545737 y199.282894
g1 x229.17103 y199.233651
g1 x229.780876 y199.087284
g1 x230.360326 y198.847239
g1 x230.895047 y198.519563
g1 x231.372038 y198.112199
g1 x231.77932 y197.635291
g1 x232.107075 y197.100488
g1 x232.347048 y196.521104
g1 x232.493489 y195.911282
g1 x232.542652 y195.28599
g1 x232.493489 y194.660698
g1 x232.347043 y194.050852
g1 x232.107075 y193.471402
g1 x231.779342 y192.936714
g1 x231.372038 y192.459781
g1 x230.895047 y192.052417
g1 x230.360326 y191.724741
g1 x229.780876 y191.484696
g1 x229.17103 y191.338329
g1 x228.545737 y191.289086
g1 x227.920444 y191.338329
g1 z-1.5 f500
g1 x227.310621 y191.48469 f1200
g1 x226.731239 y191.724741
g1 x226.196437 y192.052417
g1 x225.719527 y192.459781
g1 x225.312142 y192.936714
g1 x224.984489 y193.471402
g1 x224.744442 y194.050852
g1 x224.598076 y194.660697
g1 x224.548833 y195.28599
g1 x224.598076 y195.911283
g1 x224.744436 y196.521104
g1 x224.984489 y197.100488
g1 x225.312164 y197.635291
g1 x225.719527 y198.112199
g1 x226.196437 y198.519563
g1 x226.731239 y198.847239
g1 x227.310621 y199.08729
g1 x227.920444 y199.233651
g1 x228.545737 y199.282894
g1 x229.17103 y199.233651
g1 x229.780876 y199.087284
g1 x230.360326 y198.847239
g1 x230.895047 y198.519563
g1 x231.372038 y198.112199
g1 x231.77932 y197.635291
g1 x232.107075 y197.100488
g1 x232.347048 y196.521104
g1 x232.493489 y195.911282
g1 x232.542652 y195.28599
g1 x232.493489 y194.660698
g1 x232.347043 y194.050852
g1 x232.107075 y193.471402
g1 x231.779342 y192.936714
g1 x231.372038 y192.459781
g1 x230.895047 y192.052417
g1 x230.360326 y191.724741
g1 x229.780876 y191.484696
g1 x229.17103 y191.338329
g1 x228.545737 y191.289086
g1 x227.920444 y191.338329
g1 z-2 f500
g1 x227.310621 y191.48469 f1200
g1 x226.731239 y191.724741
g1 x226.196437 y192.052417
g1 x225.719527 y192.459781
g1 x225.312142 y192.936714
g1 x224.984489 y193.471402
g1 x224.744442 y194.050852
g1 x224.598076 y194.660697
g1 x224.548833 y195.28599
g1 x224.598076 y195.911283
g1 x224.744436 y196.521104
g1 x224.984489 y197.100488
g1 x225.312164 y197.635291
g1 x225.719527 y198.112199
g1 x226.196437 y198.519563
g1 x226.731239 y198.847239
g1 x227.310621 y199.08729
g1 x227.920444 y199.233651
g1 x228.545737 y199.282894
g1 x229.17103 y199.233651
g1 x229.780876 y199.087284
g1 x230.360326 y198.847239
g1 x230.895047 y198.519563
g1 x231.372038 y198.112199
g1 x231.77932 y197.635291
g1 x232.107075 y197.100488
g1 x232.347048 y196.521104
g1 x232.493489 y195.911282
g1 x232.542652 y195.28599
g1 x232.493489 y194.660698
g1 x232.347043 y194.050852
g1 x232.107075 y193.471402
g1 x231.779342 y192.936714
g1 x231.372038 y192.459781
g1 x230.895047 y192.052417
g1 x230.360326 y191.724741
g1 x229.780876 y191.484696
g1 x229.17103 y191.338329
g1 x228.545737 y191.289086
g1 x227.920444 y191.338329
g0 z30
(Block-name: path4)
(Block-expand: 0)
(Block-enable: 0)

(End cutting path id: path4)


(Start cutting path id: path4)
(Change tool to Default tool)

G0 Z20
G0 X197.271238 Y159.282189

G1 Z-0.125 F100
G1 X194.219637 Y160.014889 Z-0.125 F400
G1 X191.320137 Y161.215891 Z-0.125
G1 X188.644237 Y162.855691 Z-0.125
G1 X186.257837 Y164.89389 Z-0.125
G1 X184.219637 Y167.280289 Z-0.125
G1 X182.579837 Y169.95619 Z-0.125
G1 X181.378837 Y172.85569 Z-0.125
G1 X180.646137 Y175.907291 Z-0.125
G1 X180.399937 Y179.035989 Z-0.125
G1 X180.646137 Y182.164689 Z-0.125
G1 X181.378837 Y185.21629 Z-0.125
G1 X182.579837 Y188.11579 Z-0.125
G1 X184.219637 Y190.79169 Z-0.125
G1 X186.257837 Y193.17809 Z-0.125
G1 X188.644237 Y195.21629 Z-0.125
G1 X191.320137 Y196.85609 Z-0.125
G1 X194.219637 Y198.05709 Z-0.125
G1 X197.271238 Y198.78979 Z-0.125
G1 X200.399938 Y199.03599 Z-0.125
G1 X203.528636 Y198.78979 Z-0.125
G1 X206.580237 Y198.05709 Z-0.125
G1 X209.479737 Y196.85609 Z-0.125
G1 X212.155638 Y195.21629 Z-0.125
G1 X214.542037 Y193.17809 Z-0.125
G1 X216.580236 Y190.79169 Z-0.125
G1 X218.220036 Y188.11579 Z-0.125
G1 X219.421038 Y185.21629 Z-0.125
G1 X220.153738 Y182.164689 Z-0.125
G1 X220.399938 Y179.035989 Z-0.125
G1 X220.153738 Y175.907291 Z-0.125
G1 X219.421038 Y172.85569 Z-0.125
G1 X218.220036 Y169.95619 Z-0.125
G1 X216.580236 Y167.280289 Z-0.125
G1 X214.542037 Y164.89389 Z-0.125
G1 X212.155638 Y162.855691 Z-0.125
G1 X209.479737 Y161.215891 Z-0.125
G1 X206.580237 Y160.014889 Z-0.125
G1 X203.528636 Y159.282189 Z-0.125
G1 X200.399938 Y159.035989 Z-0.125
G1 X197.271238 Y159.282189 Z-0.125
G0 Z20
(Block-name: path4 [in,cut])
(Block-expand: 0)
(Block-enable: 1)
g0 x197.428163 y160.272932
g1 z0 f500
g1 x194.529619 y160.968882 f1200
g1 x191.775531 y162.109653
g1 x189.233843 y163.667208
g1 x186.96713 y165.603183
g1 x185.031154 y167.869895
g1 x183.473599 y170.411584
g1 x182.33283 y173.165672
g1 x181.63688 y176.064216
g1 x181.403028 y179.035989
g1 x181.63688 y182.007764
g1 x182.33283 y184.906308
g1 x183.473599 y187.660396
g1 x185.031154 y190.202084
g1 x186.96713 y192.468797
g1 x189.233843 y194.404773
g1 x191.775531 y195.962328
g1 x194.529619 y197.103097
g1 x197.428163 y197.799047
g1 x200.399938 y198.032899
g1 x203.371711 y197.799047
g1 x206.270255 y197.103097
g1 x209.024343 y195.962328
g1 x211.566032 y194.404773
g1 x213.832744 y192.468797
g1 x215.768719 y190.202084
g1 x217.326274 y187.660396
g1 x218.467045 y184.906308
g1 x219.162995 y182.007764
g1 x219.396847 y179.035989
g1 x219.162995 y176.064216
g1 x218.467045 y173.165672
g1 x217.326274 y170.411584
g1 x215.768719 y167.869895
g1 x213.832744 y165.603183
g1 x211.566032 y163.667208
g1 x209.024343 y162.109653
g1 x206.270255 y160.968882
g1 x203.371711 y160.272932
g1 x200.399938 y160.03908
g1 x197.428163 y160.272932
g1 z-0.5 f500
g1 x194.529619 y160.968882 f1200
g1 x191.775531 y162.109653
g1 x189.233843 y163.667208
g1 x186.96713 y165.603183
g1 x185.031154 y167.869895
g1 x183.473599 y170.411584
g1 x182.33283 y173.165672
g1 x181.63688 y176.064216
g1 x181.403028 y179.035989
g1 x181.63688 y182.007764
g1 x182.33283 y184.906308
g1 x183.473599 y187.660396
g1 x185.031154 y190.202084
g1 x186.96713 y192.468797
g1 x189.233843 y194.404773
g1 x191.775531 y195.962328
g1 x194.529619 y197.103097
g1 x197.428163 y197.799047
g1 x200.399938 y198.032899
g1 x203.371711 y197.799047
g1 x206.270255 y197.103097
g1 x209.024343 y195.962328
g1 x211.566032 y194.404773
g1 x213.832744 y192.468797
g1 x215.768719 y190.202084
g1 x217.326274 y187.660396
g1 x218.467045 y184.906308
g1 x219.162995 y182.007764
g1 x219.396847 y179.035989
g1 x219.162995 y176.064216
g1 x218.467045 y173.165672
g1 x217.326274 y170.411584
g1 x215.768719 y167.869895
g1 x213.832744 y165.603183
g1 x211.566032 y163.667208
g1 x209.024343 y162.109653
g1 x206.270255 y160.968882
g1 x203.371711 y160.272932
g1 x200.399938 y160.03908
g1 x197.428163 y160.272932
g1 z-1 f500
g1 x194.529619 y160.968882 f1200
g1 x191.775531 y162.109653
g1 x189.233843 y163.667208
g1 x186.96713 y165.603183
g1 x185.031154 y167.869895
g1 x183.473599 y170.411584
g1 x182.33283 y173.165672
g1 x181.63688 y176.064216
g1 x181.403028 y179.035989
g1 x181.63688 y182.007764
g1 x182.33283 y184.906308
g1 x183.473599 y187.660396
g1 x185.031154 y190.202084
g1 x186.96713 y192.468797
g1 x189.233843 y194.404773
g1 x191.775531 y195.962328
g1 x194.529619 y197.103097
g1 x197.428163 y197.799047
g1 x200.399938 y198.032899
g1 x203.371711 y197.799047
g1 x206.270255 y197.103097
g1 x209.024343 y195.962328
g1 x211.566032 y194.404773
g1 x213.832744 y192.468797
g1 x215.768719 y190.202084
g1 x217.326274 y187.660396
g1 x218.467045 y184.906308
g1 x219.162995 y182.007764
g1 x219.396847 y179.035989
g1 x219.162995 y176.064216
g1 x218.467045 y173.165672
g1 x217.326274 y170.411584
g1 x215.768719 y167.869895
g1 x213.832744 y165.603183
g1 x211.566032 y163.667208
g1 x209.024343 y162.109653
g1 x206.270255 y160.968882
g1 x203.371711 y160.272932
g1 x200.399938 y160.03908
g1 x197.428163 y160.272932
g1 z-1.5 f500
g1 x194.529619 y160.968882 f1200
g1 x191.775531 y162.109653
g1 x189.233843 y163.667208
g1 x186.96713 y165.603183
g1 x185.031154 y167.869895
g1 x183.473599 y170.411584
g1 x182.33283 y173.165672
g1 x181.63688 y176.064216
g1 x181.403028 y179.035989
g1 x181.63688 y182.007764
g1 x182.33283 y184.906308
g1 x183.473599 y187.660396
g1 x185.031154 y190.202084
g1 x186.96713 y192.468797
g1 x189.233843 y194.404773
g1 x191.775531 y195.962328
g1 x194.529619 y197.103097
g1 x197.428163 y197.799047
g1 x200.399938 y198.032899
g1 x203.371711 y197.799047
g1 x206.270255 y197.103097
g1 x209.024343 y195.962328
g1 x211.566032 y194.404773
g1 x213.832744 y192.468797
g1 x215.768719 y190.202084
g1 x217.326274 y187.660396
g1 x218.467045 y184.906308
g1 x219.162995 y182.007764
g1 x219.396847 y179.035989
g1 x219.162995 y176.064216
g1 x218.467045 y173.165672
g1 x217.326274 y170.411584
g1 x215.768719 y167.869895
g1 x213.832744 y165.603183
g1 x211.566032 y163.667208
g1 x209.024343 y162.109653
g1 x206.270255 y160.968882
g1 x203.371711 y160.272932
g1 x200.399938 y160.03908
g1 x197.428163 y160.272932
g1 z-2 f500
g1 x194.529619 y160.968882 f1200
g1 x191.775531 y162.109653
g1 x189.233843 y163.667208
g1 x186.96713 y165.603183
g1 x185.031154 y167.869895
g1 x183.473599 y170.411584
g1 x182.33283 y173.165672
g1 x181.63688 y176.064216
g1 x181.403028 y179.035989
g1 x181.63688 y182.007764
g1 x182.33283 y184.906308
g1 x183.473599 y187.660396
g1 x185.031154 y190.202084
g1 x186.96713 y192.468797
g1 x189.233843 y194.404773
g1 x191.775531 y195.962328
g1 x194.529619 y197.103097
g1 x197.428163 y197.799047
g1 x200.399938 y198.032899
g1 x203.371711 y197.799047
g1 x206.270255 y197.103097
g1 x209.024343 y195.962328
g1 x211.566032 y194.404773
g1 x213.832744 y192.468797
g1 x215.768719 y190.202084
g1 x217.326274 y187.660396
g1 x218.467045 y184.906308
g1 x219.162995 y182.007764
g1 x219.396847 y179.035989
g1 x219.162995 y176.064216
g1 x218.467045 y173.165672
g1 x217.326274 y170.411584
g1 x215.768719 y167.869895
g1 x213.832744 y165.603183
g1 x211.566032 y163.667208
g1 x209.024343 y162.109653
g1 x206.270255 y160.968882
g1 x203.371711 y160.272932
g1 x200.399938 y160.03908
g1 x197.428163 y160.272932
g0 z30
(Block-name: path4)
(Block-expand: 0)
(Block-enable: 0)

(End cutting path id: path4)


(Start cutting path id: path4)
(Change tool to Default tool)

G0 Z20
G0 X182.665237 Y195.05449

G1 Z-0.125 F100
G1 X182.436437 Y195.10939 Z-0.125 F400
G1 X182.218937 Y195.19949 Z-0.125
G1 X182.018237 Y195.32249 Z-0.125
G1 X181.839237 Y195.47529 Z-0.125
G1 X181.686437 Y195.65429 Z-0.125
G1 X181.563437 Y195.85499 Z-0.125
G1 X181.473337 Y196.07249 Z-0.125
G1 X181.418437 Y196.30129 Z-0.125
G1 X181.399937 Y196.53599 Z-0.125
G1 X181.418437 Y196.77059 Z-0.125
G1 X181.473337 Y196.99949 Z-0.125
G1 X181.563437 Y197.21699 Z-0.125
G1 X181.686437 Y197.41769 Z-0.125
G1 X181.839237 Y197.59669 Z-0.125
G1 X182.018237 Y197.74949 Z-0.125
G1 X182.218937 Y197.87249 Z-0.125
G1 X182.436437 Y197.96259 Z-0.125
G1 X182.665237 Y198.01749 Z-0.125
G1 X182.899937 Y198.03599 Z-0.125
G1 X183.134537 Y198.01749 Z-0.125
G1 X183.363437 Y197.96259 Z-0.125
G1 X183.580937 Y197.87249 Z-0.125
G1 X183.781637 Y197.74949 Z-0.125
G1 X183.960637 Y197.59669 Z-0.125
G1 X184.113437 Y197.41769 Z-0.125
G1 X184.236437 Y197.21699 Z-0.125
G1 X184.326537 Y196.99949 Z-0.125
G1 X184.381437 Y196.77059 Z-0.125
G1 X184.399937 Y196.53599 Z-0.125
G1 X184.381437 Y196.30129 Z-0.125
G1 X184.326537 Y196.07249 Z-0.125
G1 X184.236437 Y195.85499 Z-0.125
G1 X184.113437 Y195.65429 Z-0.125
G1 X183.960637 Y195.47529 Z-0.125
G1 X183.781637 Y195.32249 Z-0.125
G1 X183.580937 Y195.19949 Z-0.125
G1 X183.363437 Y195.10939 Z-0.125
G1 X183.134537 Y195.05449 Z-0.125
G1 X182.899937 Y195.03599 Z-0.125
G1 X182.665237 Y195.05449 Z-0.125
G0 Z20
(Block-name: path4 [in,cut])
(Block-expand: 0)
(Block-enable: 1)
g0 x182.822152 y196.045223
g1 z0 f500
g1 x182.746368 y196.063407 f1200
g1 x182.674364 y196.093235
g1 x182.607743 y196.134064
g1 x182.548545 y196.184598
g1 x182.498011 y196.243796
g1 x182.457182 y196.310417
g1 x182.427354 y196.382421
g1 x182.40917 y196.458205
g1 x182.40304 y196.535973
g1 x182.40917 y196.613708
g1 x182.427373 y196.689605
g1 x182.457182 y196.761563
g1 x182.498011 y196.828184
g1 x182.548545 y196.887382
g1 x182.607743 y196.937916
g1 x182.674364 y196.978745
g1 x182.746368 y197.008573
g1 x182.822152 y197.026757
g1 x182.89992 y197.032887
g1 x182.977655 y197.026757
g1 x183.053552 y197.008554
g1 x183.12551 y196.978745
g1 x183.192131 y196.937916
g1 x183.251329 y196.887382
g1 x183.301863 y196.828184
g1 x183.342692 y196.761563
g1 x183.372501 y196.689605
g1 x183.390704 y196.613708
g1 x183.396834 y196.535973
g1 x183.390704 y196.458205
g1 x183.37252 y196.382421
g1 x183.342692 y196.310417
g1 x183.301863 y196.243796
g1 x183.251329 y196.184598
g1 x183.192131 y196.134064
g1 x183.12551 y196.093235
g1 x183.053552 y196.063426
g1 x182.977655 y196.045223
g1 x182.89992 y196.039093
g1 x182.822152 y196.045223
g1 z-0.5 f500
g1 x182.746368 y196.063407 f1200
g1 x182.674364 y196.093235
g1 x182.607743 y196.134064
g1 x182.548545 y196.184598
g1 x182.498011 y196.243796
g1 x182.457182 y196.310417
g1 x182.427354 y196.382421
g1 x182.40917 y196.458205
g1 x182.40304 y196.535973
g1 x182.40917 y196.613708
g1 x182.427373 y196.689605
g1 x182.457182 y196.761563
g1 x182.498011 y196.828184
g1 x182.548545 y196.887382
g1 x182.607743 y196.937916
g1 x182.674364 y196.978745
g1 x182.746368 y197.008573
g1 x182.822152 y197.026757
g1 x182.89992 y197.032887
g1 x182.977655 y197.026757
g1 x183.053552 y197.008554
g1 x183.12551 y196.978745
g1 x183.192131 y196.937916
g1 x183.251329 y196.887382
g1 x183.301863 y196.828184
g1 x183.342692 y196.761563
g1 x183.372501 y196.689605
g1 x183.390704 y196.613708
g1 x183.396834 y196.535973
g1 x183.390704 y196.458205
g1 x183.37252 y196.382421
g1 x183.342692 y196.310417
g1 x183.301863 y196.243796
g1 x183.251329 y196.184598
g1 x183.192131 y196.134064
g1 x183.12551 y196.093235
g1 x183.053552 y196.063426
g1 x182.977655 y196.045223
g1 x182.89992 y196.039093
g1 x182.822152 y196.045223
g1 z-1 f500
g1 x182.746368 y196.063407 f1200
g1 x182.674364 y196.093235
g1 x182.607743 y196.134064
g1 x182.548545 y196.184598
g1 x182.498011 y196.243796
g1 x182.457182 y196.310417
g1 x182.427354 y196.382421
g1 x182.40917 y196.458205
g1 x182.40304 y196.535973
g1 x182.40917 y196.613708
g1 x182.427373 y196.689605
g1 x182.457182 y196.761563
g1 x182.498011 y196.828184
g1 x182.548545 y196.887382
g1 x182.607743 y196.937916
g1 x182.674364 y196.978745
g1 x182.746368 y197.008573
g1 x182.822152 y197.026757
g1 x182.89992 y197.032887
g1 x182.977655 y197.026757
g1 x183.053552 y197.008554
g1 x183.12551 y196.978745
g1 x183.192131 y196.937916
g1 x183.251329 y196.887382
g1 x183.301863 y196.828184
g1 x183.342692 y196.761563
g1 x183.372501 y196.689605
g1 x183.390704 y196.613708
g1 x183.396834 y196.535973
g1 x183.390704 y196.458205
g1 x183.37252 y196.382421
g1 x183.342692 y196.310417
g1 x183.301863 y196.243796
g1 x183.251329 y196.184598
g1 x183.192131 y196.134064
g1 x183.12551 y196.093235
g1 x183.053552 y196.063426
g1 x182.977655 y196.045223
g1 x182.89992 y196.039093
g1 x182.822152 y196.045223
g1 z-1.5 f500
g1 x182.746368 y196.063407 f1200
g1 x182.674364 y196.093235
g1 x182.607743 y196.134064
g1 x182.548545 y196.184598
g1 x182.498011 y196.243796
g1 x182.457182 y196.310417
g1 x182.427354 y196.382421
g1 x182.40917 y196.458205
g1 x182.40304 y196.535973
g1 x182.40917 y196.613708
g1 x182.427373 y196.689605
g1 x182.457182 y196.761563
g1 x182.498011 y196.828184
g1 x182.548545 y196.887382
g1 x182.607743 y196.937916
g1 x182.674364 y196.978745
g1 x182.746368 y197.008573
g1 x182.822152 y197.026757
g1 x182.89992 y197.032887
g1 x182.977655 y197.026757
g1 x183.053552 y197.008554
g1 x183.12551 y196.978745
g1 x183.192131 y196.937916
g1 x183.251329 y196.887382
g1 x183.301863 y196.828184
g1 x183.342692 y196.761563
g1 x183.372501 y196.689605
g1 x183.390704 y196.613708
g1 x183.396834 y196.535973
g1 x183.390704 y196.458205
g1 x183.37252 y196.382421
g1 x183.342692 y196.310417
g1 x183.301863 y196.243796
g1 x183.251329 y196.184598
g1 x183.192131 y196.134064
g1 x183.12551 y196.093235
g1 x183.053552 y196.063426
g1 x182.977655 y196.045223
g1 x182.89992 y196.039093
g1 x182.822152 y196.045223
g1 z-2 f500
g1 x182.746368 y196.063407 f1200
g1 x182.674364 y196.093235
g1 x182.607743 y196.134064
g1 x182.548545 y196.184598
g1 x182.498011 y196.243796
g1 x182.457182 y196.310417
g1 x182.427354 y196.382421
g1 x182.40917 y196.458205
g1 x182.40304 y196.535973
g1 x182.40917 y196.613708
g1 x182.427373 y196.689605
g1 x182.457182 y196.761563
g1 x182.498011 y196.828184
g1 x182.548545 y196.887382
g1 x182.607743 y196.937916
g1 x182.674364 y196.978745
g1 x182.746368 y197.008573
g1 x182.822152 y197.026757
g1 x182.89992 y197.032887
g1 x182.977655 y197.026757
g1 x183.053552 y197.008554
g1 x183.12551 y196.978745
g1 x183.192131 y196.937916
g1 x183.251329 y196.887382
g1 x183.301863 y196.828184
g1 x183.342692 y196.761563
g1 x183.372501 y196.689605
g1 x183.390704 y196.613708
g1 x183.396834 y196.535973
g1 x183.390704 y196.458205
g1 x183.37252 y196.382421
g1 x183.342692 y196.310417
g1 x183.301863 y196.243796
g1 x183.251329 y196.184598
g1 x183.192131 y196.134064
g1 x183.12551 y196.093235
g1 x183.053552 y196.063426
g1 x182.977655 y196.045223
g1 x182.89992 y196.039093
g1 x182.822152 y196.045223
g0 z30
(Block-name: path4)
(Block-expand: 0)
(Block-enable: 0)

(End cutting path id: path4)


(Start cutting path id: path4)
(Change tool to Default tool)

G0 Z20
G0 X217.665237 Y195.05449

G1 Z-0.125 F100
G1 X217.436438 Y195.10939 Z-0.125 F400
G1 X217.218937 Y195.19949 Z-0.125
G1 X217.018238 Y195.32249 Z-0.125
G1 X216.839237 Y195.47529 Z-0.125
G1 X216.686437 Y195.65429 Z-0.125
G1 X216.563438 Y195.85499 Z-0.125
G1 X216.473338 Y196.07249 Z-0.125
G1 X216.418438 Y196.30129 Z-0.125
G1 X216.399948 Y196.53599 Z-0.125
G1 X216.418438 Y196.77059 Z-0.125
G1 X216.473338 Y196.99949 Z-0.125
G1 X216.563438 Y197.21699 Z-0.125
G1 X216.686437 Y197.41769 Z-0.125
G1 X216.839237 Y197.59669 Z-0.125
G1 X217.018238 Y197.74949 Z-0.125
G1 X217.218937 Y197.87249 Z-0.125
G1 X217.436438 Y197.96259 Z-0.125
G1 X217.665237 Y198.01749 Z-0.125
G1 X217.899938 Y198.03599 Z-0.125
G1 X218.134536 Y198.01749 Z-0.125
G1 X218.363438 Y197.96259 Z-0.125
G1 X218.580936 Y197.87249 Z-0.125
G1 X218.781638 Y197.74949 Z-0.125
G1 X218.960637 Y197.59669 Z-0.125
G1 X219.113436 Y197.41769 Z-0.125
G1 X219.236438 Y197.21699 Z-0.125
G1 X219.326538 Y196.99949 Z-0.125
G1 X219.381438 Y196.77059 Z-0.125
G1 X219.399928 Y196.53599 Z-0.125
G1 X219.381438 Y196.30129 Z-0.125
G1 X219.326538 Y196.07249 Z-0.125
G1 X219.236438 Y195.85499 Z-0.125
G1 X219.113436 Y195.65429 Z-0.125
G1 X218.960637 Y195.47529 Z-0.125
G1 X218.781638 Y195.32249 Z-0.125
G1 X218.580936 Y195.19949 Z-0.125
G1 X218.363438 Y195.10939 Z-0.125
G1 X218.134536 Y195.05449 Z-0.125
G1 X217.899938 Y195.03599 Z-0.125
G1 X217.665237 Y195.05449 Z-0.125
G0 Z20
(Block-name: path4 [in,cut])
(Block-expand: 0)
(Block-enable: 1)
g0 x217.822153 y196.045223
g1 z0 f500
g1 x217.746369 y196.063407 f1200
g1 x217.674364 y196.093235
g1 x217.607744 y196.134064
g1 x217.548544 y196.184599
g1 x217.498012 y196.243795
g1 x217.457184 y196.310415
g1 x217.427355 y196.382421
g1 x217.409176 y196.458185
g1 x217.403048 y196.535973
g1 x217.409176 y196.613729
g1 x217.427374 y196.689605
g1 x217.457184 y196.761565
g1 x217.498012 y196.828185
g1 x217.548544 y196.887381
g1 x217.607744 y196.937916
g1 x217.674364 y196.978745
g1 x217.746369 y197.008573
g1 x217.822153 y197.026757
g1 x217.899921 y197.032887
g1 x217.977655 y197.026757
g1 x218.053552 y197.008554
g1 x218.12551 y196.978745
g1 x218.192132 y196.937915
g1 x218.251327 y196.887384
g1 x218.301863 y196.828182
g1 x218.342694 y196.76156
g1 x218.372502 y196.689605
g1 x218.3907 y196.613729
g1 x218.396828 y196.535973
g1 x218.3907 y196.458185
g1 x218.372521 y196.382421
g1 x218.342694 y196.31042
g1 x218.301863 y196.243798
g1 x218.251327 y196.184596
g1 x218.192132 y196.134065
g1 x218.12551 y196.093235
g1 x218.053552 y196.063426
g1 x217.977655 y196.045223
g1 x217.899921 y196.039093
g1 x217.822153 y196.045223
g1 z-0.5 f500
g1 x217.746369 y196.063407 f1200
g1 x217.674364 y196.093235
g1 x217.607744 y196.134064
g1 x217.548544 y196.184599
g1 x217.498012 y196.243795
g1 x217.457184 y196.310415
g1 x217.427355 y196.382421
g1 x217.409176 y196.458185
g1 x217.403048 y196.535973
g1 x217.409176 y196.613729
g1 x217.427374 y196.689605
g1 x217.457184 y196.761565
g1 x217.498012 y196.828185
g1 x217.548544 y196.887381
g1 x217.607744 y196.937916
g1 x217.674364 y196.978745
g1 x217.746369 y197.008573
g1 x217.822153 y197.026757
g1 x217.899921 y197.032887
g1 x217.977655 y197.026757
g1 x218.053552 y197.008554
g1 x218.12551 y196.978745
g1 x218.192132 y196.937915
g1 x218.251327 y196.887384
g1 x218.301863 y196.828182
g1 x218.342694 y196.76156
g1 x218.372502 y196.689605
g1 x218.3907 y196.613729
g1 x218.396828 y196.535973
g1 x218.3907 y196.458185
g1 x218.372521 y196.382421
g1 x218.342694 y196.31042
g1 x218.301863 y196.243798
g1 x218.251327 y196.184596
g1 x218.192132 y196.134065
g1 x218.12551 y196.093235
g1 x218.053552 y196.063426
g1 x217.977655 y196.045223
g1 x217.899921 y196.039093
g1 x217.822153 y196.045223
g1 z-1 f500
g1 x217.746369 y196.063407 f1200
g1 x217.674364 y196.093235
g1 x217.607744 y196.134064
g1 x217.548544 y196.184599
g1 x217.498012 y196.243795
g1 x217.457184 y196.310415
g1 x217.427355 y196.382421
g1 x217.409176 y196.458185
g1 x217.403048 y196.535973
g1 x217.409176 y196.613729
g1 x217.427374 y196.689605
g1 x217.457184 y196.761565
g1 x217.498012 y196.828185
g1 x217.548544 y196.887381
g1 x217.607744 y196.937916
g1 x217.674364 y196.978745
g1 x217.746369 y197.008573
g1 x217.822153 y197.026757
g1 x217.899921 y197.032887
g1 x217.977655 y197.026757
g1 x218.053552 y197.008554
g1 x218.12551 y196.978745
g1 x218.192132 y196.937915
g1 x218.251327 y196.887384
g1 x218.301863 y196.828182
g1 x218.342694 y196.76156
g1 x218.372502 y196.689605
g1 x218.3907 y196.613729
g1 x218.396828 y196.535973
g1 x218.3907 y196.458185
g1 x218.372521 y196.382421
g1 x218.342694 y196.31042
g1 x218.301863 y196.243798
g1 x218.251327 y196.184596
g1 x218.192132 y196.134065
g1 x218.12551 y196.093235
g1 x218.053552 y196.063426
g1 x217.977655 y196.045223
g1 x217.899921 y196.039093
g1 x217.822153 y196.045223
g1 z-1.5 f500
g1 x217.746369 y196.063407 f1200
g1 x217.674364 y196.093235
g1 x217.607744 y196.134064
g1 x217.548544 y196.184599
g1 x217.498012 y196.243795
g1 x217.457184 y196.310415
g1 x217.427355 y196.382421
g1 x217.409176 y196.458185
g1 x217.403048 y196.535973
g1 x217.409176 y196.613729
g1 x217.427374 y196.689605
g1 x217.457184 y196.761565
g1 x217.498012 y196.828185
g1 x217.548544 y196.887381
g1 x217.607744 y196.937916
g1 x217.674364 y196.978745
g1 x217.746369 y197.008573
g1 x217.822153 y197.026757
g1 x217.899921 y197.032887
g1 x217.977655 y197.026757
g1 x218.053552 y197.008554
g1 x218.12551 y196.978745
g1 x218.192132 y196.937915
g1 x218.251327 y196.887384
g1 x218.301863 y196.828182
g1 x218.342694 y196.76156
g1 x218.372502 y196.689605
g1 x218.3907 y196.613729
g1 x218.396828 y196.535973
g1 x218.3907 y196.458185
g1 x218.372521 y196.382421
g1 x218.342694 y196.31042
g1 x218.301863 y196.243798
g1 x218.251327 y196.184596
g1 x218.192132 y196.134065
g1 x218.12551 y196.093235
g1 x218.053552 y196.063426
g1 x217.977655 y196.045223
g1 x217.899921 y196.039093
g1 x217.822153 y196.045223
g1 z-2 f500
g1 x217.746369 y196.063407 f1200
g1 x217.674364 y196.093235
g1 x217.607744 y196.134064
g1 x217.548544 y196.184599
g1 x217.498012 y196.243795
g1 x217.457184 y196.310415
g1 x217.427355 y196.382421
g1 x217.409176 y196.458185
g1 x217.403048 y196.535973
g1 x217.409176 y196.613729
g1 x217.427374 y196.689605
g1 x217.457184 y196.761565
g1 x217.498012 y196.828185
g1 x217.548544 y196.887381
g1 x217.607744 y196.937916
g1 x217.674364 y196.978745
g1 x217.746369 y197.008573
g1 x217.822153 y197.026757
g1 x217.899921 y197.032887
g1 x217.977655 y197.026757
g1 x218.053552 y197.008554
g1 x218.12551 y196.978745
g1 x218.192132 y196.937915
g1 x218.251327 y196.887384
g1 x218.301863 y196.828182
g1 x218.342694 y196.76156
g1 x218.372502 y196.689605
g1 x218.3907 y196.613729
g1 x218.396828 y196.535973
g1 x218.3907 y196.458185
g1 x218.372521 y196.382421
g1 x218.342694 y196.31042
g1 x218.301863 y196.243798
g1 x218.251327 y196.184596
g1 x218.192132 y196.134065
g1 x218.12551 y196.093235
g1 x218.053552 y196.063426
g1 x217.977655 y196.045223
g1 x217.899921 y196.039093
g1 x217.822153 y196.045223
g0 z30
(Block-name: path4)
(Block-expand: 0)
(Block-enable: 0)

(End cutting path id: path4)


(Start cutting path id: path4)
(Change tool to Default tool)

G0 Z20
G0 X227.117738 Y174.097591

G1 Z-0.125 F100
G1 X226.354836 Y174.280691 Z-0.125 F400
G1 X225.629936 Y174.58099 Z-0.125
G1 X224.961037 Y174.990891 Z-0.125
G1 X224.364436 Y175.500491 Z-0.125
G1 X223.854836 Y176.09709 Z-0.125
G1 X223.444938 Y176.765991 Z-0.125
G1 X223.144636 Y177.490891 Z-0.125
G1 X222.961536 Y178.25379 Z-0.125
G1 X222.899936 Y179.035989 Z-0.125
G1 X222.961536 Y179.81819 Z-0.125
G1 X223.144636 Y180.581089 Z-0.125
G1 X223.444938 Y181.305889 Z-0.125
G1 X223.854836 Y181.974891 Z-0.125
G1 X224.364436 Y182.571489 Z-0.125
G1 X224.961037 Y183.08109 Z-0.125
G1 X225.629936 Y183.49099 Z-0.125
G1 X226.354836 Y183.79129 Z-0.125
G1 X227.117738 Y183.974389 Z-0.125
G1 X227.899937 Y184.035989 Z-0.125
G1 X228.682138 Y183.974389 Z-0.125
G1 X229.445037 Y183.79129 Z-0.125
G1 X230.169837 Y183.49099 Z-0.125
G1 X230.838836 Y183.08109 Z-0.125
G1 X231.435437 Y182.571489 Z-0.125
G1 X231.945037 Y181.974891 Z-0.125
G1 X232.354938 Y181.305889 Z-0.125
G1 X232.655237 Y180.581089 Z-0.125
G1 X232.838337 Y179.81819 Z-0.125
G1 X232.899937 Y179.035989 Z-0.125
G1 X232.838337 Y178.25379 Z-0.125
G1 X232.655237 Y177.490891 Z-0.125
G1 X232.354938 Y176.765991 Z-0.125
G1 X231.945037 Y176.09709 Z-0.125
G1 X231.435437 Y175.500491 Z-0.125
G1 X230.838836 Y174.990891 Z-0.125
G1 X230.169837 Y174.58099 Z-0.125
G1 X229.445037 Y174.280691 Z-0.125
G1 X228.682138 Y174.097591 Z-0.125
G1 X227.899937 Y174.035991 Z-0.125
G1 X227.117738 Y174.097591 Z-0.125
G0 Z20
(Block-name: path4 [in,cut])
(Block-expand: 0)
(Block-enable: 1)
g0 x227.274646 y175.08833
g1 z0 f500
g1 x226.664796 y175.234697 f1200
g1 x226.085348 y175.474741
g1 x225.550662 y175.802396
g1 x225.073726 y176.209782
g1 x224.666342 y176.686714
g1 x224.338689 y177.221402
g1 x224.098641 y177.800854
g1 x223.952275 y178.410698
g1 x223.903032 y179.035989
g1 x223.952275 y179.661282
g1 x224.098636 y180.271103
g1 x224.338689 y180.850488
g1 x224.666364 y181.385292
g1 x225.073726 y181.862198
g1 x225.550662 y182.269585
g1 x226.085348 y182.597239
g1 x226.664796 y182.837284
g1 x227.274645 y182.98365
g1 x227.899937 y183.032893
g1 x228.525231 y182.98365
g1 x229.135052 y182.83729
g1 x229.714435 y182.597239
g1 x230.249236 y182.269563
g1 x230.726147 y181.862198
g1 x231.13351 y181.385291
g1 x231.461187 y180.850488
g1 x231.701237 y180.271104
g1 x231.847598 y179.661282
g1 x231.896841 y179.035989
g1 x231.847598 y178.410698
g1 x231.701231 y177.800852
g1 x231.461187 y177.221402
g1 x231.133532 y176.686715
g1 x230.726147 y176.209782
g1 x230.249236 y175.802418
g1 x229.714435 y175.474741
g1 x229.135052 y175.234691
g1 x228.52523 y175.08833
g1 x227.899937 y175.039087
g1 x227.274646 y175.08833
g1 z-0.5 f500
g1 x226.664796 y175.234697 f1200
g1 x226.085348 y175.474741
g1 x225.550662 y175.802396
g1 x225.073726 y176.209782
g1 x224.666342 y176.686714
g1 x224.338689 y177.221402
g1 x224.098641 y177.800854
g1 x223.952275 y178.410698
g1 x223.903032 y179.035989
g1 x223.952275 y179.661282
g1 x224.098636 y180.271103
g1 x224.338689 y180.850488
g1 x224.666364 y181.385292
g1 x225.073726 y181.862198
g1 x225.550662 y182.269585
g1 x226.085348 y182.597239
g1 x226.664796 y182.837284
g1 x227.274645 y182.98365
g1 x227.899937 y183.032893
g1 x228.525231 y182.98365
g1 x229.135052 y182.83729
g1 x229.714435 y182.597239
g1 x230.249236 y182.269563
g1 x230.726147 y181.862198
g1 x231.13351 y181.385291
g1 x231.461187 y180.850488
g1 x231.701237 y180.271104
g1 x231.847598 y179.661282
g1 x231.896841 y179.035989
g1 x231.847598 y178.410698
g1 x231.701231 y177.800852
g1 x231.461187 y177.221402
g1 x231.133532 y176.686715
g1 x230.726147 y176.209782
g1 x230.249236 y175.802418
g1 x229.714435 y175.474741
g1 x229.135052 y175.234691
g1 x228.52523 y175.08833
g1 x227.899937 y175.039087
g1 x227.274646 y175.08833
g1 z-1 f500
g1 x226.664796 y175.234697 f1200
g1 x226.085348 y175.474741
g1 x225.550662 y175.802396
g1 x225.073726 y176.209782
g1 x224.666342 y176.686714
g1 x224.338689 y177.221402
g1 x224.098641 y177.800854
g1 x223.952275 y178.410698
g1 x223.903032 y179.035989
g1 x223.952275 y179.661282
g1 x224.098636 y180.271103
g1 x224.338689 y180.850488
g1 x224.666364 y181.385292
g1 x225.073726 y181.862198
g1 x225.550662 y182.269585
g1 x226.085348 y182.597239
g1 x226.664796 y182.837284
g1 x227.274645 y182.98365
g1 x227.899937 y183.032893
g1 x228.525231 y182.98365
g1 x229.135052 y182.83729
g1 x229.714435 y182.597239
g1 x230.249236 y182.269563
g1 x230.726147 y181.862198
g1 x231.13351 y181.385291
g1 x231.461187 y180.850488
g1 x231.701237 y180.271104
g1 x231.847598 y179.661282
g1 x231.896841 y179.035989
g1 x231.847598 y178.410698
g1 x231.701231 y177.800852
g1 x231.461187 y177.221402
g1 x231.133532 y176.686715
g1 x230.726147 y176.209782
g1 x230.249236 y175.802418
g1 x229.714435 y175.474741
g1 x229.135052 y175.234691
g1 x228.52523 y175.08833
g1 x227.899937 y175.039087
g1 x227.274646 y175.08833
g1 z-1.5 f500
g1 x226.664796 y175.234697 f1200
g1 x226.085348 y175.474741
g1 x225.550662 y175.802396
g1 x225.073726 y176.209782
g1 x224.666342 y176.686714
g1 x224.338689 y177.221402
g1 x224.098641 y177.800854
g1 x223.952275 y178.410698
g1 x223.903032 y179.035989
g1 x223.952275 y179.661282
g1 x224.098636 y180.271103
g1 x224.338689 y180.850488
g1 x224.666364 y181.385292
g1 x225.073726 y181.862198
g1 x225.550662 y182.269585
g1 x226.085348 y182.597239
g1 x226.664796 y182.837284
g1 x227.274645 y182.98365
g1 x227.899937 y183.032893
g1 x228.525231 y182.98365
g1 x229.135052 y182.83729
g1 x229.714435 y182.597239
g1 x230.249236 y182.269563
g1 x230.726147 y181.862198
g1 x231.13351 y181.385291
g1 x231.461187 y180.850488
g1 x231.701237 y180.271104
g1 x231.847598 y179.661282
g1 x231.896841 y179.035989
g1 x231.847598 y178.410698
g1 x231.701231 y177.800852
g1 x231.461187 y177.221402
g1 x231.133532 y176.686715
g1 x230.726147 y176.209782
g1 x230.249236 y175.802418
g1 x229.714435 y175.474741
g1 x229.135052 y175.234691
g1 x228.52523 y175.08833
g1 x227.899937 y175.039087
g1 x227.274646 y175.08833
g1 z-2 f500
g1 x226.664796 y175.234697 f1200
g1 x226.085348 y175.474741
g1 x225.550662 y175.802396
g1 x225.073726 y176.209782
g1 x224.666342 y176.686714
g1 x224.338689 y177.221402
g1 x224.098641 y177.800854
g1 x223.952275 y178.410698
g1 x223.903032 y179.035989
g1 x223.952275 y179.661282
g1 x224.098636 y180.271103
g1 x224.338689 y180.850488
g1 x224.666364 y181.385292
g1 x225.073726 y181.862198
g1 x225.550662 y182.269585
g1 x226.085348 y182.597239
g1 x226.664796 y182.837284
g1 x227.274645 y182.98365
g1 x227.899937 y183.032893
g1 x228.525231 y182.98365
g1 x229.135052 y182.83729
g1 x229.714435 y182.597239
g1 x230.249236 y182.269563
g1 x230.726147 y181.862198
g1 x231.13351 y181.385291
g1 x231.461187 y180.850488
g1 x231.701237 y180.271104
g1 x231.847598 y179.661282
g1 x231.896841 y179.035989
g1 x231.847598 y178.410698
g1 x231.701231 y177.800852
g1 x231.461187 y177.221402
g1 x231.133532 y176.686715
g1 x230.726147 y176.209782
g1 x230.249236 y175.802418
g1 x229.714435 y175.474741
g1 x229.135052 y175.234691
g1 x228.52523 y175.08833
g1 x227.899937 y175.039087
g1 x227.274646 y175.08833
g0 z30
(Block-name: path4)
(Block-expand: 0)
(Block-enable: 0)

(End cutting path id: path4)


(Start cutting path id: path4)
(Change tool to Default tool)

G0 Z20
G0 X172.117757 Y174.097591

G1 Z-0.125 F100
G1 X171.354847 Y174.280691 Z-0.125 F400
G1 X170.629977 Y174.58099 Z-0.125
G1 X169.961007 Y174.990891 Z-0.125
G1 X169.364397 Y175.500491 Z-0.125
G1 X168.854847 Y176.09709 Z-0.125
G1 X168.444887 Y176.765991 Z-0.125
G1 X168.144647 Y177.490891 Z-0.125
G1 X167.961487 Y178.25379 Z-0.125
G1 X167.899937 Y179.035989 Z-0.125
G1 X167.961487 Y179.81819 Z-0.125
G1 X168.144647 Y180.581089 Z-0.125
G1 X168.444887 Y181.305889 Z-0.125
G1 X168.854847 Y181.974891 Z-0.125
G1 X169.364397 Y182.571489 Z-0.125
G1 X169.961007 Y183.08109 Z-0.125
G1 X170.629977 Y183.49099 Z-0.125
G1 X171.354847 Y183.79129 Z-0.125
G1 X172.117757 Y183.974389 Z-0.125
G1 X172.899937 Y184.035989 Z-0.125
G1 X173.682107 Y183.974389 Z-0.125
G1 X174.445007 Y183.79129 Z-0.125
G1 X175.169877 Y183.49099 Z-0.125
G1 X175.838837 Y183.08109 Z-0.125
G1 X176.435437 Y182.571489 Z-0.125
G1 X176.945037 Y181.974891 Z-0.125
G1 X177.354937 Y181.305889 Z-0.125
G1 X177.655237 Y180.581089 Z-0.125
G1 X177.838337 Y179.81819 Z-0.125
G1 X177.899937 Y179.035989 Z-0.125
G1 X177.838337 Y178.25379 Z-0.125
G1 X177.655237 Y177.490891 Z-0.125
G1 X177.354937 Y176.765991 Z-0.125
G1 X176.945037 Y176.09709 Z-0.125
G1 X176.435437 Y175.500491 Z-0.125
G1 X175.838837 Y174.990891 Z-0.125
G1 X175.169877 Y174.58099 Z-0.125
G1 X174.445007 Y174.280691 Z-0.125
G1 X173.682107 Y174.097591 Z-0.125
G1 X172.899937 Y174.035991 Z-0.125
G1 X172.117757 Y174.097591 Z-0.125
G0 Z20
(Block-name: path4 [in,cut])
(Block-expand: 0)
(Block-enable: 1)
g0 x172.274664 y175.08833
g1 z0 f500
g1 x171.664814 y175.234696 f1200
g1 x171.085373 y175.474746
g1 x170.550611 y175.802413
g1 x170.073703 y176.209769
g1 x169.666344 y176.686719
g1 x169.338644 y177.221402
g1 x169.098647 y177.800852
g1 x168.952231 y178.410704
g1 x168.903028 y179.035989
g1 x168.952231 y179.661276
g1 x169.098641 y180.271104
g1 x169.338644 y180.850488
g1 x169.666366 y181.385287
g1 x170.073703 y181.862211
g1 x170.550611 y182.269567
g1 x171.085373 y182.597234
g1 x171.664814 y182.837285
g1 x172.274664 y182.98365
g1 x172.899936 y183.032893
g1 x173.525198 y182.98365
g1 x174.135039 y182.837286
g1 x174.714478 y182.597235
g1 x175.249227 y182.269572
g1 x175.726147 y181.862199
g1 x176.13351 y181.385291
g1 x176.461186 y180.850488
g1 x176.701237 y180.271104
g1 x176.847598 y179.661282
g1 x176.896841 y179.035989
g1 x176.847598 y178.410698
g1 x176.701231 y177.800852
g1 x176.461186 y177.221402
g1 x176.133532 y176.686715
g1 x175.726147 y176.209782
g1 x175.249227 y175.802409
g1 x174.714478 y175.474745
g1 x174.135039 y175.234695
g1 x173.525198 y175.08833
g1 x172.899936 y175.039087
g1 x172.274664 y175.08833
g1 z-0.5 f500
g1 x171.664814 y175.234696 f1200
g1 x171.085373 y175.474746
g1 x170.550611 y175.802413
g1 x170.073703 y176.209769
g1 x169.666344 y176.686719
g1 x169.338644 y177.221402
g1 x169.098647 y177.800852
g1 x168.952231 y178.410704
g1 x168.903028 y179.035989
g1 x168.952231 y179.661276
g1 x169.098641 y180.271104
g1 x169.338644 y180.850488
g1 x169.666366 y181.385287
g1 x170.073703 y181.862211
g1 x170.550611 y182.269567
g1 x171.085373 y182.597234
g1 x171.664814 y182.837285
g1 x172.274664 y182.98365
g1 x172.899936 y183.032893
g1 x173.525198 y182.98365
g1 x174.135039 y182.837286
g1 x174.714478 y182.597235
g1 x175.249227 y182.269572
g1 x175.726147 y181.862199
g1 x176.13351 y181.385291
g1 x176.461186 y180.850488
g1 x176.701237 y180.271104
g1 x176.847598 y179.661282
g1 x176.896841 y179.035989
g1 x176.847598 y178.410698
g1 x176.701231 y177.800852
g1 x176.461186 y177.221402
g1 x176.133532 y176.686715
g1 x175.726147 y176.209782
g1 x175.249227 y175.802409
g1 x174.714478 y175.474745
g1 x174.135039 y175.234695
g1 x173.525198 y175.08833
g1 x172.899936 y175.039087
g1 x172.274664 y175.08833
g1 z-1 f500
g1 x171.664814 y175.234696 f1200
g1 x171.085373 y175.474746
g1 x170.550611 y175.802413
g1 x170.073703 y176.209769
g1 x169.666344 y176.686719
g1 x169.338644 y177.221402
g1 x169.098647 y177.800852
g1 x168.952231 y178.410704
g1 x168.903028 y179.035989
g1 x168.952231 y179.661276
g1 x169.098641 y180.271104
g1 x169.338644 y180.850488
g1 x169.666366 y181.385287
g1 x170.073703 y181.862211
g1 x170.550611 y182.269567
g1 x171.085373 y182.597234
g1 x171.664814 y182.837285
g1 x172.274664 y182.98365
g1 x172.899936 y183.032893
g1 x173.525198 y182.98365
g1 x174.135039 y182.837286
g1 x174.714478 y182.597235
g1 x175.249227 y182.269572
g1 x175.726147 y181.862199
g1 x176.13351 y181.385291
g1 x176.461186 y180.850488
g1 x176.701237 y180.271104
g1 x176.847598 y179.661282
g1 x176.896841 y179.035989
g1 x176.847598 y178.410698
g1 x176.701231 y177.800852
g1 x176.461186 y177.221402
g1 x176.133532 y176.686715
g1 x175.726147 y176.209782
g1 x175.249227 y175.802409
g1 x174.714478 y175.474745
g1 x174.135039 y175.234695
g1 x173.525198 y175.08833
g1 x172.899936 y175.039087
g1 x172.274664 y175.08833
g1 z-1.5 f500
g1 x171.664814 y175.234696 f1200
g1 x171.085373 y175.474746
g1 x170.550611 y175.802413
g1 x170.073703 y176.209769
g1 x169.666344 y176.686719
g1 x169.338644 y177.221402
g1 x169.098647 y177.800852
g1 x168.952231 y178.410704
g1 x168.903028 y179.035989
g1 x168.952231 y179.661276
g1 x169.098641 y180.271104
g1 x169.338644 y180.850488
g1 x169.666366 y181.385287
g1 x170.073703 y181.862211
g1 x170.550611 y182.269567
g1 x171.085373 y182.597234
g1 x171.664814 y182.837285
g1 x172.274664 y182.98365
g1 x172.899936 y183.032893
g1 x173.525198 y182.98365
g1 x174.135039 y182.837286
g1 x174.714478 y182.597235
g1 x175.249227 y182.269572
g1 x175.726147 y181.862199
g1 x176.13351 y181.385291
g1 x176.461186 y180.850488
g1 x176.701237 y180.271104
g1 x176.847598 y179.661282
g1 x176.896841 y179.035989
g1 x176.847598 y178.410698
g1 x176.701231 y177.800852
g1 x176.461186 y177.221402
g1 x176.133532 y176.686715
g1 x175.726147 y176.209782
g1 x175.249227 y175.802409
g1 x174.714478 y175.474745
g1 x174.135039 y175.234695
g1 x173.525198 y175.08833
g1 x172.899936 y175.039087
g1 x172.274664 y175.08833
g1 z-2 f500
g1 x171.664814 y175.234696 f1200
g1 x171.085373 y175.474746
g1 x170.550611 y175.802413
g1 x170.073703 y176.209769
g1 x169.666344 y176.686719
g1 x169.338644 y177.221402
g1 x169.098647 y177.800852
g1 x168.952231 y178.410704
g1 x168.903028 y179.035989
g1 x168.952231 y179.661276
g1 x169.098641 y180.271104
g1 x169.338644 y180.850488
g1 x169.666366 y181.385287
g1 x170.073703 y181.862211
g1 x170.550611 y182.269567
g1 x171.085373 y182.597234
g1 x171.664814 y182.837285
g1 x172.274664 y182.98365
g1 x172.899936 y183.032893
g1 x173.525198 y182.98365
g1 x174.135039 y182.837286
g1 x174.714478 y182.597235
g1 x175.249227 y182.269572
g1 x175.726147 y181.862199
g1 x176.13351 y181.385291
g1 x176.461186 y180.850488
g1 x176.701237 y180.271104
g1 x176.847598 y179.661282
g1 x176.896841 y179.035989
g1 x176.847598 y178.410698
g1 x176.701231 y177.800852
g1 x176.461186 y177.221402
g1 x176.133532 y176.686715
g1 x175.726147 y176.209782
g1 x175.249227 y175.802409
g1 x174.714478 y175.474745
g1 x174.135039 y175.234695
g1 x173.525198 y175.08833
g1 x172.899936 y175.039087
g1 x172.274664 y175.08833
g0 z30
(Block-name: path4)
(Block-expand: 0)
(Block-enable: 0)

(End cutting path id: path4)


(Start cutting path id: path4)
(Change tool to Default tool)

G0 Z20
G0 X171.471927 Y157.847589

G1 Z-0.125 F100
G1 X170.709017 Y158.030691 Z-0.125 F400
G1 X169.984147 Y158.330991 Z-0.125
G1 X169.315177 Y158.740891 Z-0.125
G1 X168.718567 Y159.250489 Z-0.125
G1 X168.209017 Y159.84709 Z-0.125
G1 X167.799077 Y160.515991 Z-0.125
G1 X167.498817 Y161.240889 Z-0.125
G1 X167.315667 Y162.003791 Z-0.125
G1 X167.254107 Y162.785989 Z-0.125
G1 X167.315667 Y163.56819 Z-0.125
G1 X167.498817 Y164.33109 Z-0.125
G1 X167.799077 Y165.055889 Z-0.125
G1 X168.209017 Y165.724891 Z-0.125
G1 X168.718567 Y166.321489 Z-0.125
G1 X169.315177 Y166.83109 Z-0.125
G1 X169.984147 Y167.240991 Z-0.125
G1 X170.709017 Y167.54129 Z-0.125
G1 X171.471927 Y167.72439 Z-0.125
G1 X172.254107 Y167.78599 Z-0.125
G1 X173.036277 Y167.72439 Z-0.125
G1 X173.799187 Y167.54129 Z-0.125
G1 X174.524047 Y167.240991 Z-0.125
G1 X175.193027 Y166.83109 Z-0.125
G1 X175.789637 Y166.321489 Z-0.125
G1 X176.299137 Y165.724891 Z-0.125
G1 X176.709137 Y165.055889 Z-0.125
G1 X177.009437 Y164.33109 Z-0.125
G1 X177.192537 Y163.56819 Z-0.125
G1 X177.254137 Y162.785989 Z-0.125
G1 X177.192537 Y162.003791 Z-0.125
G1 X177.009437 Y161.240889 Z-0.125
G1 X176.709137 Y160.515991 Z-0.125
G1 X176.299137 Y159.84709 Z-0.125
G1 X175.789637 Y159.250489 Z-0.125
G1 X175.193027 Y158.740891 Z-0.125
G1 X174.524047 Y158.330991 Z-0.125
G1 X173.799187 Y158.030691 Z-0.125
G1 X173.036277 Y157.847589 Z-0.125
G1 X172.254107 Y157.785989 Z-0.125
G1 X171.471927 Y157.847589 Z-0.125
G0 Z20
(Block-name: path4 [in,cut])
(Block-expand: 0)
(Block-enable: 1)
g0 x171.628836 y158.838328
g1 z0 f500
g1 x171.018985 y158.984695 f1200
g1 x170.439543 y159.224747
g1 x169.90478 y159.552414
g1 x169.427873 y159.959767
g1 x169.020521 y160.43671
g1 x168.692832 y160.971403
g1 x168.452816 y161.550856
g1 x168.30641 y162.160705
g1 x168.257199 y162.785989
g1 x168.30641 y163.411276
g1 x168.452811 y164.021099
g1 x168.692832 y164.600488
g1 x169.020543 y165.135296
g1 x169.427873 y165.612211
g1 x169.904781 y166.019568
g1 x170.439543 y166.347235
g1 x171.018984 y166.587285
g1 x171.628834 y166.733651
g1 x172.254106 y166.782894
g1 x172.879369 y166.733651
g1 x173.489218 y166.587286
g1 x174.068652 y166.347235
g1 x174.603425 y166.019566
g1 x175.080313 y165.612227
g1 x175.48762 y165.135291
g1 x175.815407 y164.600437
g1 x176.055437 y164.021105
g1 x176.201798 y163.411282
g1 x176.251041 y162.785989
g1 x176.201798 y162.160699
g1 x176.055431 y161.550851
g1 x175.815407 y160.971453
g1 x175.487641 y160.436714
g1 x175.080313 y159.959751
g1 x174.603427 y159.552416
g1 x174.068652 y159.224747
g1 x173.489216 y158.984695
g1 x172.879368 y158.838328
g1 x172.254106 y158.789085
g1 x171.628836 y158.838328
g1 z-0.5 f500
g1 x171.018985 y158.984695 f1200
g1 x170.439543 y159.224747
g1 x169.90478 y159.552414
g1 x169.427873 y159.959767
g1 x169.020521 y160.43671
g1 x168.692832 y160.971403
g1 x168.452816 y161.550856
g1 x168.30641 y162.160705
g1 x168.257199 y162.785989
g1 x168.30641 y163.411276
g1 x168.452811 y164.021099
g1 x168.692832 y164.600488
g1 x169.020543 y165.135296
g1 x169.427873 y165.612211
g1 x169.904781 y166.019568
g1 x170.439543 y166.347235
g1 x171.018984 y166.587285
g1 x171.628834 y166.733651
g1 x172.254106 y166.782894
g1 x172.879369 y166.733651
g1 x173.489218 y166.587286
g1 x174.068652 y166.347235
g1 x174.603425 y166.019566
g1 x175.080313 y165.612227
g1 x175.48762 y165.135291
g1 x175.815407 y164.600437
g1 x176.055437 y164.021105
g1 x176.201798 y163.411282
g1 x176.251041 y162.785989
g1 x176.201798 y162.160699
g1 x176.055431 y161.550851
g1 x175.815407 y160.971453
g1 x175.487641 y160.436714
g1 x175.080313 y159.959751
g1 x174.603427 y159.552416
g1 x174.068652 y159.224747
g1 x173.489216 y158.984695
g1 x172.879368 y158.838328
g1 x172.254106 y158.789085
g1 x171.628836 y158.838328
g1 z-1 f500
g1 x171.018985 y158.984695 f1200
g1 x170.439543 y159.224747
g1 x169.90478 y159.552414
g1 x169.427873 y159.959767
g1 x169.020521 y160.43671
g1 x168.692832 y160.971403
g1 x168.452816 y161.550856
g1 x168.30641 y162.160705
g1 x168.257199 y162.785989
g1 x168.30641 y163.411276
g1 x168.452811 y164.021099
g1 x168.692832 y164.600488
g1 x169.020543 y165.135296
g1 x169.427873 y165.612211
g1 x169.904781 y166.019568
g1 x170.439543 y166.347235
g1 x171.018984 y166.587285
g1 x171.628834 y166.733651
g1 x172.254106 y166.782894
g1 x172.879369 y166.733651
g1 x173.489218 y166.587286
g1 x174.068652 y166.347235
g1 x174.603425 y166.019566
g1 x175.080313 y165.612227
g1 x175.48762 y165.135291
g1 x175.815407 y164.600437
g1 x176.055437 y164.021105
g1 x176.201798 y163.411282
g1 x176.251041 y162.785989
g1 x176.201798 y162.160699
g1 x176.055431 y161.550851
g1 x175.815407 y160.971453
g1 x175.487641 y160.436714
g1 x175.080313 y159.959751
g1 x174.603427 y159.552416
g1 x174.068652 y159.224747
g1 x173.489216 y158.984695
g1 x172.879368 y158.838328
g1 x172.254106 y158.789085
g1 x171.628836 y158.838328
g1 z-1.5 f500
g1 x171.018985 y158.984695 f1200
g1 x170.439543 y159.224747
g1 x169.90478 y159.552414
g1 x169.427873 y159.959767
g1 x169.020521 y160.43671
g1 x168.692832 y160.971403
g1 x168.452816 y161.550856
g1 x168.30641 y162.160705
g1 x168.257199 y162.785989
g1 x168.30641 y163.411276
g1 x168.452811 y164.021099
g1 x168.692832 y164.600488
g1 x169.020543 y165.135296
g1 x169.427873 y165.612211
g1 x169.904781 y166.019568
g1 x170.439543 y166.347235
g1 x171.018984 y166.587285
g1 x171.628834 y166.733651
g1 x172.254106 y166.782894
g1 x172.879369 y166.733651
g1 x173.489218 y166.587286
g1 x174.068652 y166.347235
g1 x174.603425 y166.019566
g1 x175.080313 y165.612227
g1 x175.48762 y165.135291
g1 x175.815407 y164.600437
g1 x176.055437 y164.021105
g1 x176.201798 y163.411282
g1 x176.251041 y162.785989
g1 x176.201798 y162.160699
g1 x176.055431 y161.550851
g1 x175.815407 y160.971453
g1 x175.487641 y160.436714
g1 x175.080313 y159.959751
g1 x174.603427 y159.552416
g1 x174.068652 y159.224747
g1 x173.489216 y158.984695
g1 x172.879368 y158.838328
g1 x172.254106 y158.789085
g1 x171.628836 y158.838328
g1 z-2 f500
g1 x171.018985 y158.984695 f1200
g1 x170.439543 y159.224747
g1 x169.90478 y159.552414
g1 x169.427873 y159.959767
g1 x169.020521 y160.43671
g1 x168.692832 y160.971403
g1 x168.452816 y161.550856
g1 x168.30641 y162.160705
g1 x168.257199 y162.785989
g1 x168.30641 y163.411276
g1 x168.452811 y164.021099
g1 x168.692832 y164.600488
g1 x169.020543 y165.135296
g1 x169.427873 y165.612211
g1 x169.904781 y166.019568
g1 x170.439543 y166.347235
g1 x171.018984 y166.587285
g1 x171.628834 y166.733651
g1 x172.254106 y166.782894
g1 x172.879369 y166.733651
g1 x173.489218 y166.587286
g1 x174.068652 y166.347235
g1 x174.603425 y166.019566
g1 x175.080313 y165.612227
g1 x175.48762 y165.135291
g1 x175.815407 y164.600437
g1 x176.055437 y164.021105
g1 x176.201798 y163.411282
g1 x176.251041 y162.785989
g1 x176.201798 y162.160699
g1 x176.055431 y161.550851
g1 x175.815407 y160.971453
g1 x175.487641 y160.436714
g1 x175.080313 y159.959751
g1 x174.603427 y159.552416
g1 x174.068652 y159.224747
g1 x173.489216 y158.984695
g1 x172.879368 y158.838328
g1 x172.254106 y158.789085
g1 x171.628836 y158.838328
g0 z30
(Block-name: path4)
(Block-expand: 0)
(Block-enable: 0)

(End cutting path id: path4)


(Start cutting path id: path4)
(Change tool to Default tool)

G0 Z20
G0 X227.763536 Y157.847589

G1 Z-0.125 F100
G1 X227.000636 Y158.030691 Z-0.125 F400
G1 X226.275837 Y158.330991 Z-0.125
G1 X225.606838 Y158.740891 Z-0.125
G1 X225.010237 Y159.250489 Z-0.125
G1 X224.500636 Y159.84709 Z-0.125
G1 X224.090738 Y160.515991 Z-0.125
G1 X223.790436 Y161.240889 Z-0.125
G1 X223.607337 Y162.003791 Z-0.125
G1 X223.545737 Y162.785989 Z-0.125
G1 X223.607337 Y163.56819 Z-0.125
G1 X223.790436 Y164.33109 Z-0.125
G1 X224.090738 Y165.055889 Z-0.125
G1 X224.500636 Y165.724891 Z-0.125
G1 X225.010237 Y166.321489 Z-0.125
G1 X225.606838 Y166.83109 Z-0.125
G1 X226.275837 Y167.240991 Z-0.125
G1 X227.000636 Y167.54129 Z-0.125
G1 X227.763536 Y167.72439 Z-0.125
G1 X228.545737 Y167.78599 Z-0.125
G1 X229.327938 Y167.72439 Z-0.125
G1 X230.090837 Y167.54129 Z-0.125
G1 X230.815738 Y167.240991 Z-0.125
G1 X231.484636 Y166.83109 Z-0.125
G1 X232.081338 Y166.321489 Z-0.125
G1 X232.590838 Y165.724891 Z-0.125
G1 X233.000836 Y165.055889 Z-0.125
G1 X233.301038 Y164.33109 Z-0.125
G1 X233.484238 Y163.56819 Z-0.125
G1 X233.545738 Y162.785989 Z-0.125
G1 X233.484238 Y162.003791 Z-0.125
G1 X233.301038 Y161.240889 Z-0.125
G1 X233.000836 Y160.515991 Z-0.125
G1 X232.590838 Y159.84709 Z-0.125
G1 X232.081338 Y159.250489 Z-0.125
G1 X231.484636 Y158.740891 Z-0.125
G1 X230.815738 Y158.330991 Z-0.125
G1 X230.090837 Y158.030691 Z-0.125
G1 X229.327938 Y157.847589 Z-0.125
G1 X228.545737 Y157.785989 Z-0.125
G1 X227.763536 Y157.847589 Z-0.125
G0 Z20
(Block-name: path4 [in,cut])
(Block-expand: 0)
(Block-enable: 1)
g0 x227.920445 y158.838328
g1 z0 f500
g1 x227.310623 y158.98469 f1200
g1 x226.731239 y159.224742
g1 x226.196436 y159.552419
g1 x225.719526 y159.95978
g1 x225.312142 y160.436714
g1 x224.984489 y160.971403
g1 x224.744442 y161.550851
g1 x224.598076 y162.160698
g1 x224.548833 y162.785989
g1 x224.598076 y163.411283
g1 x224.744436 y164.021104
g1 x224.984489 y164.600488
g1 x225.312164 y165.135292
g1 x225.719526 y165.612198
g1 x226.196438 y166.019563
g1 x226.731239 y166.34724
g1 x227.310621 y166.58729
g1 x227.920444 y166.733651
g1 x228.545737 y166.782894
g1 x229.17103 y166.733651
g1 x229.780876 y166.587284
g1 x230.360326 y166.34724
g1 x230.895046 y166.019563
g1 x231.372039 y165.612198
g1 x231.77932 y165.135292
g1 x232.107075 y164.600488
g1 x232.347048 y164.021103
g1 x232.493489 y163.411282
g1 x232.542652 y162.785989
g1 x232.493489 y162.160699
g1 x232.347043 y161.550852
g1 x232.107075 y160.971403
g1 x231.779342 y160.436713
g1 x231.372039 y159.95978
g1 x230.895048 y159.552419
g1 x230.360326 y159.224742
g1 x229.780875 y158.984696
g1 x229.171029 y158.838328
g1 x228.545737 y158.789085
g1 x227.920445 y158.838328
g1 z-0.5 f500
g1 x227.310623 y158.98469 f1200
g1 x226.731239 y159.224742
g1 x226.196436 y159.552419
g1 x225.719526 y159.95978
g1 x225.312142 y160.436714
g1 x224.984489 y160.971403
g1 x224.744442 y161.550851
g1 x224.598076 y162.160698
g1 x224.548833 y162.785989
g1 x224.598076 y163.411283
g1 x224.744436 y164.021104
g1 x224.984489 y164.600488
g1 x225.312164 y165.135292
g1 x225.719526 y165.612198
g1 x226.196438 y166.019563
g1 x226.731239 y166.34724
g1 x227.310621 y166.58729
g1 x227.920444 y166.733651
g1 x228.545737 y166.782894
g1 x229.17103 y166.733651
g1 x229.780876 y166.587284
g1 x230.360326 y166.34724
g1 x230.895046 y166.019563
g1 x231.372039 y165.612198
g1 x231.77932 y165.135292
g1 x232.107075 y164.600488
g1 x232.347048 y164.021103
g1 x232.493489 y163.411282
g1 x232.542652 y162.785989
g1 x232.493489 y162.160699
g1 x232.347043 y161.550852
g1 x232.107075 y160.971403
g1 x231.779342 y160.436713
g1 x231.372039 y159.95978
g1 x230.895048 y159.552419
g1 x230.360326 y159.224742
g1 x229.780875 y158.984696
g1 x229.171029 y158.838328
g1 x228.545737 y158.789085
g1 x227.920445 y158.838328
g1 z-1 f500
g1 x227.310623 y158.98469 f1200
g1 x226.731239 y159.224742
g1 x226.196436 y159.552419
g1 x225.719526 y159.95978
g1 x225.312142 y160.436714
g1 x224.984489 y160.971403
g1 x224.744442 y161.550851
g1 x224.598076 y162.160698
g1 x224.548833 y162.785989
g1 x224.598076 y163.411283
g1 x224.744436 y164.021104
g1 x224.984489 y164.600488
g1 x225.312164 y165.135292
g1 x225.719526 y165.612198
g1 x226.196438 y166.019563
g1 x226.731239 y166.34724
g1 x227.310621 y166.58729
g1 x227.920444 y166.733651
g1 x228.545737 y166.782894
g1 x229.17103 y166.733651
g1 x229.780876 y166.587284
g1 x230.360326 y166.34724
g1 x230.895046 y166.019563
g1 x231.372039 y165.612198
g1 x231.77932 y165.135292
g1 x232.107075 y164.600488
g1 x232.347048 y164.021103
g1 x232.493489 y163.411282
g1 x232.542652 y162.785989
g1 x232.493489 y162.160699
g1 x232.347043 y161.550852
g1 x232.107075 y160.971403
g1 x231.779342 y160.436713
g1 x231.372039 y159.95978
g1 x230.895048 y159.552419
g1 x230.360326 y159.224742
g1 x229.780875 y158.984696
g1 x229.171029 y158.838328
g1 x228.545737 y158.789085
g1 x227.920445 y158.838328
g1 z-1.5 f500
g1 x227.310623 y158.98469 f1200
g1 x226.731239 y159.224742
g1 x226.196436 y159.552419
g1 x225.719526 y159.95978
g1 x225.312142 y160.436714
g1 x224.984489 y160.971403
g1 x224.744442 y161.550851
g1 x224.598076 y162.160698
g1 x224.548833 y162.785989
g1 x224.598076 y163.411283
g1 x224.744436 y164.021104
g1 x224.984489 y164.600488
g1 x225.312164 y165.135292
g1 x225.719526 y165.612198
g1 x226.196438 y166.019563
g1 x226.731239 y166.34724
g1 x227.310621 y166.58729
g1 x227.920444 y166.733651
g1 x228.545737 y166.782894
g1 x229.17103 y166.733651
g1 x229.780876 y166.587284
g1 x230.360326 y166.34724
g1 x230.895046 y166.019563
g1 x231.372039 y165.612198
g1 x231.77932 y165.135292
g1 x232.107075 y164.600488
g1 x232.347048 y164.021103
g1 x232.493489 y163.411282
g1 x232.542652 y162.785989
g1 x232.493489 y162.160699
g1 x232.347043 y161.550852
g1 x232.107075 y160.971403
g1 x231.779342 y160.436713
g1 x231.372039 y159.95978
g1 x230.895048 y159.552419
g1 x230.360326 y159.224742
g1 x229.780875 y158.984696
g1 x229.171029 y158.838328
g1 x228.545737 y158.789085
g1 x227.920445 y158.838328
g1 z-2 f500
g1 x227.310623 y158.98469 f1200
g1 x226.731239 y159.224742
g1 x226.196436 y159.552419
g1 x225.719526 y159.95978
g1 x225.312142 y160.436714
g1 x224.984489 y160.971403
g1 x224.744442 y161.550851
g1 x224.598076 y162.160698
g1 x224.548833 y162.785989
g1 x224.598076 y163.411283
g1 x224.744436 y164.021104
g1 x224.984489 y164.600488
g1 x225.312164 y165.135292
g1 x225.719526 y165.612198
g1 x226.196438 y166.019563
g1 x226.731239 y166.34724
g1 x227.310621 y166.58729
g1 x227.920444 y166.733651
g1 x228.545737 y166.782894
g1 x229.17103 y166.733651
g1 x229.780876 y166.587284
g1 x230.360326 y166.34724
g1 x230.895046 y166.019563
g1 x231.372039 y165.612198
g1 x231.77932 y165.135292
g1 x232.107075 y164.600488
g1 x232.347048 y164.021103
g1 x232.493489 y163.411282
g1 x232.542652 y162.785989
g1 x232.493489 y162.160699
g1 x232.347043 y161.550852
g1 x232.107075 y160.971403
g1 x231.779342 y160.436713
g1 x231.372039 y159.95978
