(Block-name: Header)
(Block-expand: 0)
(Block-enable: 1)
%
(Header)
(Generated by gcodetools from Inkscape.)
(Using default header. To add your own header create file "header" in the output dir.)
M3
(Header end.)
G21 (All units in mm)

(Start cutting path id: path4-6)
(Change tool to Default tool)

G00 Z20.000000
(Block-name: path4-6)
(Block-expand: 0)
(Block-enable: 0)

(End cutting path id: path4-6)


(Start cutting path id: path4-6)
(Change tool to Default tool)

G0 Z20
G0 X183.178975 Y158.05106

G1 Z-0.125 F100
G1 X179.908375 Y161.32106 Z-0.125 F400
G1 X174.454875 Y161.32106 Z-0.125
G1 X171.184475 Y158.05106 Z-0.125
G1 X177.181675 Y152.05306 Z-0.125
G1 X183.178975 Y158.05106 Z-0.125
G0 Z20
(Block-name: path4-6 [in,cut])
(Block-expand: 0)
(Block-enable: 1)
g0 x181.764738 y158.050954
g1 z-1 f500
g1 x179.494215 y160.32106 f1200
g1 x174.869053 y160.32106
g1 x172.598685 y158.05097
g1 x177.181681 y153.467362
g1 x181.764738 y158.050954
g1 z-2 f500
g1 x179.494215 y160.32106 f1200
g1 x174.869053 y160.32106
g1 x172.598685 y158.05097
g1 x177.181681 y153.467362
g1 x181.764738 y158.050954
g1 z-3 f500
g1 x179.494215 y160.32106 f1200
g1 x174.869053 y160.32106
g1 x172.598685 y158.05097
g1 x177.181681 y153.467362
g1 x181.764738 y158.050954
g0 z30
(Block-name: path4-6)
(Block-expand: 0)
(Block-enable: 0)

(End cutting path id: path4-6)


(Start cutting path id: path4-6)
(Change tool to Default tool)

G0 Z20
G0 X103.880965 Y155.01506

G1 Z-0.125 F100
G1 X106.916975 Y158.05106 Z-0.125 F400
G1 X103.645965 Y161.32106 Z-0.125
G1 X98.192973 Y161.32106 Z-0.125
G1 X94.921963 Y158.05106 Z-0.125
G1 X96.306973 Y156.66606 Z-0.125
G1 X103.880965 Y155.01506 Z-0.125
G0 Z20
(Block-name: path4-6 [in,cut])
(Block-expand: 0)
(Block-enable: 1)
g0 x103.560164 y156.108472
g1 z-1 f500
g1 x105.502651 y158.050952 f1200
g1 x103.231842 y160.32106
g1 x98.607096 y160.32106
g1 x96.336288 y158.050953
g1 x96.806616 y157.580629
g1 x103.560164 y156.108472
g1 z-2 f500
g1 x105.502651 y158.050952 f1200
g1 x103.231842 y160.32106
g1 x98.607096 y160.32106
g1 x96.336288 y158.050953
g1 x96.806616 y157.580629
g1 x103.560164 y156.108472
g1 z-3 f500
g1 x105.502651 y158.050952 f1200
g1 x103.231842 y160.32106
g1 x98.607096 y160.32106
g1 x96.336288 y158.050953
g1 x96.806616 y157.580629
g1 x103.560164 y156.108472
g0 z30
(Block-name: path4-6)
(Block-expand: 0)
(Block-enable: 0)

(End cutting path id: path4-6)


(Start cutting path id: path4-6)
(Change tool to Default tool)

G0 Z20
G0 X164.113375 Y158.05106

G1 Z-0.125 F100
G1 X160.842875 Y161.32106 Z-0.125 F400
G1 X155.389375 Y161.32106 Z-0.125
G1 X152.118975 Y158.05106 Z-0.125
G1 X158.116075 Y152.05306 Z-0.125
G1 X164.113375 Y158.05106 Z-0.125
G0 Z20
(Block-name: path4-6 [in,cut])
(Block-expand: 0)
(Block-enable: 1)
g0 x162.699149 y158.050965
g1 z-1 f500
g1 x160.428706 y160.32106 f1200
g1 x155.803553 y160.32106
g1 x153.533179 y158.050964
g1 x158.116087 y153.467368
g1 x162.699149 y158.050965
g1 z-2 f500
g1 x160.428706 y160.32106 f1200
g1 x155.803553 y160.32106
g1 x153.533179 y158.050964
g1 x158.116087 y153.467368
g1 x162.699149 y158.050965
g1 z-3 f500
g1 x160.428706 y160.32106 f1200
g1 x155.803553 y160.32106
g1 x153.533179 y158.050964
g1 x158.116087 y153.467368
g1 x162.699149 y158.050965
g0 z30
(Block-name: path4-6)
(Block-expand: 0)
(Block-enable: 0)

(End cutting path id: path4-6)


(Start cutting path id: path4-6)
(Change tool to Default tool)

G0 Z20
G0 X145.047975 Y158.05106

G1 Z-0.125 F100
G1 X141.776975 Y161.32106 Z-0.125 F400
G1 X136.323975 Y161.32106 Z-0.125
G1 X133.052975 Y158.05106 Z-0.125
G1 X139.050975 Y152.05306 Z-0.125
G1 X145.047975 Y158.05106 Z-0.125
G0 Z20
(Block-name: path4-6 [in,cut])
(Block-expand: 0)
(Block-enable: 1)
g0 x143.633712 y158.050893
g1 z-1 f500
g1 x141.362851 y160.32106 f1200
g1 x136.738099 y160.32106
g1 x134.467297 y158.050952
g1 x139.050916 y153.467333
g1 x143.633712 y158.050893
g1 z-2 f500
g1 x141.362851 y160.32106 f1200
g1 x136.738099 y160.32106
g1 x134.467297 y158.050952
g1 x139.050916 y153.467333
g1 x143.633712 y158.050893
g1 z-3 f500
g1 x141.362851 y160.32106 f1200
g1 x136.738099 y160.32106
g1 x134.467297 y158.050952
g1 x139.050916 y153.467333
g1 x143.633712 y158.050893
g0 z30
(Block-name: path4-6)
(Block-expand: 0)
(Block-enable: 0)

(End cutting path id: path4-6)


(Start cutting path id: path4-6)
(Change tool to Default tool)

G0 Z20
G0 X200.779975 Y156.58606

G1 Z-0.125 F100
G1 X200.779975 Y159.51506 Z-0.125 F400
G1 X198.973975 Y161.32106 Z-0.125
G1 X193.520475 Y161.32106 Z-0.125
G1 X190.250075 Y158.05106 Z-0.125
G1 X196.247175 Y152.05306 Z-0.125
G1 X200.779975 Y156.58606 Z-0.125
G0 Z20
(Block-name: path4-6 [in,cut])
(Block-expand: 0)
(Block-enable: 1)
g0 x199.779975 y157.000261
g1 z-1 f500
g1 x199.779975 y159.100846 f1200
g1 x198.559761 y160.32106
g1 x193.934653 y160.32106
g1 x191.664279 y158.050964
g1 x196.247212 y153.467342
g1 x199.779975 y157.000261
g1 z-2 f500
g1 x199.779975 y159.100846 f1200
g1 x198.559761 y160.32106
g1 x193.934653 y160.32106
g1 x191.664279 y158.050964
g1 x196.247212 y153.467342
g1 x199.779975 y157.000261
g1 z-3 f500
g1 x199.779975 y159.100846 f1200
g1 x198.559761 y160.32106
g1 x193.934653 y160.32106
g1 x191.664279 y158.050964
g1 x196.247212 y153.467342
g1 x199.779975 y157.000261
g0 z30
(Block-name: path4-6)
(Block-expand: 0)
(Block-enable: 0)

(End cutting path id: path4-6)


(Start cutting path id: path4-6)
(Change tool to Default tool)

G0 Z20
G0 X125.981975 Y158.05106

G1 Z-0.125 F100
G1 X122.711975 Y161.32106 Z-0.125 F400
G1 X117.257975 Y161.32106 Z-0.125
G1 X113.987975 Y158.05106 Z-0.125
G1 X119.984975 Y152.05306 Z-0.125
G1 X125.981975 Y158.05106 Z-0.125
G0 Z20
(Block-name: path4-6 [in,cut])
(Block-expand: 0)
(Block-enable: 1)
g0 x124.56782 y158.051001
g1 z-1 f500
g1 x122.297761 y160.32106 f1200
g1 x117.672189 y160.32106
g1 x115.40213 y158.051001
g1 x119.984975 y153.467391
g1 x124.56782 y158.051001
g1 z-2 f500
g1 x122.297761 y160.32106 f1200
g1 x117.672189 y160.32106
g1 x115.40213 y158.051001
g1 x119.984975 y153.467391
g1 x124.56782 y158.051001
g1 z-3 f500
g1 x122.297761 y160.32106 f1200
g1 x117.672189 y160.32106
g1 x115.40213 y158.051001
g1 x119.984975 y153.467391
g1 x124.56782 y158.051001
g0 z30
(Block-name: path4-6)
(Block-expand: 0)
(Block-enable: 0)

(End cutting path id: path4-6)


(Start cutting path id: path4-6)
(Change tool to Default tool)

G0 Z20
G0 X135.514975 Y148.51806

G1 Z-0.125 F100
G1 X129.517975 Y154.51506 Z-0.125 F400
G1 X125.338975 Y150.33607 Z-0.125
G1 X135.185975 Y148.18905 Z-0.125
G1 X135.514975 Y148.51806 Z-0.125
G0 Z20
(Block-name: path4-6 [in,cut])
(Block-expand: 0)
(Block-enable: 1)
g0 x132.910036 y149.708785
g1 z-1 f500
g1 x129.517974 y153.100847 f1200
g1 x127.340317 y150.923196
g1 x132.910036 y149.708785
g1 z-2 f500
g1 x129.517974 y153.100847 f1200
g1 x127.340317 y150.923196
g1 x132.910036 y149.708785
g1 z-3 f500
g1 x129.517974 y153.100847 f1200
g1 x127.340317 y150.923196
g1 x132.910036 y149.708785
g0 z30
(Block-name: path4-6)
(Block-expand: 0)
(Block-enable: 0)

(End cutting path id: path4-6)


(Start cutting path id: path4-6)
(Change tool to Default tool)

G0 Z20
G0 X173.646175 Y148.51806

G1 Z-0.125 F100
G1 X167.648875 Y154.51506 Z-0.125 F400
G1 X161.651675 Y148.51806 Z-0.125
G1 X167.648875 Y142.52006 Z-0.125
G1 X173.646175 Y148.51806 Z-0.125
G0 Z20
(Block-name: path4-6 [in,cut])
(Block-expand: 0)
(Block-enable: 1)
g0 x172.231985 y148.518001
g1 z-1 f500
g1 x167.648881 y153.100876 f1200
g1 x163.065853 y148.518001
g1 x167.648881 y143.934362
g1 x172.231985 y148.518001
g1 z-2 f500
g1 x167.648881 y153.100876 f1200
g1 x163.065853 y148.518001
g1 x167.648881 y143.934362
g1 x172.231985 y148.518001
g1 z-3 f500
g1 x167.648881 y153.100876 f1200
g1 x163.065853 y148.518001
g1 x167.648881 y143.934362
g1 x172.231985 y148.518001
g0 z30
(Block-name: path4-6)
(Block-expand: 0)
(Block-enable: 0)

(End cutting path id: path4-6)


(Start cutting path id: path4-6)
(Change tool to Default tool)

G0 Z20
G0 X192.711775 Y148.51806

G1 Z-0.125 F100
G1 X186.714375 Y154.51506 Z-0.125 F400
G1 X180.717275 Y148.51806 Z-0.125
G1 X186.714375 Y142.52006 Z-0.125
G1 X192.711775 Y148.51806 Z-0.125
G0 Z20
(Block-name: path4-6 [in,cut])
(Block-expand: 0)
(Block-enable: 1)
g0 x191.297573 y148.518001
g1 z-1 f500
g1 x186.714393 y153.100876 f1200
g1 x182.131441 y148.518001
g1 x186.714393 y143.934362
g1 x191.297573 y148.518001
g1 z-2 f500
g1 x186.714393 y153.100876 f1200
g1 x182.131441 y148.518001
g1 x186.714393 y143.934362
g1 x191.297573 y148.518001
g1 z-3 f500
g1 x186.714393 y153.100876 f1200
g1 x182.131441 y148.518001
g1 x186.714393 y143.934362
g1 x191.297573 y148.518001
g0 z30
(Block-name: path4-6)
(Block-expand: 0)
(Block-enable: 0)

(End cutting path id: path4-6)


(Start cutting path id: path4-6)
(Change tool to Default tool)

G0 Z20
G0 X154.580675 Y148.51806

G1 Z-0.125 F100
G1 X148.582975 Y154.51506 Z-0.125 F400
G1 X142.585975 Y148.51806 Z-0.125
G1 X145.070975 Y146.03307 Z-0.125
G1 X150.838575 Y144.77606 Z-0.125
G1 X154.580675 Y148.51806 Z-0.125
G0 Z20
(Block-name: path4-6 [in,cut])
(Block-expand: 0)
(Block-enable: 1)
g0 x153.166411 y148.518028
g1 z-1 f500
g1 x148.583016 y153.100888 f1200
g1 x144.00019 y148.518061
g1 x145.570605 y146.947653
g1 x150.517764 y145.869453
g1 x153.166411 y148.518028
g1 z-2 f500
g1 x148.583016 y153.100888 f1200
g1 x144.00019 y148.518061
g1 x145.570605 y146.947653
g1 x150.517764 y145.869453
g1 x153.166411 y148.518028
g1 z-3 f500
g1 x148.583016 y153.100888 f1200
g1 x144.00019 y148.518061
g1 x145.570605 y146.947653
g1 x150.517764 y145.869453
g1 x153.166411 y148.518028
g0 z30
(Block-name: path4-6)
(Block-expand: 0)
(Block-enable: 0)

(End cutting path id: path4-6)


(Start cutting path id: path4-6)
(Change tool to Default tool)

G0 Z20
G0 X183.178975 Y138.98507

G1 Z-0.125 F100
G1 X177.181675 Y144.98207 Z-0.125 F400
G1 X171.184475 Y138.98507 Z-0.125
G1 X177.181675 Y132.98805 Z-0.125
G1 X183.178975 Y138.98507 Z-0.125
G0 Z20
(Block-name: path4-6 [in,cut])
(Block-expand: 0)
(Block-enable: 1)
g0 x181.764727 y138.985069
g1 z-1 f500
g1 x177.181681 y143.567886 f1200
g1 x172.598711 y138.985069
g1 x177.181681 y134.402236
g1 x181.764727 y138.985069
g1 z-2 f500
g1 x177.181681 y143.567886 f1200
g1 x172.598711 y138.985069
g1 x177.181681 y134.402236
g1 x181.764727 y138.985069
g1 z-3 f500
g1 x177.181681 y143.567886 f1200
g1 x172.598711 y138.985069
g1 x177.181681 y134.402236
g1 x181.764727 y138.985069
g0 z30
(Block-name: path4-6)
(Block-expand: 0)
(Block-enable: 0)

(End cutting path id: path4-6)


(Start cutting path id: path4-6)
(Change tool to Default tool)

G0 Z20
G0 X199.580475 Y136.32106

G1 Z-0.125 F100
G1 X200.779975 Y137.52007 Z-0.125 F400
G1 X200.779975 Y140.45007 Z-0.125
G1 X196.247175 Y144.98207 Z-0.125
G1 X190.250075 Y138.98507 Z-0.125
G1 X192.914075 Y136.32106 Z-0.125
G1 X199.580475 Y136.32106 Z-0.125
G0 Z20
(Block-name: path4-6 [in,cut])
(Block-expand: 0)
(Block-enable: 1)
g0 x199.166381 y137.32106
g1 z-1 f500
g1 x199.779975 y137.934403 f1200
g1 x199.779975 y140.035805
g1 x196.247232 y143.567925
g1 x191.664293 y138.985063
g1 x193.32829 y137.32106
g1 x199.166381 y137.32106
g1 z-2 f500
g1 x199.779975 y137.934403 f1200
g1 x199.779975 y140.035805
g1 x196.247232 y143.567925
g1 x191.664293 y138.985063
g1 x193.32829 y137.32106
g1 x199.166381 y137.32106
g1 z-3 f500
g1 x199.779975 y137.934403 f1200
g1 x199.779975 y140.035805
g1 x196.247232 y143.567925
g1 x191.664293 y138.985063
g1 x193.32829 y137.32106
g1 x199.166381 y137.32106
g0 z30
(Block-name: path4-6)
(Block-expand: 0)
(Block-enable: 0)

(End cutting path id: path4-6)


(Start cutting path id: path4-6)
(Change tool to Default tool)

G0 Z20
G0 X164.113375 Y138.98507

G1 Z-0.125 F100
G1 X158.116075 Y144.98207 Z-0.125 F400
G1 X155.779975 Y142.64606 Z-0.125
G1 X155.779975 Y135.32406 Z-0.125
G1 X158.116075 Y132.98805 Z-0.125
G1 X164.113375 Y138.98507 Z-0.125
G0 Z20
(Block-name: path4-6 [in,cut])
(Block-expand: 0)
(Block-enable: 1)
g0 x162.699127 y138.985069
g1 z-1 f500
g1 x158.116079 y143.567888 f1200
g1 x156.779975 y142.231835
g1 x156.779975 y135.738285
g1 x158.116078 y134.402233
g1 x162.699127 y138.985069
g1 z-2 f500
g1 x158.116079 y143.567888 f1200
g1 x156.779975 y142.231835
g1 x156.779975 y135.738285
g1 x158.116078 y134.402233
g1 x162.699127 y138.985069
g1 z-3 f500
g1 x158.116079 y143.567888 f1200
g1 x156.779975 y142.231835
g1 x156.779975 y135.738285
g1 x158.116078 y134.402233
g1 x162.699127 y138.985069
g0 z30
(Block-name: path4-6)
(Block-expand: 0)
(Block-enable: 0)

(End cutting path id: path4-6)


(Start cutting path id: path4-6)
(Change tool to Default tool)

G0 Z20
G0 X173.646175 Y129.45206

G1 Z-0.125 F100
G1 X167.648875 Y135.44908 Z-0.125 F400
G1 X161.651675 Y129.45206 Z-0.125
G1 X167.648875 Y123.45506 Z-0.125
G1 X173.646175 Y129.45206 Z-0.125
G0 Z20
(Block-name: path4-6 [in,cut])
(Block-expand: 0)
(Block-enable: 1)
g0 x172.231927 y129.452061
g1 z-1 f500
g1 x167.648881 y134.034894 f1200
g1 x163.065911 y129.452061
g1 x167.648881 y124.869244
g1 x172.231927 y129.452061
g1 z-2 f500
g1 x167.648881 y134.034894 f1200
g1 x163.065911 y129.452061
g1 x167.648881 y124.869244
g1 x172.231927 y129.452061
g1 z-3 f500
g1 x167.648881 y134.034894 f1200
g1 x163.065911 y129.452061
g1 x167.648881 y124.869244
g1 x172.231927 y129.452061
g0 z30
(Block-name: path4-6)
(Block-expand: 0)
(Block-enable: 0)

(End cutting path id: path4-6)


(Start cutting path id: path4-6)
(Change tool to Default tool)

G0 Z20
G0 X177.688375 Y125.41007

G1 Z-0.125 F100
G1 X177.181675 Y125.91706 Z-0.125 F400
G1 X171.184475 Y119.91907 Z-0.125
G1 X174.417175 Y116.68707 Z-0.125
G1 X177.688375 Y125.41007 Z-0.125
G0 Z20
(Block-name: path4-6 [in,cut])
(Block-expand: 0)
(Block-enable: 1)
g0 x175.739053 y123.059941
g1 z-1 f500
g1 x172.598719 y119.919193 f1200
g1 x174.026086 y118.492135
g1 x175.739053 y123.059941
g1 z-2 f500
g1 x172.598719 y119.919193 f1200
g1 x174.026086 y118.492135
g1 x175.739053 y123.059941
g1 z-3 f500
g1 x172.598719 y119.919193 f1200
g1 x174.026086 y118.492135
g1 x175.739053 y123.059941
g0 z30
(Block-name: path4-6)
(Block-expand: 0)
(Block-enable: 0)

(End cutting path id: path4-6)


(Start cutting path id: path4-6)
(Change tool to Default tool)

G0 Z20
G0 X164.113375 Y119.91907

G1 Z-0.125 F100
G1 X158.116075 Y125.91706 Z-0.125 F400
G1 X155.779975 Y123.58106 Z-0.125
G1 X155.779975 Y116.25805 Z-0.125
G1 X158.116075 Y113.92207 Z-0.125
G1 X164.113375 Y119.91907 Z-0.125
G0 Z20
(Block-name: path4-6 [in,cut])
(Block-expand: 0)
(Block-enable: 1)
g0 x162.699184 y119.919128
g1 z-1 f500
g1 x158.116019 y124.502821 f1200
g1 x156.779975 y123.166834
g1 x156.779975 y116.672279
g1 x158.116075 y115.336248
g1 x162.699184 y119.919128
g1 z-2 f500
g1 x158.116019 y124.502821 f1200
g1 x156.779975 y123.166834
g1 x156.779975 y116.672279
g1 x158.116075 y115.336248
g1 x162.699184 y119.919128
g1 z-3 f500
g1 x158.116019 y124.502821 f1200
g1 x156.779975 y123.166834
g1 x156.779975 y116.672279
g1 x158.116075 y115.336248
g1 x162.699184 y119.919128
g0 z30
(Block-name: path4-6)
(Block-expand: 0)
(Block-enable: 0)

(End cutting path id: path4-6)


(Start cutting path id: path4-6)
(Change tool to Default tool)

G0 Z20
G0 X159.580475 Y96.32106

G1 Z-0.125 F100
G1 X164.113375 Y100.85406 Z-0.125 F400
G1 X158.116075 Y106.85106 Z-0.125
G1 X155.779975 Y104.51508 Z-0.125
G1 X155.779975 Y97.19308 Z-0.125
G1 X156.651675 Y96.32106 Z-0.125
G1 X159.580475 Y96.32106 Z-0.125
G0 Z20
(Block-name: path4-6 [in,cut])
(Block-expand: 0)
(Block-enable: 1)
g0 x159.166255 y97.32106
g1 z-1 f500
g1 x162.699152 y100.854035 f1200
g1 x158.116075 y105.436882
g1 x156.779975 y104.100851
g1 x156.779975 y97.607186
g1 x157.065996 y97.32106
g1 x159.166255 y97.32106
g1 z-2 f500
g1 x162.699152 y100.854035 f1200
g1 x158.116075 y105.436882
g1 x156.779975 y104.100851
g1 x156.779975 y97.607186
g1 x157.065996 y97.32106
g1 x159.166255 y97.32106
g1 z-3 f500
g1 x162.699152 y100.854035 f1200
g1 x158.116075 y105.436882
g1 x156.779975 y104.100851
g1 x156.779975 y97.607186
g1 x157.065996 y97.32106
g1 x159.166255 y97.32106
g0 z30
(Block-name: path4-6)
(Block-expand: 0)
(Block-enable: 0)

(End cutting path id: path4-6)


(Start cutting path id: path4-6)
(Change tool to Default tool)

G0 Z20
G0 X172.488675 Y111.54405

G1 Z-0.125 F100
G1 X167.648875 Y116.38407 Z-0.125 F400
G1 X161.651675 Y110.38705 Z-0.125
G1 X167.648875 Y104.38906 Z-0.125
G1 X171.099775 Y107.84007 Z-0.125
G1 X172.488675 Y111.54405 Z-0.125
G0 Z20
(Block-name: path4-6 [in,cut])
(Block-expand: 0)
(Block-enable: 1)
g0 x171.326269 y111.292263
g1 z-1 f500
g1 x167.648848 y114.969851 f1200
g1 x163.065853 y110.386993
g1 x167.64891 y105.803331
g1 x170.239491 y108.393995
g1 x171.326269 y111.292263
g1 z-2 f500
g1 x167.648848 y114.969851 f1200
g1 x163.065853 y110.386993
g1 x167.64891 y105.803331
g1 x170.239491 y108.393995
g1 x171.326269 y111.292263
g1 z-3 f500
g1 x167.648848 y114.969851 f1200
g1 x163.065853 y110.386993
g1 x167.64891 y105.803331
g1 x170.239491 y108.393995
g1 x171.326269 y111.292263
g0 z30
(Block-name: path4-6-7-3-5)
(Block-expand: 0)
(Block-enable: 0)

(End cutting path id: path4-6-7-3-5)


(Start cutting path id: path4-6-7-3-5)
(Change tool to Default tool)

G00 Z20.000000
G00 X68.454625 Y12.522000

G01 Z-0.125000 F100.0(Penetrate)
G01 X68.604625 Y12.885000 Z-0.125000 F400.000000
G01 X68.809625 Y13.219010 Z-0.125000
G01 X69.064625 Y13.517980 Z-0.125000
G01 X69.362625 Y13.771980 Z-0.125000
G01 X69.697625 Y13.977990 Z-0.125000
G01 X70.059625 Y14.127980 Z-0.125000
G01 X70.440625 Y14.218980 Z-0.125000
G01 X70.831625 Y14.249980 Z-0.125000
G01 X111.121630 Y14.249980 Z-0.125000
G01 X111.512630 Y14.218980 Z-0.125000
G01 X111.893630 Y14.127980 Z-0.125000
G01 X112.256630 Y13.977990 Z-0.125000
G01 X112.591630 Y13.771980 Z-0.125000
G01 X112.889630 Y13.517980 Z-0.125000
G01 X113.143630 Y13.219010 Z-0.125000
G01 X113.349630 Y12.885000 Z-0.125000
G01 X113.499630 Y12.522000 Z-0.125000
G01 X113.590630 Y12.141000 Z-0.125000
G01 X113.621630 Y11.749990 Z-0.125000
G01 X113.621630 Y7.749990 Z-0.125000
G01 X113.590630 Y7.359000 Z-0.125000
G01 X113.499630 Y6.976980 Z-0.125000
G01 X113.349630 Y6.615010 Z-0.125000
G01 X113.143630 Y6.281000 Z-0.125000
G01 X112.889630 Y5.982000 Z-0.125000
G01 X112.591630 Y5.726980 Z-0.125000
G01 X112.256630 Y5.522000 Z-0.125000
G01 X111.893630 Y5.372000 Z-0.125000
G01 X111.512630 Y5.281000 Z-0.125000
G01 X111.121630 Y5.250000 Z-0.125000
G01 X70.831625 Y5.250000 Z-0.125000
G01 X70.440625 Y5.281000 Z-0.125000
G01 X70.059625 Y5.372000 Z-0.125000
G01 X69.697625 Y5.522000 Z-0.125000
G01 X69.362625 Y5.726980 Z-0.125000
G01 X69.064625 Y5.982000 Z-0.125000
G01 X68.809625 Y6.281000 Z-0.125000
G01 X68.604625 Y6.615010 Z-0.125000
G01 X68.454625 Y6.976980 Z-0.125000
G01 X68.362625 Y7.359000 Z-0.125000
G01 X68.331625 Y7.749990 Z-0.125000
G01 X68.331625 Y11.749990 Z-0.125000
G01 X68.362625 Y12.141000 Z-0.125000
G01 X68.454625 Y12.522000 Z-0.125000
G00 Z20.000000
(Block-name: path4-6-7-3-5 [in,cut])
(Block-expand: 0)
(Block-enable: 1)
g0 x69.408469 y12.21183
g1 z-1 f500
g1 x69.498476 y12.429646 f1200
g1 x69.621093 y12.629428
g1 x69.773846 y12.808521
g1 x69.952397 y12.960709
g1 x70.153792 y13.084557
g1 x70.369107 y13.17377
g1 x70.597241 y13.228259
g1 x70.871205 y13.24998
g1 x111.08205 y13.24998
g1 x111.356014 y13.228259
g1 x111.584625 y13.173656
g1 x111.800881 y13.0843
g1 x112.001858 y12.960709
g1 x112.179666 y12.809154
g1 x112.332359 y12.629427
g1 x112.456196 y12.428636
g1 x112.545309 y12.212984
g1 x112.599909 y11.984385
g1 x112.62163 y11.710411
g1 x112.62163 y7.789571
g1 x112.599885 y7.515315
g1 x112.54531 y7.286207
g1 x112.456462 y7.071804
g1 x112.332346 y6.870562
g1 x112.179002 y6.690051
g1 x112.001864 y6.538461
g1 x111.80191 y6.416113
g1 x111.584614 y6.326321
g1 x111.356014 y6.271721
g1 x111.08205 y6.25
g1 x70.871205 y6.25
g1 x70.597241 y6.271721
g1 x70.369118 y6.326207
g1 x70.152764 y6.415857
g1 x69.952391 y6.538461
g1 x69.774511 y6.690685
g1 x69.621106 y6.870561
g1 x69.498212 y7.070794
g1 x69.408468 y7.287358
g1 x69.353271 y7.516556
g1 x69.331625 y7.789571
g1 x69.331625 y11.710411
g1 x69.353247 y11.98314
g1 x69.408469 y12.21183
g1 z-2 f500
g1 x69.498476 y12.429646 f1200
g1 x69.621093 y12.629428
g1 x69.773846 y12.808521
g1 x69.952397 y12.960709
g1 x70.153792 y13.084557
g1 x70.369107 y13.17377
g1 x70.597241 y13.228259
g1 x70.871205 y13.24998
g1 x111.08205 y13.24998
g1 x111.356014 y13.228259
g1 x111.584625 y13.173656
g1 x111.800881 y13.0843
g1 x112.001858 y12.960709
g1 x112.179666 y12.809154
g1 x112.332359 y12.629427
g1 x112.456196 y12.428636
g1 x112.545309 y12.212984
g1 x112.599909 y11.984385
g1 x112.62163 y11.710411
g1 x112.62163 y7.789571
g1 x112.599885 y7.515315
g1 x112.54531 y7.286207
g1 x112.456462 y7.071804
g1 x112.332346 y6.870562
g1 x112.179002 y6.690051
g1 x112.001864 y6.538461
g1 x111.80191 y6.416113
g1 x111.584614 y6.326321
g1 x111.356014 y6.271721
g1 x111.08205 y6.25
g1 x70.871205 y6.25
g1 x70.597241 y6.271721
g1 x70.369118 y6.326207
g1 x70.152764 y6.415857
g1 x69.952391 y6.538461
g1 x69.774511 y6.690685
g1 x69.621106 y6.870561
g1 x69.498212 y7.070794
g1 x69.408468 y7.287358
g1 x69.353271 y7.516556
g1 x69.331625 y7.789571
g1 x69.331625 y11.710411
g1 x69.353247 y11.98314
g1 x69.408469 y12.21183
g1 z-3 f500
g1 x69.498476 y12.429646 f1200
g1 x69.621093 y12.629428
g1 x69.773846 y12.808521
g1 x69.952397 y12.960709
g1 x70.153792 y13.084557
g1 x70.369107 y13.17377
g1 x70.597241 y13.228259
g1 x70.871205 y13.24998
g1 x111.08205 y13.24998
g1 x111.356014 y13.228259
g1 x111.584625 y13.173656
g1 x111.800881 y13.0843
g1 x112.001858 y12.960709
g1 x112.179666 y12.809154
g1 x112.332359 y12.629427
g1 x112.456196 y12.428636
g1 x112.545309 y12.212984
g1 x112.599909 y11.984385
g1 x112.62163 y11.710411
g1 x112.62163 y7.789571
g1 x112.599885 y7.515315
g1 x112.54531 y7.286207
g1 x112.456462 y7.071804
g1 x112.332346 y6.870562
g1 x112.179002 y6.690051
g1 x112.001864 y6.538461
g1 x111.80191 y6.416113
g1 x111.584614 y6.326321
g1 x111.356014 y6.271721
g1 x111.08205 y6.25
g1 x70.871205 y6.25
g1 x70.597241 y6.271721
g1 x70.369118 y6.326207
g1 x70.152764 y6.415857
g1 x69.952391 y6.538461
g1 x69.774511 y6.690685
g1 x69.621106 y6.870561
g1 x69.498212 y7.070794
g1 x69.408468 y7.287358
g1 x69.353271 y7.516556
g1 x69.331625 y7.789571
g1 x69.331625 y11.710411
g1 x69.353247 y11.98314
g1 x69.408469 y12.21183
g0 z30
(Block-name: path4-6-7-3-5)
(Block-expand: 0)
(Block-enable: 0)

(End cutting path id: path4-6-7-3-5)


(Start cutting path id: path4-6-7-3-5)
(Change tool to Default tool)

G00 Z20.000000
G00 X58.301625 Y7.359000

G01 Z-0.125000 F100.0(Penetrate)
G01 X58.209625 Y6.976980 Z-0.125000 F400.000000
G01 X58.059625 Y6.615010 Z-0.125000
G01 X57.854625 Y6.281000 Z-0.125000
G01 X57.599625 Y5.982000 Z-0.125000
G01 X57.301625 Y5.726980 Z-0.125000
G01 X56.966625 Y5.522000 Z-0.125000
G01 X56.604625 Y5.372000 Z-0.125000
G01 X56.223625 Y5.281000 Z-0.125000
G01 X55.831625 Y5.250000 Z-0.125000
G01 X15.542626 Y5.250000 Z-0.125000
G01 X15.151626 Y5.281000 Z-0.125000
G01 X14.769626 Y5.372000 Z-0.125000
G01 X14.407626 Y5.522000 Z-0.125000
G01 X14.073626 Y5.726980 Z-0.125000
G01 X13.774626 Y5.982000 Z-0.125000
G01 X13.519626 Y6.281000 Z-0.125000
G01 X13.315625 Y6.615010 Z-0.125000
G01 X13.164626 Y6.976980 Z-0.125000
G01 X13.073626 Y7.359000 Z-0.125000
G01 X13.042626 Y7.749990 Z-0.125000
G01 X13.042626 Y11.749990 Z-0.125000
G01 X13.073626 Y12.141000 Z-0.125000
G01 X13.164626 Y12.522000 Z-0.125000
G01 X13.315625 Y12.885000 Z-0.125000
G01 X13.519626 Y13.219010 Z-0.125000
G01 X13.774625 Y13.517980 Z-0.125000
G01 X14.073626 Y13.771980 Z-0.125000
G01 X14.407626 Y13.977990 Z-0.125000
G01 X14.769626 Y14.127980 Z-0.125000
G01 X15.151626 Y14.218980 Z-0.125000
G01 X15.542626 Y14.249980 Z-0.125000
G01 X55.831625 Y14.249980 Z-0.125000
G01 X56.223626 Y14.218980 Z-0.125000
G01 X56.604626 Y14.127980 Z-0.125000
G01 X56.966626 Y13.977990 Z-0.125000
G01 X57.301626 Y13.771980 Z-0.125000
G01 X57.599626 Y13.517980 Z-0.125000
G01 X57.854626 Y13.219010 Z-0.125000
G01 X58.059626 Y12.885000 Z-0.125000
G01 X58.209626 Y12.522000 Z-0.125000
G01 X58.301626 Y12.141000 Z-0.125000
G01 X58.331626 Y11.749990 Z-0.125000
G01 X58.331626 Y7.749990 Z-0.125000
G01 X58.301625 Y7.359000 Z-0.125000
G00 Z20.000000
(Block-name: path4-6-7-3-5 [in,cut])
(Block-expand: 0)
(Block-enable: 1)
g0 x57.31068 y7.515314
g1 z-1 f500
g1 x57.255782 y7.287358 f1200
g1 x57.166038 y7.070794
g1 x57.043144 y6.870561
g1 x56.889739 y6.690685
g1 x56.711859 y6.538461
g1 x56.511486 y6.415857
g1 x56.295132 y6.326207
g1 x56.067107 y6.271744
g1 x55.792146 y6.25
g1 x15.582206 y6.25
g1 x15.307945 y6.271744
g1 x15.078844 y6.326321
g1 x14.863384 y6.4156
g1 x14.663192 y6.53846
g1 x14.483972 y6.691319
g1 x14.331817 y6.869728
g1 x14.209014 y7.070793
g1 x14.118671 y7.287359
g1 x14.064371 y7.515315
g1 x14.042626 y7.789571
g1 x14.042626 y11.710411
g1 x14.064347 y11.984385
g1 x14.118672 y12.211834
g1 x14.209278 y12.42965
g1 x14.331804 y12.630262
g1 x14.483306 y12.807888
g1 x14.6632 y12.960707
g1 x14.864413 y13.084814
g1 x15.078833 y13.173656
g1 x15.307945 y13.228236
g1 x15.582206 y13.24998
g1 x55.792146 y13.24998
g1 x56.067108 y13.228236
g1 x56.295144 y13.17377
g1 x56.510459 y13.084557
g1 x56.711854 y12.960709
g1 x56.890405 y12.808521
g1 x57.043158 y12.629428
g1 x57.165775 y12.429646
g1 x57.255782 y12.21183
g1 x57.310703 y11.984384
g1 x57.331626 y11.711684
g1 x57.331626 y7.788299
g1 x57.31068 y7.515314
g1 z-2 f500
g1 x57.255782 y7.287358 f1200
g1 x57.166038 y7.070794
g1 x57.043144 y6.870561
g1 x56.889739 y6.690685
g1 x56.711859 y6.538461
g1 x56.511486 y6.415857
g1 x56.295132 y6.326207
g1 x56.067107 y6.271744
g1 x55.792146 y6.25
g1 x15.582206 y6.25
g1 x15.307945 y6.271744
g1 x15.078844 y6.326321
g1 x14.863384 y6.4156
g1 x14.663192 y6.53846
g1 x14.483972 y6.691319
g1 x14.331817 y6.869728
g1 x14.209014 y7.070793
g1 x14.118671 y7.287359
g1 x14.064371 y7.515315
g1 x14.042626 y7.789571
g1 x14.042626 y11.710411
g1 x14.064347 y11.984385
g1 x14.118672 y12.211834
g1 x14.209278 y12.42965
g1 x14.331804 y12.630262
g1 x14.483306 y12.807888
g1 x14.6632 y12.960707
g1 x14.864413 y13.084814
g1 x15.078833 y13.173656
g1 x15.307945 y13.228236
g1 x15.582206 y13.24998
g1 x55.792146 y13.24998
g1 x56.067108 y13.228236
g1 x56.295144 y13.17377
g1 x56.510459 y13.084557
g1 x56.711854 y12.960709
g1 x56.890405 y12.808521
g1 x57.043158 y12.629428
g1 x57.165775 y12.429646
g1 x57.255782 y12.21183
g1 x57.310703 y11.984384
g1 x57.331626 y11.711684
g1 x57.331626 y7.788299
g1 x57.31068 y7.515314
g1 z-3 f500
g1 x57.255782 y7.287358 f1200
g1 x57.166038 y7.070794
g1 x57.043144 y6.870561
g1 x56.889739 y6.690685
g1 x56.711859 y6.538461
g1 x56.511486 y6.415857
g1 x56.295132 y6.326207
g1 x56.067107 y6.271744
g1 x55.792146 y6.25
g1 x15.582206 y6.25
g1 x15.307945 y6.271744
g1 x15.078844 y6.326321
g1 x14.863384 y6.4156
g1 x14.663192 y6.53846
g1 x14.483972 y6.691319
g1 x14.331817 y6.869728
g1 x14.209014 y7.070793
g1 x14.118671 y7.287359
g1 x14.064371 y7.515315
g1 x14.042626 y7.789571
g1 x14.042626 y11.710411
g1 x14.064347 y11.984385
g1 x14.118672 y12.211834
g1 x14.209278 y12.42965
g1 x14.331804 y12.630262
g1 x14.483306 y12.807888
g1 x14.6632 y12.960707
g1 x14.864413 y13.084814
g1 x15.078833 y13.173656
g1 x15.307945 y13.228236
g1 x15.582206 y13.24998
g1 x55.792146 y13.24998
g1 x56.067108 y13.228236
g1 x56.295144 y13.17377
g1 x56.510459 y13.084557
g1 x56.711854 y12.960709
g1 x56.890405 y12.808521
g1 x57.043158 y12.629428
g1 x57.165775 y12.429646
g1 x57.255782 y12.21183
g1 x57.310703 y11.984384
g1 x57.331626 y11.711684
g1 x57.331626 y7.788299
g1 x57.31068 y7.515314
g0 z30
(Block-name: path4-6-7-3)
(Block-expand: 0)
(Block-enable: 0)

(End cutting path id: path4-6-7-3)


(Start cutting path id: path4-6-7-3)
(Change tool to Default tool)

G0 Z20
G0 X88.263083 Y114.27895

G1 Z-0.125 F100
G1 X87.872083 Y114.30995 Z-0.125 F400
G1 X87.490083 Y114.40095 Z-0.125
G1 X87.128083 Y114.55094 Z-0.125
G1 X86.793083 Y114.75595 Z-0.125
G1 X86.495083 Y115.01096 Z-0.125
G1 X86.240083 Y115.30997 Z-0.125
G1 X86.035083 Y115.64398 Z-0.125
G1 X85.885083 Y116.00595 Z-0.125
G1 X85.794083 Y116.38796 Z-0.125
G1 X85.763083 Y116.77896 Z-0.125
G1 X85.763083 Y120.77896 Z-0.125
G1 X85.794083 Y121.16996 Z-0.125
G1 X85.885083 Y121.55096 Z-0.125
G1 X86.035083 Y121.91397 Z-0.125
G1 X86.240083 Y122.24798 Z-0.125
G1 X86.495083 Y122.54695 Z-0.125
G1 X86.793083 Y122.80095 Z-0.125
G1 X87.128083 Y123.00696 Z-0.125
G1 X87.490083 Y123.15695 Z-0.125
G1 X87.872083 Y123.24795 Z-0.125
G1 X88.263083 Y123.27895 Z-0.125
G1 X95.951083 Y123.27895 Z-0.125
G1 X96.343083 Y123.24795 Z-0.125
G1 X96.724083 Y123.15695 Z-0.125
G1 X97.086083 Y123.00696 Z-0.125
G1 X97.421083 Y122.80095 Z-0.125
G1 X97.719083 Y122.54695 Z-0.125
G1 X97.974083 Y122.24798 Z-0.125
G1 X98.179083 Y121.91397 Z-0.125
G1 X98.329083 Y121.55096 Z-0.125
G1 X98.421083 Y121.16996 Z-0.125
G1 X98.451083 Y120.77896 Z-0.125
G1 X98.451083 Y116.77896 Z-0.125
G1 X98.421083 Y116.38796 Z-0.125
G1 X98.329083 Y116.00595 Z-0.125
G1 X98.179083 Y115.64398 Z-0.125
G1 X97.974083 Y115.30997 Z-0.125
G1 X97.719083 Y115.01096 Z-0.125
G1 X97.421083 Y114.75595 Z-0.125
G1 X97.086083 Y114.55094 Z-0.125
G1 X96.724083 Y114.40095 Z-0.125
G1 X96.343083 Y114.30995 Z-0.125
G1 X95.951083 Y114.27895 Z-0.125
G1 X88.263083 Y114.27895 Z-0.125
G0 Z20
(Block-name: path4-6-7-3 [in,cut])
(Block-expand: 0)
(Block-enable: 1)
g0 x88.302663 y115.27895
g1 z-1 f500
g1 x88.028402 y115.300694 f1200
g1 x87.79929 y115.355274
g1 x87.583242 y115.44479
g1 x87.382866 y115.567415
g1 x87.204969 y115.719647
g1 x87.051568 y115.899524
g1 x86.92867 y116.099764
g1 x86.839402 y116.31518
g1 x86.784828 y116.544277
g1 x86.763083 y116.81854
g1 x86.763083 y120.73938
g1 x86.784804 y121.013344
g1 x86.839405 y121.241948
g1 x86.928936 y121.45862
g1 x87.051551 y121.658398
g1 x87.204304 y121.837491
g1 x87.382855 y121.989679
g1 x87.58425 y122.113527
g1 x87.79929 y122.202626
g1 x88.028402 y122.257206
g1 x88.302663 y122.27895
g1 x95.911604 y122.27895
g1 x96.186565 y122.257206
g1 x96.414601 y122.20274
g1 x96.629916 y122.113527
g1 x96.831311 y121.989679
g1 x97.009862 y121.837491
g1 x97.162615 y121.658398
g1 x97.28523 y121.45862
g1 x97.375238 y121.240795
g1 x97.430161 y121.013343
g1 x97.451083 y120.740653
g1 x97.451083 y116.817267
g1 x97.430137 y116.544275
g1 x97.375241 y116.316331
g1 x97.285496 y116.099764
g1 x97.162598 y115.899524
g1 x97.009197 y115.719647
g1 x96.8313 y115.567415
g1 x96.630924 y115.44479
g1 x96.414601 y115.35516
g1 x96.186565 y115.300694
g1 x95.911604 y115.27895
g1 x88.302663 y115.27895
g1 z-2 f500
g1 x88.028402 y115.300694 f1200
g1 x87.79929 y115.355274
g1 x87.583242 y115.44479
g1 x87.382866 y115.567415
g1 x87.204969 y115.719647
g1 x87.051568 y115.899524
g1 x86.92867 y116.099764
g1 x86.839402 y116.31518
g1 x86.784828 y116.544277
g1 x86.763083 y116.81854
g1 x86.763083 y120.73938
g1 x86.784804 y121.013344
g1 x86.839405 y121.241948
g1 x86.928936 y121.45862
g1 x87.051551 y121.658398
g1 x87.204304 y121.837491
g1 x87.382855 y121.989679
g1 x87.58425 y122.113527
g1 x87.79929 y122.202626
g1 x88.028402 y122.257206
g1 x88.302663 y122.27895
g1 x95.911604 y122.27895
g1 x96.186565 y122.257206
g1 x96.414601 y122.20274
g1 x96.629916 y122.113527
g1 x96.831311 y121.989679
g1 x97.009862 y121.837491
g1 x97.162615 y121.658398
g1 x97.28523 y121.45862
g1 x97.375238 y121.240795
g1 x97.430161 y121.013343
g1 x97.451083 y120.740653
g1 x97.451083 y116.817267
g1 x97.430137 y116.544275
g1 x97.375241 y116.316331
g1 x97.285496 y116.099764
g1 x97.162598 y115.899524
g1 x97.009197 y115.719647
g1 x96.8313 y115.567415
g1 x96.630924 y115.44479
g1 x96.414601 y115.35516
g1 x96.186565 y115.300694
g1 x95.911604 y115.27895
g1 x88.302663 y115.27895
g1 z-3 f500
g1 x88.028402 y115.300694 f1200
g1 x87.79929 y115.355274
g1 x87.583242 y115.44479
g1 x87.382866 y115.567415
g1 x87.204969 y115.719647
g1 x87.051568 y115.899524
g1 x86.92867 y116.099764
g1 x86.839402 y116.31518
g1 x86.784828 y116.544277
g1 x86.763083 y116.81854
g1 x86.763083 y120.73938
g1 x86.784804 y121.013344
g1 x86.839405 y121.241948
g1 x86.928936 y121.45862
g1 x87.051551 y121.658398
g1 x87.204304 y121.837491
g1 x87.382855 y121.989679
g1 x87.58425 y122.113527
g1 x87.79929 y122.202626
g1 x88.028402 y122.257206
g1 x88.302663 y122.27895
g1 x95.911604 y122.27895
g1 x96.186565 y122.257206
g1 x96.414601 y122.20274
g1 x96.629916 y122.113527
g1 x96.831311 y121.989679
g1 x97.009862 y121.837491
g1 x97.162615 y121.658398
g1 x97.28523 y121.45862
g1 x97.375238 y121.240795
g1 x97.430161 y121.013343
g1 x97.451083 y120.740653
g1 x97.451083 y116.817267
g1 x97.430137 y116.544275
g1 x97.375241 y116.316331
g1 x97.285496 y116.099764
g1 x97.162598 y115.899524
g1 x97.009197 y115.719647
g1 x96.8313 y115.567415
g1 x96.630924 y115.44479
g1 x96.414601 y115.35516
g1 x96.186565 y115.300694
g1 x95.911604 y115.27895
g1 x88.302663 y115.27895
g0 z30
(Block-name: path4-6-7-3)
(Block-expand: 0)
(Block-enable: 0)

(End cutting path id: path4-6-7-3)


(Start cutting path id: path4-6-7-3)
(Change tool to Default tool)

G0 Z20
G0 X110.951085 Y114.27895

G1 Z-0.125 F100
G1 X110.560085 Y114.30995 Z-0.125 F400
G1 X110.179085 Y114.40095 Z-0.125
G1 X109.816085 Y114.55094 Z-0.125
G1 X109.482085 Y114.75595 Z-0.125
G1 X109.184085 Y115.01096 Z-0.125
G1 X108.929085 Y115.30997 Z-0.125
G1 X108.724085 Y115.64398 Z-0.125
G1 X108.574085 Y116.00595 Z-0.125
G1 X108.482085 Y116.38796 Z-0.125
G1 X108.451085 Y116.77896 Z-0.125
G1 X108.451085 Y120.77896 Z-0.125
G1 X108.482085 Y121.16996 Z-0.125
G1 X108.574085 Y121.55096 Z-0.125
G1 X108.724085 Y121.91397 Z-0.125
G1 X108.929085 Y122.24798 Z-0.125
G1 X109.184085 Y122.54695 Z-0.125
G1 X109.482085 Y122.80095 Z-0.125
G1 X109.816085 Y123.00696 Z-0.125
G1 X110.179085 Y123.15695 Z-0.125
G1 X110.560085 Y123.24795 Z-0.125
G1 X110.951085 Y123.27895 Z-0.125
G1 X118.640085 Y123.27895 Z-0.125
G1 X119.031085 Y123.24795 Z-0.125
G1 X119.413085 Y123.15695 Z-0.125
G1 X119.775085 Y123.00696 Z-0.125
G1 X120.109085 Y122.80095 Z-0.125
G1 X120.408085 Y122.54695 Z-0.125
G1 X120.663085 Y122.24798 Z-0.125
G1 X120.868085 Y121.91397 Z-0.125
G1 X121.018085 Y121.55096 Z-0.125
G1 X121.109085 Y121.16996 Z-0.125
G1 X121.140085 Y120.77896 Z-0.125
G1 X121.140085 Y116.77896 Z-0.125
G1 X121.109085 Y116.38796 Z-0.125
G1 X121.018085 Y116.00595 Z-0.125
G1 X120.868085 Y115.64398 Z-0.125
G1 X120.663085 Y115.30997 Z-0.125
G1 X120.408085 Y115.01096 Z-0.125
G1 X120.109085 Y114.75595 Z-0.125
G1 X119.775085 Y114.55094 Z-0.125
G1 X119.413085 Y114.40095 Z-0.125
G1 X119.031085 Y114.30995 Z-0.125
G1 X118.640085 Y114.27895 Z-0.125
G1 X110.951085 Y114.27895 Z-0.125
G0 Z20
(Block-name: path4-6-7-3 [in,cut])
(Block-expand: 0)
(Block-enable: 1)
g0 x110.990665 y115.27895
g1 z-1 f500
g1 x110.716701 y115.300671 f1200
g1 x110.48809 y115.355274
g1 x110.271445 y115.44479
g1 x110.072377 y115.566979
g1 x109.893971 y115.719647
g1 x109.74057 y115.899524
g1 x109.617672 y116.099764
g1 x109.527927 y116.316331
g1 x109.472731 y116.545518
g1 x109.451085 y116.81854
g1 x109.451085 y120.73938
g1 x109.472707 y121.012099
g1 x109.52793 y121.240795
g1 x109.617938 y121.45862
g1 x109.740553 y121.658398
g1 x109.893306 y121.837491
g1 x110.072368 y121.990114
g1 x110.272455 y122.113527
g1 x110.48809 y122.202626
g1 x110.716701 y122.257229
g1 x110.990665 y122.27895
g1 x118.600505 y122.27895
g1 x118.874766 y122.257206
g1 x119.103878 y122.202626
g1 x119.318298 y122.113784
g1 x119.51951 y121.989678
g1 x119.699404 y121.836858
g1 x119.851617 y121.658398
g1 x119.974232 y121.45862
g1 x120.063763 y121.241948
g1 x120.118364 y121.013344
g1 x120.140085 y120.73938
g1 x120.140085 y116.81854
g1 x120.11834 y116.544277
g1 x120.063766 y116.31518
g1 x119.974498 y116.099764
g1 x119.8516 y115.899524
g1 x119.698739 y115.720281
g1 x119.519503 y115.567414
g1 x119.319307 y115.444534
g1 x119.103878 y115.355274
g1 x118.874766 y115.300694
g1 x118.600505 y115.27895
g1 x110.990665 y115.27895
g1 z-2 f500
g1 x110.716701 y115.300671 f1200
g1 x110.48809 y115.355274
g1 x110.271445 y115.44479
g1 x110.072377 y115.566979
g1 x109.893971 y115.719647
g1 x109.74057 y115.899524
g1 x109.617672 y116.099764
g1 x109.527927 y116.316331
g1 x109.472731 y116.545518
g1 x109.451085 y116.81854
g1 x109.451085 y120.73938
g1 x109.472707 y121.012099
g1 x109.52793 y121.240795
g1 x109.617938 y121.45862
g1 x109.740553 y121.658398
g1 x109.893306 y121.837491
g1 x110.072368 y121.990114
g1 x110.272455 y122.113527
g1 x110.48809 y122.202626
g1 x110.716701 y122.257229
g1 x110.990665 y122.27895
g1 x118.600505 y122.27895
g1 x118.874766 y122.257206
g1 x119.103878 y122.202626
g1 x119.318298 y122.113784
g1 x119.51951 y121.989678
g1 x119.699404 y121.836858
g1 x119.851617 y121.658398
g1 x119.974232 y121.45862
g1 x120.063763 y121.241948
g1 x120.118364 y121.013344
g1 x120.140085 y120.73938
g1 x120.140085 y116.81854
g1 x120.11834 y116.544277
g1 x120.063766 y116.31518
g1 x119.974498 y116.099764
g1 x119.8516 y115.899524
g1 x119.698739 y115.720281
g1 x119.519503 y115.567414
g1 x119.319307 y115.444534
g1 x119.103878 y115.355274
g1 x118.874766 y115.300694
g1 x118.600505 y115.27895
g1 x110.990665 y115.27895
g1 z-3 f500
g1 x110.716701 y115.300671 f1200
g1 x110.48809 y115.355274
g1 x110.271445 y115.44479
g1 x110.072377 y115.566979
g1 x109.893971 y115.719647
g1 x109.74057 y115.899524
g1 x109.617672 y116.099764
g1 x109.527927 y116.316331
g1 x109.472731 y116.545518
g1 x109.451085 y116.81854
g1 x109.451085 y120.73938
g1 x109.472707 y121.012099
g1 x109.52793 y121.240795
g1 x109.617938 y121.45862
g1 x109.740553 y121.658398
g1 x109.893306 y121.837491
g1 x110.072368 y121.990114
g1 x110.272455 y122.113527
g1 x110.48809 y122.202626
g1 x110.716701 y122.257229
g1 x110.990665 y122.27895
g1 x118.600505 y122.27895
g1 x118.874766 y122.257206
g1 x119.103878 y122.202626
g1 x119.318298 y122.113784
g1 x119.51951 y121.989678
g1 x119.699404 y121.836858
g1 x119.851617 y121.658398
g1 x119.974232 y121.45862
g1 x120.063763 y121.241948
g1 x120.118364 y121.013344
g1 x120.140085 y120.73938
g1 x120.140085 y116.81854
g1 x120.11834 y116.544277
g1 x120.063766 y116.31518
g1 x119.974498 y116.099764
g1 x119.8516 y115.899524
g1 x119.698739 y115.720281
g1 x119.519503 y115.567414
g1 x119.319307 y115.444534
g1 x119.103878 y115.355274
g1 x118.874766 y115.300694
g1 x118.600505 y115.27895
g1 x110.990665 y115.27895
g0 z30
(Block-name: path4-6-7)
(Block-expand: 0)
(Block-enable: 0)

(End cutting path id: path4-6-7)


(Start cutting path id: path4-6-7)
(Change tool to Default tool)

G00 Z20.000000
G00 X168.855080 Y5.784570

G01 Z-0.125000 F100.0(Penetrate)
G01 X168.464000 Y5.815570 Z-0.125000 F400.000000
G01 X168.082530 Y5.906570 Z-0.125000
G01 X167.719980 Y6.056570 Z-0.125000
G01 X167.385510 Y6.261560 Z-0.125000
G01 X167.087200 Y6.516570 Z-0.125000
G01 X166.832530 Y6.815580 Z-0.125000
G01 X166.627450 Y7.149590 Z-0.125000
G01 X166.477300 Y7.511560 Z-0.125000
G01 X166.385800 Y7.893570 Z-0.125000
G01 X166.355100 Y8.284570 Z-0.125000
G01 X166.355100 Y12.284570 Z-0.125000
G01 X166.385800 Y12.675570 Z-0.125000
G01 X166.477300 Y13.056570 Z-0.125000
G01 X166.627450 Y13.419580 Z-0.125000
G01 X166.832530 Y13.753590 Z-0.125000
G01 X167.087200 Y14.052560 Z-0.125000
G01 X167.385510 Y14.306560 Z-0.125000
G01 X167.719980 Y14.512570 Z-0.125000
G01 X168.082530 Y14.662560 Z-0.125000
G01 X168.464000 Y14.753560 Z-0.125000
G01 X168.855080 Y14.784560 Z-0.125000
G01 X175.714980 Y14.784560 Z-0.125000
G01 X176.106080 Y14.753560 Z-0.125000
G01 X176.487480 Y14.662560 Z-0.125000
G01 X176.849880 Y14.512570 Z-0.125000
G01 X177.184580 Y14.306560 Z-0.125000
G01 X177.482680 Y14.052560 Z-0.125000
G01 X177.737480 Y13.753590 Z-0.125000
G01 X177.942580 Y13.419580 Z-0.125000
G01 X178.092580 Y13.056570 Z-0.125000
G01 X178.184280 Y12.675570 Z-0.125000
G01 X178.214980 Y12.284570 Z-0.125000
G01 X178.214980 Y8.284570 Z-0.125000
G01 X178.184280 Y7.893570 Z-0.125000
G01 X178.092580 Y7.511560 Z-0.125000
G01 X177.942580 Y7.149590 Z-0.125000
G01 X177.737480 Y6.815580 Z-0.125000
G01 X177.482680 Y6.516570 Z-0.125000
G01 X177.184580 Y6.261560 Z-0.125000
G01 X176.849880 Y6.056570 Z-0.125000
G01 X176.487480 Y5.906570 Z-0.125000
G01 X176.106080 Y5.815570 Z-0.125000
G01 X175.714980 Y5.784570 Z-0.125000
G01 X168.855080 Y5.784570 Z-0.125000
G00 Z20.000000
(Block-name: path4-6-7 [in,cut])
(Block-expand: 0)
(Block-enable: 1)
g0 x168.894652 y6.78457
g1 z-1 f500
g1 x168.620469 y6.806304 f1200
g1 x168.391631 y6.860893
g1 x168.175226 y6.950428
g1 x167.975325 y7.072943
g1 x167.797163 y7.225245
g1 x167.644127 y7.404926
g1 x167.52091 y7.605607
g1 x167.431339 y7.821539
g1 x167.376585 y8.050134
g1 x167.3551 y8.323768
g1 x167.3551 y12.245372
g1 x167.376561 y12.518704
g1 x167.431342 y12.746809
g1 x167.521177 y12.963998
g1 x167.644109 y13.164215
g1 x167.796498 y13.343113
g1 x167.975333 y13.495384
g1 x168.176245 y13.619132
g1 x168.39162 y13.708234
g1 x168.620469 y13.762826
g1 x168.894652 y13.78456
g1 x175.67541 y13.78456
g1 x175.949593 y13.762827
g1 x176.178299 y13.708259
g1 x176.393695 y13.619111
g1 x176.594726 y13.495375
g1 x176.773365 y13.343164
g1 x176.925981 y13.164091
g1 x177.048768 y12.964129
g1 x177.138592 y12.746751
g1 x177.193538 y12.518456
g1 x177.21498 y12.245372
g1 x177.21498 y8.323768
g1 x177.193515 y8.050383
g1 x177.138595 y7.821596
g1 x177.049035 y7.605475
g1 x176.925964 y7.405051
g1 x176.7727 y7.225194
g1 x176.594733 y7.072952
g1 x176.394713 y6.950448
g1 x176.178288 y6.860868
g1 x175.949593 y6.806303
g1 x175.67541 y6.78457
g1 x168.894652 y6.78457
g1 z-2 f500
g1 x168.620469 y6.806304 f1200
g1 x168.391631 y6.860893
g1 x168.175226 y6.950428
g1 x167.975325 y7.072943
g1 x167.797163 y7.225245
g1 x167.644127 y7.404926
g1 x167.52091 y7.605607
g1 x167.431339 y7.821539
g1 x167.376585 y8.050134
g1 x167.3551 y8.323768
g1 x167.3551 y12.245372
g1 x167.376561 y12.518704
g1 x167.431342 y12.746809
g1 x167.521177 y12.963998
g1 x167.644109 y13.164215
g1 x167.796498 y13.343113
g1 x167.975333 y13.495384
g1 x168.176245 y13.619132
g1 x168.39162 y13.708234
g1 x168.620469 y13.762826
g1 x168.894652 y13.78456
g1 x175.67541 y13.78456
g1 x175.949593 y13.762827
g1 x176.178299 y13.708259
g1 x176.393695 y13.619111
g1 x176.594726 y13.495375
g1 x176.773365 y13.343164
g1 x176.925981 y13.164091
g1 x177.048768 y12.964129
g1 x177.138592 y12.746751
g1 x177.193538 y12.518456
g1 x177.21498 y12.245372
g1 x177.21498 y8.323768
g1 x177.193515 y8.050383
g1 x177.138595 y7.821596
g1 x177.049035 y7.605475
g1 x176.925964 y7.405051
g1 x176.7727 y7.225194
g1 x176.594733 y7.072952
g1 x176.394713 y6.950448
g1 x176.178288 y6.860868
g1 x175.949593 y6.806303
g1 x175.67541 y6.78457
g1 x168.894652 y6.78457
g1 z-3 f500
g1 x168.620469 y6.806304 f1200
g1 x168.391631 y6.860893
g1 x168.175226 y6.950428
g1 x167.975325 y7.072943
g1 x167.797163 y7.225245
g1 x167.644127 y7.404926
g1 x167.52091 y7.605607
g1 x167.431339 y7.821539
g1 x167.376585 y8.050134
g1 x167.3551 y8.323768
g1 x167.3551 y12.245372
g1 x167.376561 y12.518704
g1 x167.431342 y12.746809
g1 x167.521177 y12.963998
g1 x167.644109 y13.164215
g1 x167.796498 y13.343113
g1 x167.975333 y13.495384
g1 x168.176245 y13.619132
g1 x168.39162 y13.708234
g1 x168.620469 y13.762826
g1 x168.894652 y13.78456
g1 x175.67541 y13.78456
g1 x175.949593 y13.762827
g1 x176.178299 y13.708259
g1 x176.393695 y13.619111
g1 x176.594726 y13.495375
g1 x176.773365 y13.343164
g1 x176.925981 y13.164091
g1 x177.048768 y12.964129
g1 x177.138592 y12.746751
g1 x177.193538 y12.518456
g1 x177.21498 y12.245372
g1 x177.21498 y8.323768
g1 x177.193515 y8.050383
g1 x177.138595 y7.821596
g1 x177.049035 y7.605475
g1 x176.925964 y7.405051
g1 x176.7727 y7.225194
g1 x176.594733 y7.072952
g1 x176.394713 y6.950448
g1 x176.178288 y6.860868
g1 x175.949593 y6.806303
g1 x175.67541 y6.78457
g1 x168.894652 y6.78457
g0 z30
(Block-name: path4-6-7)
(Block-expand: 0)
(Block-enable: 0)

(End cutting path id: path4-6-7)


(Start cutting path id: path4-6-7)
(Change tool to Default tool)

G00 Z20.000000
G00 X190.714980 Y5.784570

G01 Z-0.125000 F100.0(Penetrate)
G01 X190.323880 Y5.815570 Z-0.125000 F400.000000
G01 X189.942380 Y5.906570 Z-0.125000
G01 X189.579980 Y6.056570 Z-0.125000
G01 X189.245580 Y6.261560 Z-0.125000
G01 X188.947280 Y6.516570 Z-0.125000
G01 X188.692380 Y6.815580 Z-0.125000
G01 X188.487480 Y7.149590 Z-0.125000
G01 X188.337380 Y7.511560 Z-0.125000
G01 X188.245780 Y7.893570 Z-0.125000
G01 X188.214980 Y8.284570 Z-0.125000
G01 X188.214980 Y12.284570 Z-0.125000
G01 X188.245780 Y12.675570 Z-0.125000
G01 X188.337380 Y13.056570 Z-0.125000
G01 X188.487480 Y13.419580 Z-0.125000
G01 X188.692380 Y13.753590 Z-0.125000
G01 X188.947280 Y14.052560 Z-0.125000
G01 X189.245580 Y14.306560 Z-0.125000
G01 X189.579980 Y14.512570 Z-0.125000
G01 X189.942380 Y14.662560 Z-0.125000
G01 X190.323880 Y14.753560 Z-0.125000
G01 X190.714980 Y14.784560 Z-0.125000
G01 X197.574980 Y14.784560 Z-0.125000
G01 X197.966080 Y14.753560 Z-0.125000
G01 X198.347580 Y14.662560 Z-0.125000
G01 X198.709980 Y14.512570 Z-0.125000
G01 X199.044480 Y14.306560 Z-0.125000
G01 X199.342780 Y14.052560 Z-0.125000
G01 X199.597580 Y13.753590 Z-0.125000
G01 X199.802480 Y13.419580 Z-0.125000
G01 X199.952680 Y13.056570 Z-0.125000
G01 X200.044180 Y12.675570 Z-0.125000
G01 X200.074980 Y12.284570 Z-0.125000
G01 X200.074980 Y8.284570 Z-0.125000
G01 X200.044180 Y7.893570 Z-0.125000
G01 X199.952680 Y7.511560 Z-0.125000
G01 X199.802480 Y7.149590 Z-0.125000
G01 X199.597580 Y6.815580 Z-0.125000
G01 X199.342780 Y6.516570 Z-0.125000
G01 X199.044480 Y6.261560 Z-0.125000
G01 X198.709980 Y6.056570 Z-0.125000
G01 X198.347580 Y5.906570 Z-0.125000
G01 X197.966080 Y5.815570 Z-0.125000
G01 X197.574980 Y5.784570 Z-0.125000
G01 X190.714980 Y5.784570 Z-0.125000
G00 Z20.000000
(Block-name: path4-6-7 [in,cut])
(Block-expand: 0)
(Block-enable: 1)
g0 x190.75455 y6.78457
g1 z-1 f500
g1 x190.480338 y6.806305 f1200
g1 x190.251545 y6.86088
g1 x190.035332 y6.950371
g1 x189.835438 y7.072908
g1 x189.657078 y7.225384
g1 x189.503987 y7.404967
g1 x189.381047 y7.605374
g1 x189.291385 y7.821596
g1 x189.236525 y8.050383
g1 x189.21498 y8.323895
g1 x189.21498 y12.245245
g1 x189.236501 y12.518456
g1 x189.291388 y12.746751
g1 x189.381313 y12.964231
g1 x189.50397 y13.164174
g1 x189.656413 y13.342974
g1 x189.835446 y13.495419
g1 x190.036352 y13.619188
g1 x190.251533 y13.708248
g1 x190.480338 y13.762825
g1 x190.75455 y13.78456
g1 x197.53541 y13.78456
g1 x197.809622 y13.762825
g1 x198.038427 y13.708248
g1 x198.253671 y13.619163
g1 x198.454666 y13.495375
g1 x198.633573 y13.343037
g1 x198.785939 y13.164257
g1 x198.908709 y12.96413
g1 x198.998652 y12.746751
g1 x199.053449 y12.51858
g1 x199.07498 y12.245245
g1 x199.07498 y8.323895
g1 x199.053425 y8.050259
g1 x198.998655 y7.821596
g1 x198.908975 y7.605475
g1 x198.785922 y7.404884
g1 x198.632908 y7.225321
g1 x198.454673 y7.072952
g1 x198.25469 y6.950397
g1 x198.038415 y6.86088
g1 x197.809622 y6.806305
g1 x197.53541 y6.78457
g1 x190.75455 y6.78457
g1 z-2 f500
g1 x190.480338 y6.806305 f1200
g1 x190.251545 y6.86088
g1 x190.035332 y6.950371
g1 x189.835438 y7.072908
g1 x189.657078 y7.225384
g1 x189.503987 y7.404967
g1 x189.381047 y7.605374
g1 x189.291385 y7.821596
g1 x189.236525 y8.050383
g1 x189.21498 y8.323895
g1 x189.21498 y12.245245
g1 x189.236501 y12.518456
g1 x189.291388 y12.746751
g1 x189.381313 y12.964231
g1 x189.50397 y13.164174
g1 x189.656413 y13.342974
g1 x189.835446 y13.495419
g1 x190.036352 y13.619188
g1 x190.251533 y13.708248
g1 x190.480338 y13.762825
g1 x190.75455 y13.78456
g1 x197.53541 y13.78456
g1 x197.809622 y13.762825
g1 x198.038427 y13.708248
g1 x198.253671 y13.619163
g1 x198.454666 y13.495375
g1 x198.633573 y13.343037
g1 x198.785939 y13.164257
g1 x198.908709 y12.96413
g1 x198.998652 y12.746751
g1 x199.053449 y12.51858
g1 x199.07498 y12.245245
g1 x199.07498 y8.323895
g1 x199.053425 y8.050259
g1 x198.998655 y7.821596
g1 x198.908975 y7.605475
g1 x198.785922 y7.404884
g1 x198.632908 y7.225321
g1 x198.454673 y7.072952
g1 x198.25469 y6.950397
g1 x198.038415 y6.86088
g1 x197.809622 y6.806305
g1 x197.53541 y6.78457
g1 x190.75455 y6.78457
g1 z-3 f500
g1 x190.480338 y6.806305 f1200
g1 x190.251545 y6.86088
g1 x190.035332 y6.950371
g1 x189.835438 y7.072908
g1 x189.657078 y7.225384
g1 x189.503987 y7.404967
g1 x189.381047 y7.605374
g1 x189.291385 y7.821596
g1 x189.236525 y8.050383
g1 x189.21498 y8.323895
g1 x189.21498 y12.245245
g1 x189.236501 y12.518456
g1 x189.291388 y12.746751
g1 x189.381313 y12.964231
g1 x189.50397 y13.164174
g1 x189.656413 y13.342974
g1 x189.835446 y13.495419
g1 x190.036352 y13.619188
g1 x190.251533 y13.708248
g1 x190.480338 y13.762825
g1 x190.75455 y13.78456
g1 x197.53541 y13.78456
g1 x197.809622 y13.762825
g1 x198.038427 y13.708248
g1 x198.253671 y13.619163
g1 x198.454666 y13.495375
g1 x198.633573 y13.343037
g1 x198.785939 y13.164257
g1 x198.908709 y12.96413
g1 x198.998652 y12.746751
g1 x199.053449 y12.51858
g1 x199.07498 y12.245245
g1 x199.07498 y8.323895
g1 x199.053425 y8.050259
g1 x198.998655 y7.821596
g1 x198.908975 y7.605475
g1 x198.785922 y7.404884
g1 x198.632908 y7.225321
g1 x198.454673 y7.072952
g1 x198.25469 y6.950397
g1 x198.038415 y6.86088
g1 x197.809622 y6.806305
g1 x197.53541 y6.78457
g1 x190.75455 y6.78457
g0 z30
(Block-name: path4-3)
(Block-expand: 0)
(Block-enable: 0)

(End cutting path id: path4-3)


(Start cutting path id: path4-3)
(Change tool to Default tool)

G0 Z20
G0 X184.8392 Y60.40415

G1 Z-0.125 F100
G1 X184.6102 Y60.45915 Z-0.125 F400
G1 X184.3932 Y60.54915 Z-0.125
G1 X184.1922 Y60.67215 Z-0.125
G1 X184.0132 Y60.82515 Z-0.125
G1 X183.8602 Y61.00415 Z-0.125
G1 X183.7372 Y61.20515 Z-0.125
G1 X183.6472 Y61.42215 Z-0.125
G1 X183.5922 Y61.65115 Z-0.125
G1 X183.5742 Y61.88615 Z-0.125
G1 X183.5922 Y62.12115 Z-0.125
G1 X183.6472 Y62.34915 Z-0.125
G1 X183.7372 Y62.56715 Z-0.125
G1 X183.8602 Y62.76815 Z-0.125
G1 X184.0132 Y62.94715 Z-0.125
G1 X184.1922 Y63.09915 Z-0.125
G1 X184.3932 Y63.22215 Z-0.125
G1 X184.6102 Y63.31215 Z-0.125
G1 X184.8392 Y63.36815 Z-0.125
G1 X185.0742 Y63.38615 Z-0.125
G1 X185.3082 Y63.36815 Z-0.125
G1 X185.5372 Y63.31215 Z-0.125
G1 X185.7552 Y63.22215 Z-0.125
G1 X185.9552 Y63.09915 Z-0.125
G1 X186.1342 Y62.94715 Z-0.125
G1 X186.2872 Y62.76815 Z-0.125
G1 X186.4102 Y62.56715 Z-0.125
G1 X186.5002 Y62.34915 Z-0.125
G1 X186.5552 Y62.12115 Z-0.125
G1 X186.5742 Y61.88615 Z-0.125
G1 X186.5552 Y61.65115 Z-0.125
G1 X186.5002 Y61.42215 Z-0.125
G1 X186.4102 Y61.20515 Z-0.125
G1 X186.2872 Y61.00415 Z-0.125
G1 X186.1342 Y60.82515 Z-0.125
G1 X185.9552 Y60.67215 Z-0.125
G1 X185.7552 Y60.54915 Z-0.125
G1 X185.5372 Y60.45915 Z-0.125
G1 X185.3082 Y60.40415 Z-0.125
G1 X185.0742 Y60.38615 Z-0.125
G1 X184.8392 Y60.40415 Z-0.125
G0 Z20
(Block-name: path4-3 [in,cut])
(Block-expand: 0)
(Block-enable: 1)
g0 x184.99514 y61.395135
g1 z-1 f500
g1 x184.920437 y61.413076 f1200
g1 x184.848499 y61.442913
g1 x184.781729 y61.483772
g1 x184.722472 y61.534422
g1 x184.671822 y61.593679
g1 x184.630963 y61.660449
g1 x184.601126 y61.732387
g1 x184.583185 y61.80709
g1 x184.577129 y61.88615
g1 x184.583147 y61.964711
g1 x184.601126 y62.039244
g1 x184.631389 y62.112548
g1 x184.671822 y62.178621
g1 x184.721414 y62.23664
g1 x184.78034 y62.286678
g1 x184.848499 y62.328387
g1 x184.922354 y62.359018
g1 x184.997209 y62.377324
g1 x185.074037 y62.383208
g1 x185.150032 y62.377363
g1 x185.22584 y62.358824
g1 x185.299564 y62.328388
g1 x185.366208 y62.287402
g1 x185.425986 y62.23664
g1 x185.475578 y62.178621
g1 x185.516011 y62.112548
g1 x185.546274 y62.039244
g1 x185.564752 y61.962642
g1 x185.570937 y61.88615
g1 x185.564712 y61.809158
g1 x185.546274 y61.732387
g1 x185.516437 y61.660449
g1 x185.475578 y61.593679
g1 x185.424928 y61.534422
g1 x185.364821 y61.483045
g1 x185.299564 y61.442912
g1 x185.227757 y61.413267
g1 x185.152101 y61.395097
g1 x185.074037 y61.389092
g1 x184.99514 y61.395135
g1 z-2 f500
g1 x184.920437 y61.413076 f1200
g1 x184.848499 y61.442913
g1 x184.781729 y61.483772
g1 x184.722472 y61.534422
g1 x184.671822 y61.593679
g1 x184.630963 y61.660449
g1 x184.601126 y61.732387
g1 x184.583185 y61.80709
g1 x184.577129 y61.88615
g1 x184.583147 y61.964711
g1 x184.601126 y62.039244
g1 x184.631389 y62.112548
g1 x184.671822 y62.178621
g1 x184.721414 y62.23664
g1 x184.78034 y62.286678
g1 x184.848499 y62.328387
g1 x184.922354 y62.359018
g1 x184.997209 y62.377324
g1 x185.074037 y62.383208
g1 x185.150032 y62.377363
g1 x185.22584 y62.358824
g1 x185.299564 y62.328388
g1 x185.366208 y62.287402
g1 x185.425986 y62.23664
g1 x185.475578 y62.178621
g1 x185.516011 y62.112548
g1 x185.546274 y62.039244
g1 x185.564752 y61.962642
g1 x185.570937 y61.88615
g1 x185.564712 y61.809158
g1 x185.546274 y61.732387
g1 x185.516437 y61.660449
g1 x185.475578 y61.593679
g1 x185.424928 y61.534422
g1 x185.364821 y61.483045
g1 x185.299564 y61.442912
g1 x185.227757 y61.413267
g1 x185.152101 y61.395097
g1 x185.074037 y61.389092
g1 x184.99514 y61.395135
g1 z-3 f500
g1 x184.920437 y61.413076 f1200
g1 x184.848499 y61.442913
g1 x184.781729 y61.483772
g1 x184.722472 y61.534422
g1 x184.671822 y61.593679
g1 x184.630963 y61.660449
g1 x184.601126 y61.732387
g1 x184.583185 y61.80709
g1 x184.577129 y61.88615
g1 x184.583147 y61.964711
g1 x184.601126 y62.039244
g1 x184.631389 y62.112548
g1 x184.671822 y62.178621
g1 x184.721414 y62.23664
g1 x184.78034 y62.286678
g1 x184.848499 y62.328387
g1 x184.922354 y62.359018
g1 x184.997209 y62.377324
g1 x185.074037 y62.383208
g1 x185.150032 y62.377363
g1 x185.22584 y62.358824
g1 x185.299564 y62.328388
g1 x185.366208 y62.287402
g1 x185.425986 y62.23664
g1 x185.475578 y62.178621
g1 x185.516011 y62.112548
g1 x185.546274 y62.039244
g1 x185.564752 y61.962642
g1 x185.570937 y61.88615
g1 x185.564712 y61.809158
g1 x185.546274 y61.732387
g1 x185.516437 y61.660449
g1 x185.475578 y61.593679
g1 x185.424928 y61.534422
g1 x185.364821 y61.483045
g1 x185.299564 y61.442912
g1 x185.227757 y61.413267
g1 x185.152101 y61.395097
g1 x185.074037 y61.389092
g1 x184.99514 y61.395135
g0 z30
(Block-name: path4-3)
(Block-expand: 0)
(Block-enable: 0)

(End cutting path id: path4-3)


(Start cutting path id: path4-3)
(Change tool to Default tool)

G0 Z20
G0 X114.3082 Y51.65915

G1 Z-0.125 F100
G1 X114.4582 Y52.02115 Z-0.125 F400
G1 X114.6632 Y52.35515 Z-0.125
G1 X114.9172 Y52.65415 Z-0.125
G1 X115.2162 Y52.90915 Z-0.125
G1 X115.5502 Y53.11315 Z-0.125
G1 X115.9132 Y53.26415 Z-0.125
G1 X116.2942 Y53.35515 Z-0.125
G1 X116.6852 Y53.38615 Z-0.125
G1 X157.5742 Y53.38615 Z-0.125
G1 X157.9652 Y53.35515 Z-0.125
G1 X158.3462 Y53.26415 Z-0.125
G1 X158.7092 Y53.11315 Z-0.125
G1 X159.0432 Y52.90915 Z-0.125
G1 X159.3412 Y52.65415 Z-0.125
G1 X159.5962 Y52.35515 Z-0.125
G1 X159.8012 Y52.02115 Z-0.125
G1 X159.9512 Y51.65915 Z-0.125
G1 X160.0432 Y51.27715 Z-0.125
G1 X160.0742 Y50.88615 Z-0.125
G1 X160.0742 Y40.88615 Z-0.125
G1 X160.0432 Y40.49515 Z-0.125
G1 X159.9512 Y40.11315 Z-0.125
G1 X159.8012 Y39.75115 Z-0.125
G1 X159.5962 Y39.41615 Z-0.125
G1 X159.3412 Y39.11815 Z-0.125
G1 X159.0432 Y38.86315 Z-0.125
G1 X158.7092 Y38.65815 Z-0.125
G1 X158.3462 Y38.50815 Z-0.125
G1 X157.9652 Y38.41715 Z-0.125
G1 X157.5742 Y38.38615 Z-0.125
G1 X116.6852 Y38.38615 Z-0.125
G1 X116.2942 Y38.41715 Z-0.125
G1 X115.9132 Y38.50815 Z-0.125
G1 X115.5502 Y38.65815 Z-0.125
G1 X115.2162 Y38.86315 Z-0.125
G1 X114.9172 Y39.11815 Z-0.125
G1 X114.6632 Y39.41615 Z-0.125
G1 X114.4582 Y39.75115 Z-0.125
G1 X114.3082 Y40.11315 Z-0.125
G1 X114.2162 Y40.49515 Z-0.125
G1 X114.1852 Y40.88615 Z-0.125
G1 X114.1852 Y50.88615 Z-0.125
G1 X114.2162 Y51.27715 Z-0.125
G1 X114.3082 Y51.65915 Z-0.125
G0 Z20
(Block-name: path4-3 [in,cut])
(Block-expand: 0)
(Block-enable: 1)
g0 x115.262044 y51.348781
g1 z-1 f500
g1 x115.351792 y51.565372 f1200
g1 x115.475187 y51.766416
g1 x115.627276 y51.94545
g1 x115.804932 y52.096963
g1 x116.005556 y52.2195
g1 x116.223367 y52.310104
g1 x116.450816 y52.364429
g1 x116.72478 y52.38615
g1 x157.53462 y52.38615
g1 x157.808584 y52.364429
g1 x158.036033 y52.310104
g1 x158.253844 y52.2195
g1 x158.453757 y52.097397
g1 x158.631326 y51.94545
g1 x158.784724 y51.765584
g1 x158.907608 y51.565372
g1 x158.997356 y51.348781
g1 x159.052554 y51.119589
g1 x159.0742 y50.84657
g1 x159.0742 y40.92573
g1 x159.052554 y40.652711
g1 x158.997356 y40.423519
g1 x158.907352 y40.206309
g1 x158.784723 y40.005916
g1 x158.631959 y39.827391
g1 x158.452925 y39.674191
g1 x158.25384 y39.551998
g1 x158.037184 y39.462471
g1 x157.808584 y39.407871
g1 x157.53462 y39.38615
g1 x116.72478 y39.38615
g1 x116.450816 y39.407871
g1 x116.222216 y39.462471
g1 x116.00556 y39.551998
g1 x115.805766 y39.674626
g1 x115.626643 y39.82739
g1 x115.475186 y40.005083
g1 x115.352048 y40.206309
g1 x115.262044 y40.423519
g1 x115.206846 y40.652711
g1 x115.1852 y40.92573
g1 x115.1852 y50.84657
g1 x115.206846 y51.119589
g1 x115.262044 y51.348781
g1 z-2 f500
g1 x115.351792 y51.565372 f1200
g1 x115.475187 y51.766416
g1 x115.627276 y51.94545
g1 x115.804932 y52.096963
g1 x116.005556 y52.2195
g1 x116.223367 y52.310104
g1 x116.450816 y52.364429
g1 x116.72478 y52.38615
g1 x157.53462 y52.38615
g1 x157.808584 y52.364429
g1 x158.036033 y52.310104
g1 x158.253844 y52.2195
g1 x158.453757 y52.097397
g1 x158.631326 y51.94545
g1 x158.784724 y51.765584
g1 x158.907608 y51.565372
g1 x158.997356 y51.348781
g1 x159.052554 y51.119589
g1 x159.0742 y50.84657
g1 x159.0742 y40.92573
g1 x159.052554 y40.652711
g1 x158.997356 y40.423519
g1 x158.907352 y40.206309
g1 x158.784723 y40.005916
g1 x158.631959 y39.827391
g1 x158.452925 y39.674191
g1 x158.25384 y39.551998
g1 x158.037184 y39.462471
g1 x157.808584 y39.407871
g1 x157.53462 y39.38615
g1 x116.72478 y39.38615
g1 x116.450816 y39.407871
g1 x116.222216 y39.462471
g1 x116.00556 y39.551998
g1 x115.805766 y39.674626
g1 x115.626643 y39.82739
g1 x115.475186 y40.005083
g1 x115.352048 y40.206309
g1 x115.262044 y40.423519
g1 x115.206846 y40.652711
g1 x115.1852 y40.92573
g1 x115.1852 y50.84657
g1 x115.206846 y51.119589
g1 x115.262044 y51.348781
g1 z-3 f500
g1 x115.351792 y51.565372 f1200
g1 x115.475187 y51.766416
g1 x115.627276 y51.94545
g1 x115.804932 y52.096963
g1 x116.005556 y52.2195
g1 x116.223367 y52.310104
g1 x116.450816 y52.364429
g1 x116.72478 y52.38615
g1 x157.53462 y52.38615
g1 x157.808584 y52.364429
g1 x158.036033 y52.310104
g1 x158.253844 y52.2195
g1 x158.453757 y52.097397
g1 x158.631326 y51.94545
g1 x158.784724 y51.765584
g1 x158.907608 y51.565372
g1 x158.997356 y51.348781
g1 x159.052554 y51.119589
g1 x159.0742 y50.84657
g1 x159.0742 y40.92573
g1 x159.052554 y40.652711
g1 x158.997356 y40.423519
g1 x158.907352 y40.206309
g1 x158.784723 y40.005916
g1 x158.631959 y39.827391
g1 x158.452925 y39.674191
g1 x158.25384 y39.551998
g1 x158.037184 y39.462471
g1 x157.808584 y39.407871
g1 x157.53462 y39.38615
g1 x116.72478 y39.38615
g1 x116.450816 y39.407871
g1 x116.222216 y39.462471
g1 x116.00556 y39.551998
g1 x115.805766 y39.674626
g1 x115.626643 y39.82739
g1 x115.475186 y40.005083
g1 x115.352048 y40.206309
g1 x115.262044 y40.423519
g1 x115.206846 y40.652711
g1 x115.1852 y40.92573
g1 x115.1852 y50.84657
g1 x115.206846 y51.119589
g1 x115.262044 y51.348781
g0 z30
(Block-name: path4-3)
(Block-expand: 0)
(Block-enable: 0)

(End cutting path id: path4-3)


(Start cutting path id: path4-3)
(Change tool to Default tool)

G0 Z20
G0 X38.062506 Y49.90415

G1 Z-0.125 F100
G1 X37.833606 Y49.95915 Z-0.125 F400
G1 X37.616206 Y50.04915 Z-0.125
G1 X37.415406 Y50.17215 Z-0.125
G1 X37.236406 Y50.32515 Z-0.125
G1 X37.083706 Y50.50415 Z-0.125
G1 X36.960706 Y50.70515 Z-0.125
G1 X36.870506 Y50.92215 Z-0.125
G1 X36.815606 Y51.15115 Z-0.125
G1 X36.797106 Y51.38615 Z-0.125
G1 X36.815606 Y51.62115 Z-0.125
G1 X36.870506 Y51.84915 Z-0.125
G1 X36.960706 Y52.06715 Z-0.125
G1 X37.083706 Y52.26815 Z-0.125
G1 X37.236406 Y52.44715 Z-0.125
G1 X37.415406 Y52.59915 Z-0.125
G1 X37.616206 Y52.72215 Z-0.125
G1 X37.833606 Y52.81315 Z-0.125
G1 X38.062506 Y52.86815 Z-0.125
G1 X38.297206 Y52.88615 Z-0.125
G1 X38.531706 Y52.86815 Z-0.125
G1 X38.760606 Y52.81315 Z-0.125
G1 X38.978006 Y52.72215 Z-0.125
G1 X39.178906 Y52.59915 Z-0.125
G1 X39.357806 Y52.44715 Z-0.125
G1 X39.510606 Y52.26815 Z-0.125
G1 X39.633606 Y52.06715 Z-0.125
G1 X39.723706 Y51.84915 Z-0.125
G1 X39.778706 Y51.62115 Z-0.125
G1 X39.797106 Y51.38615 Z-0.125
G1 X39.778706 Y51.15115 Z-0.125
G1 X39.723706 Y50.92215 Z-0.125
G1 X39.633606 Y50.70515 Z-0.125
G1 X39.510606 Y50.50415 Z-0.125
G1 X39.357806 Y50.32515 Z-0.125
G1 X39.178906 Y50.17215 Z-0.125
G1 X38.978006 Y50.04915 Z-0.125
G1 X38.760606 Y49.95915 Z-0.125
G1 X38.531706 Y49.90415 Z-0.125
G1 X38.297206 Y49.88615 Z-0.125
G1 X38.062506 Y49.90415 Z-0.125
G0 Z20
(Block-name: path4-3 [in,cut])
(Block-expand: 0)
(Block-enable: 1)
g0 x38.218543 y50.89512
g1 z-1 f500
g1 x38.143571 y50.913134 f1200
g1 x38.071431 y50.942998
g1 x38.005105 y50.983627
g1 x37.946048 y51.034105
g1 x37.895582 y51.093263
g1 x37.854262 y51.160786
g1 x37.82442 y51.23258
g1 x37.806359 y51.307917
g1 x37.8002 y51.38615
g1 x37.806319 y51.463884
g1 x37.824419 y51.539054
g1 x37.85469 y51.612212
g1 x37.895582 y51.679037
g1 x37.944991 y51.736956
g1 x38.003716 y51.786823
g1 x38.073113 y51.829332
g1 x38.145489 y51.859627
g1 x38.218543 y51.87718
g1 x38.297173 y51.883211
g1 x38.375637 y51.877188
g1 x38.448723 y51.859627
g1 x38.521202 y51.829289
g1 x38.590563 y51.786823
g1 x38.649255 y51.736956
g1 x38.698815 y51.678898
g1 x38.73952 y51.61238
g1 x38.769826 y51.539053
g1 x38.787959 y51.463883
g1 x38.794045 y51.38615
g1 x38.78792 y51.307917
g1 x38.769826 y51.23258
g1 x38.739946 y51.160617
g1 x38.698815 y51.093402
g1 x38.648197 y51.034105
g1 x38.589174 y50.983627
g1 x38.522884 y50.943041
g1 x38.450641 y50.913134
g1 x38.375637 y50.895112
g1 x38.297173 y50.889089
g1 x38.218543 y50.89512
g1 z-2 f500
g1 x38.143571 y50.913134 f1200
g1 x38.071431 y50.942998
g1 x38.005105 y50.983627
g1 x37.946048 y51.034105
g1 x37.895582 y51.093263
g1 x37.854262 y51.160786
g1 x37.82442 y51.23258
g1 x37.806359 y51.307917
g1 x37.8002 y51.38615
g1 x37.806319 y51.463884
g1 x37.824419 y51.539054
g1 x37.85469 y51.612212
g1 x37.895582 y51.679037
g1 x37.944991 y51.736956
g1 x38.003716 y51.786823
g1 x38.073113 y51.829332
g1 x38.145489 y51.859627
g1 x38.218543 y51.87718
g1 x38.297173 y51.883211
g1 x38.375637 y51.877188
g1 x38.448723 y51.859627
g1 x38.521202 y51.829289
g1 x38.590563 y51.786823
g1 x38.649255 y51.736956
g1 x38.698815 y51.678898
g1 x38.73952 y51.61238
g1 x38.769826 y51.539053
g1 x38.787959 y51.463883
g1 x38.794045 y51.38615
g1 x38.78792 y51.307917
g1 x38.769826 y51.23258
g1 x38.739946 y51.160617
g1 x38.698815 y51.093402
g1 x38.648197 y51.034105
g1 x38.589174 y50.983627
g1 x38.522884 y50.943041
g1 x38.450641 y50.913134
g1 x38.375637 y50.895112
g1 x38.297173 y50.889089
g1 x38.218543 y50.89512
g1 z-3 f500
g1 x38.143571 y50.913134 f1200
g1 x38.071431 y50.942998
g1 x38.005105 y50.983627
g1 x37.946048 y51.034105
g1 x37.895582 y51.093263
g1 x37.854262 y51.160786
g1 x37.82442 y51.23258
g1 x37.806359 y51.307917
g1 x37.8002 y51.38615
g1 x37.806319 y51.463884
g1 x37.824419 y51.539054
g1 x37.85469 y51.612212
g1 x37.895582 y51.679037
g1 x37.944991 y51.736956
g1 x38.003716 y51.786823
g1 x38.073113 y51.829332
g1 x38.145489 y51.859627
g1 x38.218543 y51.87718
g1 x38.297173 y51.883211
g1 x38.375637 y51.877188
g1 x38.448723 y51.859627
g1 x38.521202 y51.829289
g1 x38.590563 y51.786823
g1 x38.649255 y51.736956
g1 x38.698815 y51.678898
g1 x38.73952 y51.61238
g1 x38.769826 y51.539053
g1 x38.787959 y51.463883
g1 x38.794045 y51.38615
g1 x38.78792 y51.307917
g1 x38.769826 y51.23258
g1 x38.739946 y51.160617
g1 x38.698815 y51.093402
g1 x38.648197 y51.034105
g1 x38.589174 y50.983627
g1 x38.522884 y50.943041
g1 x38.450641 y50.913134
g1 x38.375637 y50.895112
g1 x38.297173 y50.889089
g1 x38.218543 y50.89512
g0 z30
(Block-name: path4-3)
(Block-expand: 0)
(Block-enable: 0)

(End cutting path id: path4-3)


(Start cutting path id: path4-3)
(Change tool to Default tool)

G0 Z20
G0 X184.2912 Y40.94715

G1 Z-0.125 F100
G1 X183.5282 Y41.13115 Z-0.125 F400
G1 X182.8042 Y41.43115 Z-0.125
G1 X182.1352 Y41.84115 Z-0.125
G1 X181.5382 Y42.35015 Z-0.125
G1 X181.0282 Y42.94715 Z-0.125
G1 X180.6192 Y43.61615 Z-0.125
G1 X180.3182 Y44.34115 Z-0.125
G1 X180.1352 Y45.10415 Z-0.125
G1 X180.0742 Y45.88615 Z-0.125
G1 X180.1352 Y46.66815 Z-0.125
G1 X180.3182 Y47.43115 Z-0.125
G1 X180.6192 Y48.15615 Z-0.125
G1 X181.0282 Y48.82515 Z-0.125
G1 X181.5382 Y49.42115 Z-0.125
G1 X182.1352 Y49.93115 Z-0.125
G1 X182.8042 Y50.34115 Z-0.125
G1 X183.5282 Y50.64115 Z-0.125
G1 X184.2912 Y50.82415 Z-0.125
G1 X185.0742 Y50.88615 Z-0.125
G1 X185.8562 Y50.82415 Z-0.125
G1 X186.6192 Y50.64115 Z-0.125
G1 X187.3442 Y50.34115 Z-0.125
G1 X188.0132 Y49.93115 Z-0.125
G1 X188.6092 Y49.42115 Z-0.125
G1 X189.1192 Y48.82515 Z-0.125
G1 X189.5292 Y48.15615 Z-0.125
G1 X189.8292 Y47.43115 Z-0.125
G1 X190.0122 Y46.66815 Z-0.125
G1 X190.0742 Y45.88615 Z-0.125
G1 X190.0122 Y45.10415 Z-0.125
G1 X189.8292 Y44.34115 Z-0.125
G1 X189.5292 Y43.61615 Z-0.125
G1 X189.1192 Y42.94715 Z-0.125
G1 X188.6092 Y42.35015 Z-0.125
G1 X188.0132 Y41.84115 Z-0.125
G1 X187.3442 Y41.43115 Z-0.125
G1 X186.6192 Y41.13115 Z-0.125
G1 X185.8562 Y40.94715 Z-0.125
G1 X185.0742 Y40.88615 Z-0.125
G1 X184.2912 Y40.94715 Z-0.125
G0 Z20
(Block-name: path4-3 [in,cut])
(Block-expand: 0)
(Block-enable: 1)
g0 x184.448241 y41.937946
g1 z-1 f500
g1 x183.838708 y42.084937 f1200
g1 x183.259668 y42.32487
g1 x182.724449 y42.652882
g1 x182.24717 y43.059808
g1 x181.840032 y43.536399
g1 x181.512949 y44.071408
g1 x181.272144 y44.651419
g1 x181.126033 y45.260618
g1 x181.077238 y45.88615
g1 x181.126033 y46.511682
g1 x181.272144 y47.120881
g1 x181.512949 y47.700892
g1 x181.839815 y48.235545
g1 x182.24717 y48.711592
g1 x182.724865 y49.119673
g1 x183.259668 y49.44743
g1 x183.838132 y49.687125
g1 x184.44824 y49.833455
g1 x185.07415 y49.883016
g1 x185.699111 y49.833467
g1 x186.309507 y49.687068
g1 x186.888941 y49.447302
g1 x187.42318 y49.119891
g1 x187.899959 y48.711909
g1 x188.307941 y48.23513
g1 x188.635352 y47.700891
g1 x188.875118 y47.121457
g1 x189.021517 y46.511061
g1 x189.071062 y45.88615
g1 x189.021517 y45.261239
g1 x188.875118 y44.650843
g1 x188.635352 y44.071409
g1 x188.307723 y43.536815
g1 x187.899959 y43.059491
g1 x187.423595 y42.652664
g1 x186.888941 y42.324998
g1 x186.308931 y42.084994
g1 x185.699111 y41.937934
g1 x185.07415 y41.889184
g1 x184.448241 y41.937946
g1 z-2 f500
g1 x183.838708 y42.084937 f1200
g1 x183.259668 y42.32487
g1 x182.724449 y42.652882
g1 x182.24717 y43.059808
g1 x181.840032 y43.536399
g1 x181.512949 y44.071408
g1 x181.272144 y44.651419
g1 x181.126033 y45.260618
g1 x181.077238 y45.88615
g1 x181.126033 y46.511682
g1 x181.272144 y47.120881
g1 x181.512949 y47.700892
g1 x181.839815 y48.235545
g1 x182.24717 y48.711592
g1 x182.724865 y49.119673
g1 x183.259668 y49.44743
g1 x183.838132 y49.687125
g1 x184.44824 y49.833455
g1 x185.07415 y49.883016
g1 x185.699111 y49.833467
g1 x186.309507 y49.687068
g1 x186.888941 y49.447302
g1 x187.42318 y49.119891
g1 x187.899959 y48.711909
g1 x188.307941 y48.23513
g1 x188.635352 y47.700891
g1 x188.875118 y47.121457
g1 x189.021517 y46.511061
g1 x189.071062 y45.88615
g1 x189.021517 y45.261239
g1 x188.875118 y44.650843
g1 x188.635352 y44.071409
g1 x188.307723 y43.536815
g1 x187.899959 y43.059491
g1 x187.423595 y42.652664
g1 x186.888941 y42.324998
g1 x186.308931 y42.084994
g1 x185.699111 y41.937934
g1 x185.07415 y41.889184
g1 x184.448241 y41.937946
g1 z-3 f500
g1 x183.838708 y42.084937 f1200
g1 x183.259668 y42.32487
g1 x182.724449 y42.652882
g1 x182.24717 y43.059808
g1 x181.840032 y43.536399
g1 x181.512949 y44.071408
g1 x181.272144 y44.651419
g1 x181.126033 y45.260618
g1 x181.077238 y45.88615
g1 x181.126033 y46.511682
g1 x181.272144 y47.120881
g1 x181.512949 y47.700892
g1 x181.839815 y48.235545
g1 x182.24717 y48.711592
g1 x182.724865 y49.119673
g1 x183.259668 y49.44743
g1 x183.838132 y49.687125
g1 x184.44824 y49.833455
g1 x185.07415 y49.883016
g1 x185.699111 y49.833467
g1 x186.309507 y49.687068
g1 x186.888941 y49.447302
g1 x187.42318 y49.119891
g1 x187.899959 y48.711909
g1 x188.307941 y48.23513
g1 x188.635352 y47.700891
g1 x188.875118 y47.121457
g1 x189.021517 y46.511061
g1 x189.071062 y45.88615
g1 x189.021517 y45.261239
g1 x188.875118 y44.650843
g1 x188.635352 y44.071409
g1 x188.307723 y43.536815
g1 x187.899959 y43.059491
g1 x187.423595 y42.652664
g1 x186.888941 y42.324998
g1 x186.308931 y42.084994
g1 x185.699111 y41.937934
g1 x185.07415 y41.889184
g1 x184.448241 y41.937946
g0 z30
(Block-name: path4-3)
(Block-expand: 0)
(Block-enable: 0)

(End cutting path id: path4-3)


(Start cutting path id: path4-3)
(Change tool to Default tool)

G0 Z20
G0 X200.8392 Y44.40415

G1 Z-0.125 F100
G1 X200.6102 Y44.45915 Z-0.125 F400
G1 X200.3932 Y44.54915 Z-0.125
G1 X200.1922 Y44.67215 Z-0.125
G1 X200.0132 Y44.82515 Z-0.125
G1 X199.8602 Y45.00415 Z-0.125
G1 X199.7372 Y45.20515 Z-0.125
G1 X199.6472 Y45.42215 Z-0.125
G1 X199.5922 Y45.65115 Z-0.125
G1 X199.5742 Y45.88615 Z-0.125
G1 X199.5922 Y46.12115 Z-0.125
G1 X199.6472 Y46.34915 Z-0.125
G1 X199.7372 Y46.56715 Z-0.125
G1 X199.8602 Y46.76815 Z-0.125
G1 X200.0132 Y46.94715 Z-0.125
G1 X200.1922 Y47.10015 Z-0.125
G1 X200.3932 Y47.22315 Z-0.125
G1 X200.6102 Y47.31315 Z-0.125
G1 X200.8392 Y47.36715 Z-0.125
G1 X201.0742 Y47.38615 Z-0.125
G1 X201.3082 Y47.36715 Z-0.125
G1 X201.5372 Y47.31315 Z-0.125
G1 X201.7552 Y47.22315 Z-0.125
G1 X201.9552 Y47.10015 Z-0.125
G1 X202.1342 Y46.94715 Z-0.125
G1 X202.2872 Y46.76815 Z-0.125
G1 X202.4102 Y46.56715 Z-0.125
G1 X202.5002 Y46.34915 Z-0.125
G1 X202.5552 Y46.12115 Z-0.125
G1 X202.5742 Y45.88615 Z-0.125
G1 X202.5552 Y45.65115 Z-0.125
G1 X202.5002 Y45.42215 Z-0.125
G1 X202.4102 Y45.20515 Z-0.125
G1 X202.2872 Y45.00415 Z-0.125
G1 X202.1342 Y44.82515 Z-0.125
G1 X201.9552 Y44.67215 Z-0.125
G1 X201.7552 Y44.54915 Z-0.125
G1 X201.5372 Y44.45915 Z-0.125
G1 X201.3082 Y44.40415 Z-0.125
G1 X201.0742 Y44.38615 Z-0.125
G1 X200.8392 Y44.40415 Z-0.125
G0 Z20
(Block-name: path4-3 [in,cut])
(Block-expand: 0)
(Block-enable: 1)
g0 x200.99514 y45.395135
g1 z-1 f500
g1 x200.920437 y45.413076 f1200
g1 x200.848499 y45.442913
g1 x200.781729 y45.483772
g1 x200.722472 y45.534422
g1 x200.671822 y45.593679
g1 x200.630963 y45.660449
g1 x200.601126 y45.732387
g1 x200.583185 y45.80709
g1 x200.577129 y45.88615
g1 x200.583147 y45.964711
g1 x200.601126 y46.039244
g1 x200.631389 y46.112548
g1 x200.671822 y46.178621
g1 x200.722472 y46.237878
g1 x200.781729 y46.288528
g1 x200.848499 y46.329387
g1 x200.918516 y46.358427
g1 x200.995137 y46.376495
g1 x201.074028 y46.382873
g1 x201.152095 y46.376534
g1 x201.229679 y46.358239
g1 x201.299564 y46.329388
g1 x201.364821 y46.289255
g1 x201.424928 y46.237878
g1 x201.475578 y46.178621
g1 x201.516011 y46.112548
g1 x201.546274 y46.039244
g1 x201.564752 y45.962642
g1 x201.570937 y45.88615
g1 x201.564712 y45.809158
g1 x201.546274 y45.732387
g1 x201.516437 y45.660449
g1 x201.475578 y45.593679
g1 x201.424928 y45.534422
g1 x201.364821 y45.483045
g1 x201.299564 y45.442912
g1 x201.227757 y45.413267
g1 x201.152101 y45.395097
g1 x201.074037 y45.389092
g1 x200.99514 y45.395135
g1 z-2 f500
g1 x200.920437 y45.413076 f1200
g1 x200.848499 y45.442913
g1 x200.781729 y45.483772
g1 x200.722472 y45.534422
g1 x200.671822 y45.593679
g1 x200.630963 y45.660449
g1 x200.601126 y45.732387
g1 x200.583185 y45.80709
g1 x200.577129 y45.88615
g1 x200.583147 y45.964711
g1 x200.601126 y46.039244
g1 x200.631389 y46.112548
g1 x200.671822 y46.178621
g1 x200.722472 y46.237878
g1 x200.781729 y46.288528
g1 x200.848499 y46.329387
g1 x200.918516 y46.358427
g1 x200.995137 y46.376495
g1 x201.074028 y46.382873
g1 x201.152095 y46.376534
g1 x201.229679 y46.358239
g1 x201.299564 y46.329388
g1 x201.364821 y46.289255
g1 x201.424928 y46.237878
g1 x201.475578 y46.178621
g1 x201.516011 y46.112548
g1 x201.546274 y46.039244
g1 x201.564752 y45.962642
g1 x201.570937 y45.88615
g1 x201.564712 y45.809158
g1 x201.546274 y45.732387
g1 x201.516437 y45.660449
g1 x201.475578 y45.593679
g1 x201.424928 y45.534422
g1 x201.364821 y45.483045
g1 x201.299564 y45.442912
g1 x201.227757 y45.413267
g1 x201.152101 y45.395097
g1 x201.074037 y45.389092
g1 x200.99514 y45.395135
g1 z-3 f500
g1 x200.920437 y45.413076 f1200
g1 x200.848499 y45.442913
g1 x200.781729 y45.483772
g1 x200.722472 y45.534422
g1 x200.671822 y45.593679
g1 x200.630963 y45.660449
g1 x200.601126 y45.732387
g1 x200.583185 y45.80709
g1 x200.577129 y45.88615
g1 x200.583147 y45.964711
g1 x200.601126 y46.039244
g1 x200.631389 y46.112548
g1 x200.671822 y46.178621
g1 x200.722472 y46.237878
g1 x200.781729 y46.288528
g1 x200.848499 y46.329387
g1 x200.918516 y46.358427
g1 x200.995137 y46.376495
g1 x201.074028 y46.382873
g1 x201.152095 y46.376534
g1 x201.229679 y46.358239
g1 x201.299564 y46.329388
g1 x201.364821 y46.289255
g1 x201.424928 y46.237878
g1 x201.475578 y46.178621
g1 x201.516011 y46.112548
g1 x201.546274 y46.039244
g1 x201.564752 y45.962642
g1 x201.570937 y45.88615
g1 x201.564712 y45.809158
g1 x201.546274 y45.732387
g1 x201.516437 y45.660449
g1 x201.475578 y45.593679
g1 x201.424928 y45.534422
g1 x201.364821 y45.483045
g1 x201.299564 y45.442912
g1 x201.227757 y45.413267
g1 x201.152101 y45.395097
g1 x201.074037 y45.389092
g1 x200.99514 y45.395135
g0 z30
(Block-name: path4-3)
(Block-expand: 0)
(Block-enable: 0)

(End cutting path id: path4-3)


(Start cutting path id: path4-3)
(Change tool to Default tool)

G0 Z20
G0 X168.8392 Y44.40415

G1 Z-0.125 F100
G1 X168.6102 Y44.45915 Z-0.125 F400
G1 X168.3932 Y44.54915 Z-0.125
G1 X168.1922 Y44.67215 Z-0.125
G1 X168.0132 Y44.82515 Z-0.125
G1 X167.8602 Y45.00415 Z-0.125
G1 X167.7372 Y45.20515 Z-0.125
G1 X167.6472 Y45.42215 Z-0.125
G1 X167.5922 Y45.65115 Z-0.125
G1 X167.5742 Y45.88615 Z-0.125
G1 X167.5922 Y46.12115 Z-0.125
G1 X167.6472 Y46.34915 Z-0.125
G1 X167.7372 Y46.56715 Z-0.125
G1 X167.8602 Y46.76815 Z-0.125
G1 X168.0132 Y46.94715 Z-0.125
G1 X168.1922 Y47.10015 Z-0.125
G1 X168.3932 Y47.22315 Z-0.125
G1 X168.6102 Y47.31315 Z-0.125
G1 X168.8392 Y47.36715 Z-0.125
G1 X169.0742 Y47.38615 Z-0.125
G1 X169.3082 Y47.36715 Z-0.125
G1 X169.5372 Y47.31315 Z-0.125
G1 X169.7552 Y47.22315 Z-0.125
G1 X169.9552 Y47.10015 Z-0.125
G1 X170.1342 Y46.94715 Z-0.125
G1 X170.2872 Y46.76815 Z-0.125
G1 X170.4102 Y46.56715 Z-0.125
G1 X170.5002 Y46.34915 Z-0.125
G1 X170.5552 Y46.12115 Z-0.125
G1 X170.5742 Y45.88615 Z-0.125
G1 X170.5552 Y45.65115 Z-0.125
G1 X170.5002 Y45.42215 Z-0.125
G1 X170.4102 Y45.20515 Z-0.125
G1 X170.2872 Y45.00415 Z-0.125
G1 X170.1342 Y44.82515 Z-0.125
G1 X169.9552 Y44.67215 Z-0.125
G1 X169.7552 Y44.54915 Z-0.125
G1 X169.5372 Y44.45915 Z-0.125
G1 X169.3082 Y44.40415 Z-0.125
G1 X169.0742 Y44.38615 Z-0.125
G1 X168.8392 Y44.40415 Z-0.125
G0 Z20
(Block-name: path4-3 [in,cut])
(Block-expand: 0)
(Block-enable: 1)
g0 x168.99514 y45.395135
g1 z-1 f500
g1 x168.920437 y45.413076 f1200
g1 x168.848499 y45.442913
g1 x168.781729 y45.483772
g1 x168.722472 y45.534422
g1 x168.671822 y45.593679
g1 x168.630963 y45.660449
g1 x168.601126 y45.732387
g1 x168.583185 y45.80709
g1 x168.577129 y45.88615
g1 x168.583147 y45.964711
g1 x168.601126 y46.039244
g1 x168.631389 y46.112548
g1 x168.671822 y46.178621
g1 x168.722472 y46.237878
g1 x168.781729 y46.288528
g1 x168.848499 y46.329387
g1 x168.918516 y46.358427
g1 x168.995137 y46.376495
g1 x169.074028 y46.382873
g1 x169.152095 y46.376534
g1 x169.229679 y46.358239
g1 x169.299564 y46.329388
g1 x169.364821 y46.289255
g1 x169.424928 y46.237878
g1 x169.475578 y46.178621
g1 x169.516011 y46.112548
g1 x169.546274 y46.039244
g1 x169.564752 y45.962642
g1 x169.570937 y45.88615
g1 x169.564712 y45.809158
g1 x169.546274 y45.732387
g1 x169.516437 y45.660449
g1 x169.475578 y45.593679
g1 x169.424928 y45.534422
g1 x169.364821 y45.483045
g1 x169.299564 y45.442912
g1 x169.227757 y45.413267
g1 x169.152101 y45.395097
g1 x169.074037 y45.389092
g1 x168.99514 y45.395135
g1 z-2 f500
g1 x168.920437 y45.413076 f1200
g1 x168.848499 y45.442913
g1 x168.781729 y45.483772
g1 x168.722472 y45.534422
g1 x168.671822 y45.593679
g1 x168.630963 y45.660449
g1 x168.601126 y45.732387
g1 x168.583185 y45.80709
g1 x168.577129 y45.88615
g1 x168.583147 y45.964711
g1 x168.601126 y46.039244
g1 x168.631389 y46.112548
g1 x168.671822 y46.178621
g1 x168.722472 y46.237878
g1 x168.781729 y46.288528
g1 x168.848499 y46.329387
g1 x168.918516 y46.358427
g1 x168.995137 y46.376495
g1 x169.074028 y46.382873
g1 x169.152095 y46.376534
g1 x169.229679 y46.358239
g1 x169.299564 y46.329388
g1 x169.364821 y46.289255
g1 x169.424928 y46.237878
g1 x169.475578 y46.178621
g1 x169.516011 y46.112548
g1 x169.546274 y46.039244
g1 x169.564752 y45.962642
g1 x169.570937 y45.88615
g1 x169.564712 y45.809158
g1 x169.546274 y45.732387
g1 x169.516437 y45.660449
g1 x169.475578 y45.593679
g1 x169.424928 y45.534422
g1 x169.364821 y45.483045
g1 x169.299564 y45.442912
g1 x169.227757 y45.413267
g1 x169.152101 y45.395097
g1 x169.074037 y45.389092
g1 x168.99514 y45.395135
g1 z-3 f500
g1 x168.920437 y45.413076 f1200
g1 x168.848499 y45.442913
g1 x168.781729 y45.483772
g1 x168.722472 y45.534422
g1 x168.671822 y45.593679
g1 x168.630963 y45.660449
g1 x168.601126 y45.732387
g1 x168.583185 y45.80709
g1 x168.577129 y45.88615
g1 x168.583147 y45.964711
g1 x168.601126 y46.039244
g1 x168.631389 y46.112548
g1 x168.671822 y46.178621
g1 x168.722472 y46.237878
g1 x168.781729 y46.288528
g1 x168.848499 y46.329387
g1 x168.918516 y46.358427
g1 x168.995137 y46.376495
g1 x169.074028 y46.382873
g1 x169.152095 y46.376534
g1 x169.229679 y46.358239
g1 x169.299564 y46.329388
g1 x169.364821 y46.289255
g1 x169.424928 y46.237878
g1 x169.475578 y46.178621
g1 x169.516011 y46.112548
g1 x169.546274 y46.039244
g1 x169.564752 y45.962642
g1 x169.570937 y45.88615
g1 x169.564712 y45.809158
g1 x169.546274 y45.732387
g1 x169.516437 y45.660449
g1 x169.475578 y45.593679
g1 x169.424928 y45.534422
g1 x169.364821 y45.483045
g1 x169.299564 y45.442912
g1 x169.227757 y45.413267
g1 x169.152101 y45.395097
g1 x169.074037 y45.389092
g1 x168.99514 y45.395135
g0 z30
(Block-name: path4-3)
(Block-expand: 0)
(Block-enable: 0)

(End cutting path id: path4-3)


(Start cutting path id: path4-3)
(Change tool to Default tool)

G0 Z20
G0 X38.062506 Y38.90415

G1 Z-0.125 F100
G1 X37.833606 Y38.95915 Z-0.125 F400
G1 X37.616206 Y39.04915 Z-0.125
G1 X37.415406 Y39.17215 Z-0.125
G1 X37.236406 Y39.32515 Z-0.125
G1 X37.083706 Y39.50415 Z-0.125
G1 X36.960706 Y39.70515 Z-0.125
G1 X36.870506 Y39.92215 Z-0.125
G1 X36.815606 Y40.15115 Z-0.125
G1 X36.797106 Y40.38615 Z-0.125
G1 X36.815606 Y40.62115 Z-0.125
G1 X36.870506 Y40.85015 Z-0.125
G1 X36.960706 Y41.06715 Z-0.125
G1 X37.083706 Y41.26815 Z-0.125
G1 X37.236406 Y41.44715 Z-0.125
G1 X37.415406 Y41.60015 Z-0.125
G1 X37.616206 Y41.72215 Z-0.125
G1 X37.833606 Y41.81315 Z-0.125
G1 X38.062506 Y41.86715 Z-0.125
G1 X38.297206 Y41.88615 Z-0.125
G1 X38.531706 Y41.86715 Z-0.125
G1 X38.760606 Y41.81315 Z-0.125
G1 X38.978006 Y41.72215 Z-0.125
G1 X39.178906 Y41.60015 Z-0.125
G1 X39.357806 Y41.44715 Z-0.125
G1 X39.510606 Y41.26815 Z-0.125
G1 X39.633606 Y41.06715 Z-0.125
G1 X39.723706 Y40.85015 Z-0.125
G1 X39.778706 Y40.62115 Z-0.125
G1 X39.797106 Y40.38615 Z-0.125
G1 X39.778706 Y40.15115 Z-0.125
G1 X39.723706 Y39.92215 Z-0.125
G1 X39.633606 Y39.70515 Z-0.125
G1 X39.510606 Y39.50415 Z-0.125
G1 X39.357806 Y39.32515 Z-0.125
G1 X39.178906 Y39.17215 Z-0.125
G1 X38.978006 Y39.04915 Z-0.125
G1 X38.760606 Y38.95915 Z-0.125
G1 X38.531706 Y38.90415 Z-0.125
G1 X38.297206 Y38.88615 Z-0.125
G1 X38.062506 Y38.90415 Z-0.125
G0 Z20
(Block-name: path4-3 [in,cut])
(Block-expand: 0)
(Block-enable: 1)
g0 x38.218543 y39.89512
g1 z-1 f500
g1 x38.143571 y39.913134 f1200
g1 x38.071431 y39.942998
g1 x38.005105 y39.983627
g1 x37.946048 y40.034105
g1 x37.895582 y40.093263
g1 x37.854262 y40.160786
g1 x37.82442 y40.23258
g1 x37.806359 y40.307917
g1 x37.8002 y40.38615
g1 x37.806359 y40.464383
g1 x37.82442 y40.53972
g1 x37.854262 y40.611514
g1 x37.895582 y40.679037
g1 x37.946048 y40.738195
g1 x38.003716 y40.787487
g1 x38.071429 y40.828627
g1 x38.143569 y40.858823
g1 x38.218542 y40.87651
g1 x38.297172 y40.882876
g1 x38.375637 y40.876518
g1 x38.450643 y40.858823
g1 x38.522885 y40.828584
g1 x38.590561 y40.787486
g1 x38.648197 y40.738195
g1 x38.698815 y40.678898
g1 x38.739946 y40.611683
g1 x38.769826 y40.53972
g1 x38.78792 y40.464383
g1 x38.794045 y40.38615
g1 x38.78792 y40.307917
g1 x38.769826 y40.23258
g1 x38.739946 y40.160617
g1 x38.698815 y40.093402
g1 x38.648197 y40.034105
g1 x38.589174 y39.983627
g1 x38.522884 y39.943041
g1 x38.450641 y39.913134
g1 x38.375637 y39.895112
g1 x38.297173 y39.889089
g1 x38.218543 y39.89512
g1 z-2 f500
g1 x38.143571 y39.913134 f1200
g1 x38.071431 y39.942998
g1 x38.005105 y39.983627
g1 x37.946048 y40.034105
g1 x37.895582 y40.093263
g1 x37.854262 y40.160786
g1 x37.82442 y40.23258
g1 x37.806359 y40.307917
g1 x37.8002 y40.38615
g1 x37.806359 y40.464383
g1 x37.82442 y40.53972
g1 x37.854262 y40.611514
g1 x37.895582 y40.679037
g1 x37.946048 y40.738195
g1 x38.003716 y40.787487
g1 x38.071429 y40.828627
g1 x38.143569 y40.858823
g1 x38.218542 y40.87651
g1 x38.297172 y40.882876
g1 x38.375637 y40.876518
g1 x38.450643 y40.858823
g1 x38.522885 y40.828584
g1 x38.590561 y40.787486
g1 x38.648197 y40.738195
g1 x38.698815 y40.678898
g1 x38.739946 y40.611683
g1 x38.769826 y40.53972
g1 x38.78792 y40.464383
g1 x38.794045 y40.38615
g1 x38.78792 y40.307917
g1 x38.769826 y40.23258
g1 x38.739946 y40.160617
g1 x38.698815 y40.093402
g1 x38.648197 y40.034105
g1 x38.589174 y39.983627
g1 x38.522884 y39.943041
g1 x38.450641 y39.913134
g1 x38.375637 y39.895112
g1 x38.297173 y39.889089
g1 x38.218543 y39.89512
g1 z-3 f500
g1 x38.143571 y39.913134 f1200
g1 x38.071431 y39.942998
g1 x38.005105 y39.983627
g1 x37.946048 y40.034105
g1 x37.895582 y40.093263
g1 x37.854262 y40.160786
g1 x37.82442 y40.23258
g1 x37.806359 y40.307917
g1 x37.8002 y40.38615
g1 x37.806359 y40.464383
g1 x37.82442 y40.53972
g1 x37.854262 y40.611514
g1 x37.895582 y40.679037
g1 x37.946048 y40.738195
g1 x38.003716 y40.787487
g1 x38.071429 y40.828627
g1 x38.143569 y40.858823
g1 x38.218542 y40.87651
g1 x38.297172 y40.882876
g1 x38.375637 y40.876518
g1 x38.450643 y40.858823
g1 x38.522885 y40.828584
g1 x38.590561 y40.787486
g1 x38.648197 y40.738195
g1 x38.698815 y40.678898
g1 x38.739946 y40.611683
g1 x38.769826 y40.53972
g1 x38.78792 y40.464383
g1 x38.794045 y40.38615
g1 x38.78792 y40.307917
g1 x38.769826 y40.23258
g1 x38.739946 y40.160617
g1 x38.698815 y40.093402
g1 x38.648197 y40.034105
g1 x38.589174 y39.983627
g1 x38.522884 y39.943041
g1 x38.450641 y39.913134
g1 x38.375637 y39.895112
g1 x38.297173 y39.889089
g1 x38.218543 y39.89512
g0 z30
(Block-name: path4-3)
(Block-expand: 0)
(Block-enable: 0)

(End cutting path id: path4-3)


(Start cutting path id: path4-3)
(Change tool to Default tool)

G0 Z20
G0 X184.8392 Y28.40415

G1 Z-0.125 F100
G1 X184.6102 Y28.45915 Z-0.125 F400
G1 X184.3932 Y28.54915 Z-0.125
G1 X184.1922 Y28.67215 Z-0.125
G1 X184.0132 Y28.82515 Z-0.125
G1 X183.8602 Y29.00415 Z-0.125
G1 X183.7372 Y29.20515 Z-0.125
G1 X183.6472 Y29.42215 Z-0.125
G1 X183.5922 Y29.65115 Z-0.125
G1 X183.5742 Y29.88615 Z-0.125
G1 X183.5922 Y30.12115 Z-0.125
G1 X183.6472 Y30.35015 Z-0.125
G1 X183.7372 Y30.56715 Z-0.125
G1 X183.8602 Y30.76815 Z-0.125
G1 X184.0132 Y30.94715 Z-0.125
G1 X184.1922 Y31.09915 Z-0.125
G1 X184.3932 Y31.22215 Z-0.125
G1 X184.6102 Y31.31215 Z-0.125
G1 X184.8392 Y31.36715 Z-0.125
G1 X185.0742 Y31.38615 Z-0.125
G1 X185.3082 Y31.36715 Z-0.125
G1 X185.5372 Y31.31215 Z-0.125
G1 X185.7552 Y31.22215 Z-0.125
G1 X185.9552 Y31.09915 Z-0.125
G1 X186.1342 Y30.94715 Z-0.125
G1 X186.2872 Y30.76815 Z-0.125
G1 X186.4102 Y30.56715 Z-0.125
G1 X186.5002 Y30.35015 Z-0.125
G1 X186.5552 Y30.12115 Z-0.125
G1 X186.5742 Y29.88615 Z-0.125
G1 X186.5552 Y29.65115 Z-0.125
G1 X186.5002 Y29.42215 Z-0.125
G1 X186.4102 Y29.20515 Z-0.125
G1 X186.2872 Y29.00415 Z-0.125
G1 X186.1342 Y28.82515 Z-0.125
G1 X185.9552 Y28.67215 Z-0.125
G1 X185.7552 Y28.54915 Z-0.125
G1 X185.5372 Y28.45915 Z-0.125
G1 X185.3082 Y28.40415 Z-0.125
G1 X185.0742 Y28.38615 Z-0.125
G1 X184.8392 Y28.40415 Z-0.125
G0 Z20
(Block-name: path4-3 [in,cut])
(Block-expand: 0)
(Block-enable: 1)
g0 x184.99514 y29.395135
g1 z-1 f500
g1 x184.920437 y29.413076 f1200
g1 x184.848499 y29.442913
g1 x184.781729 y29.483772
g1 x184.722472 y29.534422
g1 x184.671822 y29.593679
g1 x184.630963 y29.660449
g1 x184.601126 y29.732387
g1 x184.583185 y29.80709
g1 x184.577129 y29.88615
g1 x184.583185 y29.96521
g1 x184.601126 y30.039913
g1 x184.630963 y30.111851
g1 x184.671822 y30.178621
g1 x184.721414 y30.23664
g1 x184.78034 y30.286678
g1 x184.848499 y30.328387
g1 x184.920437 y30.358224
g1 x184.997208 y30.376662
g1 x185.074028 y30.382873
g1 x185.150024 y30.376702
g1 x185.227757 y30.358033
g1 x185.299564 y30.328388
g1 x185.366208 y30.287402
g1 x185.425986 y30.23664
g1 x185.475578 y30.178621
g1 x185.516437 y30.111851
g1 x185.546274 y30.039913
g1 x185.564712 y29.963142
g1 x185.570937 y29.88615
g1 x185.564712 y29.809158
g1 x185.546274 y29.732387
g1 x185.516437 y29.660449
g1 x185.475578 y29.593679
g1 x185.424928 y29.534422
g1 x185.364821 y29.483045
g1 x185.299564 y29.442912
g1 x185.227757 y29.413267
g1 x185.152101 y29.395097
g1 x185.074037 y29.389092
g1 x184.99514 y29.395135
g1 z-2 f500
g1 x184.920437 y29.413076 f1200
g1 x184.848499 y29.442913
g1 x184.781729 y29.483772
g1 x184.722472 y29.534422
g1 x184.671822 y29.593679
g1 x184.630963 y29.660449
g1 x184.601126 y29.732387
g1 x184.583185 y29.80709
g1 x184.577129 y29.88615
g1 x184.583185 y29.96521
g1 x184.601126 y30.039913
g1 x184.630963 y30.111851
g1 x184.671822 y30.178621
g1 x184.721414 y30.23664
g1 x184.78034 y30.286678
g1 x184.848499 y30.328387
g1 x184.920437 y30.358224
g1 x184.997208 y30.376662
g1 x185.074028 y30.382873
g1 x185.150024 y30.376702
g1 x185.227757 y30.358033
g1 x185.299564 y30.328388
g1 x185.366208 y30.287402
g1 x185.425986 y30.23664
g1 x185.475578 y30.178621
g1 x185.516437 y30.111851
g1 x185.546274 y30.039913
g1 x185.564712 y29.963142
g1 x185.570937 y29.88615
g1 x185.564712 y29.809158
g1 x185.546274 y29.732387
g1 x185.516437 y29.660449
g1 x185.475578 y29.593679
g1 x185.424928 y29.534422
g1 x185.364821 y29.483045
g1 x185.299564 y29.442912
g1 x185.227757 y29.413267
g1 x185.152101 y29.395097
g1 x185.074037 y29.389092
g1 x184.99514 y29.395135
g1 z-3 f500
g1 x184.920437 y29.413076 f1200
g1 x184.848499 y29.442913
g1 x184.781729 y29.483772
g1 x184.722472 y29.534422
g1 x184.671822 y29.593679
g1 x184.630963 y29.660449
g1 x184.601126 y29.732387
g1 x184.583185 y29.80709
g1 x184.577129 y29.88615
g1 x184.583185 y29.96521
g1 x184.601126 y30.039913
g1 x184.630963 y30.111851
g1 x184.671822 y30.178621
g1 x184.721414 y30.23664
g1 x184.78034 y30.286678
g1 x184.848499 y30.328387
g1 x184.920437 y30.358224
g1 x184.997208 y30.376662
g1 x185.074028 y30.382873
g1 x185.150024 y30.376702
g1 x185.227757 y30.358033
g1 x185.299564 y30.328388
g1 x185.366208 y30.287402
g1 x185.425986 y30.23664
g1 x185.475578 y30.178621
g1 x185.516437 y30.111851
g1 x185.546274 y30.039913
g1 x185.564712 y29.963142
g1 x185.570937 y29.88615
g1 x185.564712 y29.809158
g1 x185.546274 y29.732387
g1 x185.516437 y29.660449
g1 x185.475578 y29.593679
g1 x185.424928 y29.534422
g1 x185.364821 y29.483045
g1 x185.299564 y29.442912
g1 x185.227757 y29.413267
g1 x185.152101 y29.395097
g1 x185.074037 y29.389092
g1 x184.99514 y29.395135
g0 z30
(Block-name: path4-3)
(Block-expand: 0)
(Block-enable: 0)

(End cutting path id: path4-3)


(Start cutting path id: path4-3)
(Change tool to Default tool)

G0 Z20
G0 X99.155206 Y40.49515

G1 Z-0.125 F100
G1 X99.063206 Y40.11315 Z-0.125 F400
G1 X98.913206 Y39.75115 Z-0.125
G1 X98.708206 Y39.41615 Z-0.125
G1 X98.453206 Y39.11815 Z-0.125
G1 X98.155206 Y38.86315 Z-0.125
G1 X97.820206 Y38.65815 Z-0.125
G1 X97.458206 Y38.50815 Z-0.125
G1 X97.076206 Y38.41715 Z-0.125
G1 X96.685206 Y38.38615 Z-0.125
G1 X55.797206 Y38.38615 Z-0.125
G1 X55.406106 Y38.41715 Z-0.125
G1 X55.024606 Y38.50815 Z-0.125
G1 X54.662106 Y38.65815 Z-0.125
G1 X54.327606 Y38.86315 Z-0.125
G1 X54.029306 Y39.11815 Z-0.125
G1 X53.774606 Y39.41615 Z-0.125
G1 X53.569606 Y39.75115 Z-0.125
G1 X53.419406 Y40.11315 Z-0.125
G1 X53.327906 Y40.49515 Z-0.125
G1 X53.297206 Y40.88615 Z-0.125
G1 X53.297206 Y50.88615 Z-0.125
G1 X53.327906 Y51.27715 Z-0.125
G1 X53.419406 Y51.65915 Z-0.125
G1 X53.569606 Y52.02115 Z-0.125
G1 X53.774606 Y52.35515 Z-0.125
G1 X54.029306 Y52.65415 Z-0.125
G1 X54.327606 Y52.90915 Z-0.125
G1 X54.662106 Y53.11315 Z-0.125
G1 X55.024606 Y53.26415 Z-0.125
G1 X55.406106 Y53.35515 Z-0.125
G1 X55.797206 Y53.38615 Z-0.125
G1 X96.685206 Y53.38615 Z-0.125
G1 X97.076206 Y53.35515 Z-0.125
G1 X97.458206 Y53.26415 Z-0.125
G1 X97.820206 Y53.11315 Z-0.125
G1 X98.155206 Y52.90915 Z-0.125
G1 X98.453206 Y52.65415 Z-0.125
G1 X98.708206 Y52.35515 Z-0.125
G1 X98.913206 Y52.02115 Z-0.125
G1 X99.063206 Y51.65915 Z-0.125
G1 X99.155206 Y51.27715 Z-0.125
G1 X99.185206 Y50.88615 Z-0.125
G1 X99.185206 Y40.88615 Z-0.125
G1 X99.155206 Y40.49515 Z-0.125
G0 Z20
(Block-name: path4-3 [in,cut])
(Block-expand: 0)
(Block-enable: 1)
g0 x98.164261 y40.651468
g1 z-1 f500
g1 x98.109362 y40.423519 f1200
g1 x98.019358 y40.206309
g1 x97.896729 y40.005916
g1 x97.743965 y39.827391
g1 x97.56544 y39.674627
g1 x97.365047 y39.551998
g1 x97.148988 y39.462471
g1 x96.919887 y39.407894
g1 x96.645626 y39.38615
g1 x55.836776 y39.38615
g1 x55.562564 y39.407885
g1 x55.333723 y39.462471
g1 x55.117365 y39.551998
g1 x54.917413 y39.67454
g1 x54.738607 y39.827391
g1 x54.586235 y40.005667
g1 x54.463331 y40.206511
g1 x54.373433 y40.423175
g1 x54.318691 y40.651717
g1 x54.297206 y40.925348
g1 x54.297206 y50.846952
g1 x54.318691 y51.120583
g1 x54.373433 y51.349125
g1 x54.463074 y51.56517
g1 x54.586235 y51.765833
g1 x54.73924 y51.94545
g1 x54.916581 y52.097049
g1 x55.117364 y52.219499
g1 x55.334875 y52.310104
g1 x55.562564 y52.364415
g1 x55.836776 y52.38615
g1 x96.645626 y52.38615
g1 x96.919887 y52.364406
g1 x97.147835 y52.310104
g1 x97.365046 y52.219499
g1 x97.566271 y52.096962
g1 x97.743332 y51.94545
g1 x97.89673 y51.765584
g1 x98.019614 y51.565372
g1 x98.109362 y51.348781
g1 x98.164261 y51.120832
g1 x98.185206 y50.847843
g1 x98.185206 y40.924457
g1 x98.164261 y40.651468
g1 z-2 f500
g1 x98.109362 y40.423519 f1200
g1 x98.019358 y40.206309
g1 x97.896729 y40.005916
g1 x97.743965 y39.827391
g1 x97.56544 y39.674627
g1 x97.365047 y39.551998
g1 x97.148988 y39.462471
g1 x96.919887 y39.407894
g1 x96.645626 y39.38615
g1 x55.836776 y39.38615
g1 x55.562564 y39.407885
g1 x55.333723 y39.462471
g1 x55.117365 y39.551998
g1 x54.917413 y39.67454
g1 x54.738607 y39.827391
g1 x54.586235 y40.005667
g1 x54.463331 y40.206511
g1 x54.373433 y40.423175
g1 x54.318691 y40.651717
g1 x54.297206 y40.925348
g1 x54.297206 y50.846952
g1 x54.318691 y51.120583
g1 x54.373433 y51.349125
g1 x54.463074 y51.56517
g1 x54.586235 y51.765833
g1 x54.73924 y51.94545
g1 x54.916581 y52.097049
g1 x55.117364 y52.219499
g1 x55.334875 y52.310104
g1 x55.562564 y52.364415
g1 x55.836776 y52.38615
g1 x96.645626 y52.38615
g1 x96.919887 y52.364406
g1 x97.147835 y52.310104
g1 x97.365046 y52.219499
g1 x97.566271 y52.096962
g1 x97.743332 y51.94545
g1 x97.89673 y51.765584
g1 x98.019614 y51.565372
g1 x98.109362 y51.348781
g1 x98.164261 y51.120832
g1 x98.185206 y50.847843
g1 x98.185206 y40.924457
g1 x98.164261 y40.651468
g1 z-3 f500
g1 x98.109362 y40.423519 f1200
g1 x98.019358 y40.206309
g1 x97.896729 y40.005916
g1 x97.743965 y39.827391
g1 x97.56544 y39.674627
g1 x97.365047 y39.551998
g1 x97.148988 y39.462471
g1 x96.919887 y39.407894
g1 x96.645626 y39.38615
g1 x55.836776 y39.38615
g1 x55.562564 y39.407885
g1 x55.333723 y39.462471
g1 x55.117365 y39.551998
g1 x54.917413 y39.67454
g1 x54.738607 y39.827391
g1 x54.586235 y40.005667
g1 x54.463331 y40.206511
g1 x54.373433 y40.423175
g1 x54.318691 y40.651717
g1 x54.297206 y40.925348
g1 x54.297206 y50.846952
g1 x54.318691 y51.120583
g1 x54.373433 y51.349125
g1 x54.463074 y51.56517
g1 x54.586235 y51.765833
g1 x54.73924 y51.94545
g1 x54.916581 y52.097049
g1 x55.117364 y52.219499
g1 x55.334875 y52.310104
g1 x55.562564 y52.364415
g1 x55.836776 y52.38615
g1 x96.645626 y52.38615
g1 x96.919887 y52.364406
g1 x97.147835 y52.310104
g1 x97.365046 y52.219499
g1 x97.566271 y52.096962
g1 x97.743332 y51.94545
g1 x97.89673 y51.765584
g1 x98.019614 y51.565372
g1 x98.109362 y51.348781
g1 x98.164261 y51.120832
g1 x98.185206 y50.847843
g1 x98.185206 y40.924457
g1 x98.164261 y40.651468
g0 z30
(Block-name: path4)
(Block-expand: 0)
(Block-enable: 0)

(End cutting path id: path4)


(Start cutting path id: path4)
(Change tool to Default tool)

G0 Z20
G0 X31.34862 Y79.9767

G1 Z-0.125 F100
G1 X34.61922 Y76.7067 Z-0.125 F400
G1 X40.07272 Y76.7067 Z-0.125
G1 X43.34312 Y79.9767 Z-0.125
G1 X37.34592 Y85.9747 Z-0.125
G1 X31.34862 Y79.9767 Z-0.125
G0 Z20
(Block-name: path4 [in,cut])
(Block-expand: 0)
(Block-enable: 1)
g0 x32.762857 y79.976806
g1 z-1 f500
g1 x35.03338 y77.7067 f1200
g1 x39.658542 y77.7067
g1 x41.92891 y79.97679
g1 x37.345914 y84.560398
g1 x32.762857 y79.976806
g1 z-2 f500
g1 x35.03338 y77.7067 f1200
g1 x39.658542 y77.7067
g1 x41.92891 y79.97679
g1 x37.345914 y84.560398
g1 x32.762857 y79.976806
g1 z-3 f500
g1 x35.03338 y77.7067 f1200
g1 x39.658542 y77.7067
g1 x41.92891 y79.97679
g1 x37.345914 y84.560398
g1 x32.762857 y79.976806
g0 z30
(Block-name: path4)
(Block-expand: 0)
(Block-enable: 0)

(End cutting path id: path4)


(Start cutting path id: path4)
(Change tool to Default tool)

G0 Z20
G0 X110.646625 Y83.0127

G1 Z-0.125 F100
G1 X107.610625 Y79.9767 Z-0.125 F400
G1 X110.881625 Y76.7067 Z-0.125
G1 X116.334625 Y76.7067 Z-0.125
G1 X119.605625 Y79.9767 Z-0.125
G1 X118.220625 Y81.3617 Z-0.125
G1 X110.646625 Y83.0127 Z-0.125
G0 Z20
(Block-name: path4 [in,cut])
(Block-expand: 0)
(Block-enable: 1)
g0 x110.967427 y81.919288
g1 z-1 f500
g1 x109.024947 y79.976808 f1200
g1 x111.295749 y77.7067
g1 x115.920501 y77.7067
g1 x118.191303 y79.976808
g1 x117.72098 y80.447131
g1 x110.967427 y81.919288
g1 z-2 f500
g1 x109.024947 y79.976808 f1200
g1 x111.295749 y77.7067
g1 x115.920501 y77.7067
g1 x118.191303 y79.976808
g1 x117.72098 y80.447131
g1 x110.967427 y81.919288
g1 z-3 f500
g1 x109.024947 y79.976808 f1200
g1 x111.295749 y77.7067
g1 x115.920501 y77.7067
g1 x118.191303 y79.976808
g1 x117.72098 y80.447131
g1 x110.967427 y81.919288
g0 z30
(Block-name: path4)
(Block-expand: 0)
(Block-enable: 0)

(End cutting path id: path4)


(Start cutting path id: path4)
(Change tool to Default tool)

G0 Z20
G0 X50.414221 Y79.9767

G1 Z-0.125 F100
G1 X53.68472 Y76.7067 Z-0.125 F400
G1 X59.138221 Y76.7067 Z-0.125
G1 X62.40862 Y79.9767 Z-0.125
G1 X56.41152 Y85.9747 Z-0.125
G1 X50.414221 Y79.9767 Z-0.125
G0 Z20
(Block-name: path4 [in,cut])
(Block-expand: 0)
(Block-enable: 1)
g0 x51.828447 y79.976795
g1 z-1 f500
g1 x54.098889 y77.7067 f1200
g1 x58.724043 y77.7067
g1 x60.994416 y79.976796
g1 x56.411508 y84.560392
g1 x51.828447 y79.976795
g1 z-2 f500
g1 x54.098889 y77.7067 f1200
g1 x58.724043 y77.7067
g1 x60.994416 y79.976796
g1 x56.411508 y84.560392
g1 x51.828447 y79.976795
g1 z-3 f500
g1 x54.098889 y77.7067 f1200
g1 x58.724043 y77.7067
g1 x60.994416 y79.976796
g1 x56.411508 y84.560392
g1 x51.828447 y79.976795
g0 z30
(Block-name: path4)
(Block-expand: 0)
(Block-enable: 0)

(End cutting path id: path4)


(Start cutting path id: path4)
(Change tool to Default tool)

G0 Z20
G0 X69.47962 Y79.9767

G1 Z-0.125 F100
G1 X72.75062 Y76.7067 Z-0.125 F400
G1 X78.203621 Y76.7067 Z-0.125
G1 X81.474621 Y79.9767 Z-0.125
G1 X75.47662 Y85.9747 Z-0.125
G1 X69.47962 Y79.9767 Z-0.125
G0 Z20
(Block-name: path4 [in,cut])
(Block-expand: 0)
(Block-enable: 1)
g0 x70.893883 y79.976867
g1 z-1 f500
g1 x73.164744 y77.7067 f1200
g1 x77.789497 y77.7067
g1 x80.060299 y79.976808
g1 x75.476679 y84.560428
g1 x70.893883 y79.976867
g1 z-2 f500
g1 x73.164744 y77.7067 f1200
g1 x77.789497 y77.7067
g1 x80.060299 y79.976808
g1 x75.476679 y84.560428
g1 x70.893883 y79.976867
g1 z-3 f500
g1 x73.164744 y77.7067 f1200
g1 x77.789497 y77.7067
g1 x80.060299 y79.976808
g1 x75.476679 y84.560428
g1 x70.893883 y79.976867
g0 z30
(Block-name: path4)
(Block-expand: 0)
(Block-enable: 0)

(End cutting path id: path4)


(Start cutting path id: path4)
(Change tool to Default tool)

G0 Z20
G0 X13.74762 Y81.4417

G1 Z-0.125 F100
G1 X13.74762 Y78.5127 Z-0.125 F400
G1 X15.55362 Y76.7067 Z-0.125
G1 X21.00712 Y76.7067 Z-0.125
G1 X24.27752 Y79.9767 Z-0.125
G1 X18.28042 Y85.9747 Z-0.125
G1 X13.74762 Y81.4417 Z-0.125
G0 Z20
(Block-name: path4 [in,cut])
(Block-expand: 0)
(Block-enable: 1)
g0 x14.74762 y81.027499
g1 z-1 f500
g1 x14.74762 y78.926914 f1200
g1 x15.967834 y77.7067
g1 x20.592942 y77.7067
g1 x22.863316 y79.976796
g1 x18.280383 y84.560418
g1 x14.74762 y81.027499
g1 z-2 f500
g1 x14.74762 y78.926914 f1200
g1 x15.967834 y77.7067
g1 x20.592942 y77.7067
g1 x22.863316 y79.976796
g1 x18.280383 y84.560418
g1 x14.74762 y81.027499
g1 z-3 f500
g1 x14.74762 y78.926914 f1200
g1 x15.967834 y77.7067
g1 x20.592942 y77.7067
g1 x22.863316 y79.976796
g1 x18.280383 y84.560418
g1 x14.74762 y81.027499
g0 z30
(Block-name: path4)
(Block-expand: 0)
(Block-enable: 0)

(End cutting path id: path4)


(Start cutting path id: path4)
(Change tool to Default tool)

G0 Z20
G0 X88.54562 Y79.9767

G1 Z-0.125 F100
G1 X91.815619 Y76.7067 Z-0.125 F400
G1 X97.269619 Y76.7067 Z-0.125
G1 X100.539619 Y79.9767 Z-0.125
G1 X94.542619 Y85.9747 Z-0.125
G1 X88.54562 Y79.9767 Z-0.125
G0 Z20
(Block-name: path4 [in,cut])
(Block-expand: 0)
(Block-enable: 1)
g0 x89.959774 y79.976759
g1 z-1 f500
g1 x92.229833 y77.7067 f1200
g1 x96.855405 y77.7067
g1 x99.125464 y79.976759
g1 x94.542619 y84.560368
g1 x89.959774 y79.976759
g1 z-2 f500
g1 x92.229833 y77.7067 f1200
g1 x96.855405 y77.7067
g1 x99.125464 y79.976759
g1 x94.542619 y84.560368
g1 x89.959774 y79.976759
g1 z-3 f500
g1 x92.229833 y77.7067 f1200
g1 x96.855405 y77.7067
g1 x99.125464 y79.976759
g1 x94.542619 y84.560368
g1 x89.959774 y79.976759
g0 z30
(Block-name: path4)
(Block-expand: 0)
(Block-enable: 0)

(End cutting path id: path4)


(Start cutting path id: path4)
(Change tool to Default tool)

G0 Z20
G0 X79.012619 Y89.5097

G1 Z-0.125 F100
G1 X85.009619 Y83.5127 Z-0.125 F400
G1 X89.18862 Y87.69169 Z-0.125
G1 X79.34162 Y89.83871 Z-0.125
G1 X79.012619 Y89.5097 Z-0.125
G0 Z20
(Block-name: path4 [in,cut])
(Block-expand: 0)
(Block-enable: 1)
g0 x81.617558 y88.318975
g1 z-1 f500
g1 x85.00962 y84.926913 f1200
g1 x87.187277 y87.104564
g1 x81.617558 y88.318975
g1 z-2 f500
g1 x85.00962 y84.926913 f1200
g1 x87.187277 y87.104564
g1 x81.617558 y88.318975
g1 z-3 f500
g1 x85.00962 y84.926913 f1200
g1 x87.187277 y87.104564
g1 x81.617558 y88.318975
g0 z30
(Block-name: path4)
(Block-expand: 0)
(Block-enable: 0)

(End cutting path id: path4)


(Start cutting path id: path4)
(Change tool to Default tool)

G0 Z20
G0 X40.88142 Y89.5097

G1 Z-0.125 F100
G1 X46.87872 Y83.5127 Z-0.125 F400
G1 X52.87592 Y89.5097 Z-0.125
G1 X46.87872 Y95.5077 Z-0.125
G1 X40.88142 Y89.5097 Z-0.125
G0 Z20
(Block-name: path4 [in,cut])
(Block-expand: 0)
(Block-enable: 1)
g0 x42.29561 y89.509759
g1 z-1 f500
g1 x46.878714 y84.926884 f1200
g1 x51.461742 y89.509759
g1 x46.878714 y94.093398
g1 x42.29561 y89.509759
g1 z-2 f500
g1 x46.878714 y84.926884 f1200
g1 x51.461742 y89.509759
g1 x46.878714 y94.093398
g1 x42.29561 y89.509759
g1 z-3 f500
g1 x46.878714 y84.926884 f1200
g1 x51.461742 y89.509759
g1 x46.878714 y94.093398
g1 x42.29561 y89.509759
g0 z30
(Block-name: path4)
(Block-expand: 0)
(Block-enable: 0)

(End cutting path id: path4)


(Start cutting path id: path4)
(Change tool to Default tool)

G0 Z20
G0 X21.815821 Y89.5097

G1 Z-0.125 F100
G1 X27.813221 Y83.5127 Z-0.125 F400
G1 X33.81032 Y89.5097 Z-0.125
G1 X27.813221 Y95.5077 Z-0.125
G1 X21.815821 Y89.5097 Z-0.125
G0 Z20
(Block-name: path4 [in,cut])
(Block-expand: 0)
(Block-enable: 1)
g0 x23.230023 y89.509759
g1 z-1 f500
g1 x27.813203 y84.926884 f1200
g1 x32.396154 y89.509759
g1 x27.813203 y94.093398
g1 x23.230023 y89.509759
g1 z-2 f500
g1 x27.813203 y84.926884 f1200
g1 x32.396154 y89.509759
g1 x27.813203 y94.093398
g1 x23.230023 y89.509759
g1 z-3 f500
g1 x27.813203 y84.926884 f1200
g1 x32.396154 y89.509759
g1 x27.813203 y94.093398
g1 x23.230023 y89.509759
g0 z30
(Block-name: path4)
(Block-expand: 0)
(Block-enable: 0)

(End cutting path id: path4)


(Start cutting path id: path4)
(Change tool to Default tool)

G0 Z20
G0 X59.946921 Y89.5097

G1 Z-0.125 F100
G1 X65.944621 Y83.5127 Z-0.125 F400
G1 X71.941621 Y89.5097 Z-0.125
G1 X69.456621 Y91.99469 Z-0.125
G1 X63.689021 Y93.2517 Z-0.125
G1 X59.946921 Y89.5097 Z-0.125
G0 Z20
(Block-name: path4 [in,cut])
(Block-expand: 0)
(Block-enable: 1)
g0 x61.361185 y89.509732
g1 z-1 f500
g1 x65.94458 y84.926872 f1200
g1 x70.527406 y89.509699
g1 x68.956991 y91.080107
g1 x64.009832 y92.158307
g1 x61.361185 y89.509732
g1 z-2 f500
